{"type":"map","version":"1.10","tiledversion":"1.11.0","orientation":"orthogonal","renderorder":"right-down","tilewidth":8,"tileheight":8,"width":120,"height":75,"infinite":false,"nextlayerid":6,"nextobjectid":1,"layers":[{"id":1,"name":"Ciel, horizon et mer","type":"imagelayer","image":"../calques/jour/00_ciel_mer.png","visible":true,"opacity":1,"x":0,"y":0},{"id":2,"name":"Nuages de jour / lune et étoiles de nuit","type":"imagelayer","image":"../calques/jour/01_nuages_astres.png","visible":true,"opacity":1,"x":0,"y":0},{"id":3,"name":"Chemin, sol et paroi rocheuse","type":"imagelayer","image":"../calques/jour/02_terrain_falaise.png","visible":true,"opacity":1,"x":0,"y":0},{"id":4,"name":"Maison-courrier et abords immédiats","type":"imagelayer","image":"../calques/jour/03_maison.png","visible":true,"opacity":1,"x":0,"y":0},{"id":5,"name":"Arbres, herbes, fleurs et liserés de prairie","type":"imagelayer","image":"../calques/jour/04_vegetation.png","visible":true,"opacity":1,"x":0,"y":0}],"tilesets":[],"properties":[{"name":"reference_layout","type":"string","value":"cap_cotier"}]}