{
  "type": "map",
  "version": "1.10",
  "tiledversion": "1.11.0",
  "orientation": "orthogonal",
  "renderorder": "right-down",
  "tilewidth": 24,
  "tileheight": 24,
  "width": 5,
  "height": 4,
  "infinite": false,
  "nextlayerid": 2,
  "nextobjectid": 1,
  "tilesets": [
    {
      "firstgid": 1,
      "source": "bordures_pmd_nuit.tsj"
    }
  ],
  "layers": [
    {
      "id": 1,
      "name": "Vingt motifs orientés",
      "type": "tilelayer",
      "visible": true,
      "opacity": 1,
      "x": 0,
      "y": 0,
      "width": 5,
      "height": 4,
      "data": [
        1,
        2,
        3,
        4,
        5,
        6,
        7,
        8,
        9,
        10,
        11,
        12,
        13,
        14,
        15,
        16,
        17,
        18,
        19,
        20
      ]
    }
  ]
}
