{
  "type": "map",
  "version": "1.10",
  "orientation": "orthogonal",
  "renderorder": "right-down",
  "infinite": false,
  "tilewidth": 32,
  "tileheight": 32,
  "width": 16,
  "height": 13,
  "nextlayerid": 14,
  "nextobjectid": 43,
  "layers": [
    {
      "id": 1,
      "name": "00_fond_immersion",
      "visible": true,
      "opacity": 1,
      "properties": [
        {
          "name": "role",
          "type": "string",
          "value": "Fond d’immersion"
        }
      ],
      "type": "tilelayer",
      "width": 16,
      "height": 13,
      "x": 0,
      "y": 0,
      "data": [
        1,
        1,
        1,
        1,
        1,
        1,
        1,
        0,
        0,
        0,
        1,
        1,
        1,
        1,
        1,
        1,
        1,
        1,
        1,
        1,
        1,
        1,
        1,
        0,
        0,
        0,
        1,
        1,
        1,
        1,
        1,
        1,
        1,
        1,
        1,
        1,
        1,
        1,
        1,
        0,
        0,
        0,
        1,
        1,
        1,
        1,
        1,
        1,
        1,
        1,
        1,
        1,
        1,
        1,
        1,
        0,
        0,
        0,
        1,
        1,
        1,
        1,
        1,
        1,
        1,
        1,
        1,
        1,
        1,
        1,
        1,
        0,
        0,
        0,
        1,
        1,
        1,
        1,
        1,
        1,
        1,
        1,
        1,
        1,
        1,
        1,
        2,
        0,
        0,
        0,
        3,
        1,
        1,
        1,
        1,
        1,
        1,
        1,
        1,
        1,
        1,
        2,
        0,
        0,
        0,
        0,
        0,
        3,
        1,
        1,
        1,
        1,
        0,
        0,
        0,
        0,
        0,
        0,
        0,
        0,
        0,
        0,
        0,
        0,
        0,
        0,
        0,
        0,
        0,
        0,
        0,
        0,
        0,
        0,
        0,
        0,
        0,
        0,
        0,
        0,
        0,
        0,
        0,
        0,
        0,
        0,
        0,
        0,
        0,
        0,
        0,
        0,
        0,
        0,
        0,
        0,
        0,
        0,
        0,
        0,
        1,
        1,
        1,
        1,
        1,
        10,
        11,
        0,
        0,
        0,
        8,
        9,
        1,
        1,
        1,
        1,
        1,
        1,
        1,
        1,
        1,
        1,
        1,
        1,
        1,
        1,
        1,
        1,
        1,
        1,
        1,
        1,
        1,
        1,
        1,
        1,
        1,
        1,
        1,
        1,
        1,
        1,
        1,
        1,
        1,
        1,
        1,
        1
      ]
    },
    {
      "id": 2,
      "name": "01_soubassement",
      "visible": true,
      "opacity": 1,
      "properties": [
        {
          "name": "role",
          "type": "string",
          "value": "Soubassement d’écorce"
        }
      ],
      "type": "tilelayer",
      "width": 16,
      "height": 13,
      "x": 0,
      "y": 0,
      "data": [
        0,
        0,
        0,
        0,
        0,
        0,
        154,
        0,
        0,
        0,
        155,
        0,
        0,
        0,
        0,
        0,
        0,
        0,
        0,
        0,
        0,
        0,
        156,
        0,
        0,
        0,
        157,
        0,
        0,
        0,
        0,
        0,
        0,
        0,
        0,
        0,
        0,
        0,
        158,
        0,
        0,
        0,
        159,
        0,
        0,
        0,
        0,
        0,
        0,
        0,
        0,
        0,
        0,
        0,
        160,
        0,
        0,
        0,
        161,
        0,
        0,
        0,
        0,
        0,
        0,
        0,
        0,
        0,
        0,
        0,
        162,
        0,
        0,
        0,
        163,
        0,
        0,
        0,
        0,
        0,
        0,
        0,
        0,
        0,
        0,
        164,
        165,
        0,
        0,
        0,
        166,
        167,
        0,
        0,
        0,
        0,
        168,
        169,
        170,
        171,
        172,
        173,
        0,
        0,
        0,
        0,
        0,
        174,
        175,
        176,
        177,
        178,
        0,
        0,
        0,
        0,
        0,
        0,
        0,
        0,
        0,
        0,
        0,
        0,
        0,
        0,
        0,
        0,
        0,
        0,
        0,
        0,
        0,
        0,
        0,
        0,
        0,
        0,
        0,
        0,
        0,
        0,
        0,
        0,
        0,
        0,
        0,
        0,
        0,
        0,
        0,
        0,
        0,
        0,
        0,
        0,
        0,
        0,
        0,
        0,
        179,
        180,
        181,
        182,
        183,
        184,
        185,
        0,
        0,
        0,
        186,
        187,
        188,
        189,
        190,
        191,
        0,
        0,
        0,
        0,
        0,
        192,
        193,
        194,
        195,
        196,
        197,
        198,
        0,
        0,
        0,
        0,
        0,
        0,
        0,
        0,
        0,
        0,
        0,
        0,
        0,
        0,
        0,
        0,
        0,
        0,
        0,
        0
      ]
    },
    {
      "id": 3,
      "name": "02_feuillage_arriere",
      "visible": true,
      "opacity": 1,
      "properties": [
        {
          "name": "role",
          "type": "string",
          "value": "Feuillage arrière"
        }
      ],
      "type": "objectgroup",
      "draworder": "index",
      "objects": [
        {
          "id": 1,
          "name": "canopée_2",
          "gid": 370,
          "x": 309,
          "y": 106,
          "width": 58,
          "height": 43,
          "rotation": 0,
          "visible": true
        },
        {
          "id": 2,
          "name": "canopée_1",
          "gid": 369,
          "x": 312,
          "y": 125,
          "width": 64,
          "height": 36,
          "rotation": 0,
          "visible": true
        },
        {
          "id": 3,
          "name": "canopée_2",
          "gid": 370,
          "x": 347,
          "y": 157,
          "width": 58,
          "height": 43,
          "rotation": 0,
          "visible": true
        },
        {
          "id": 4,
          "name": "canopée_3",
          "gid": 371,
          "x": 387,
          "y": 173,
          "width": 58,
          "height": 43,
          "rotation": 0,
          "visible": true
        },
        {
          "id": 5,
          "name": "canopée_2",
          "gid": 370,
          "x": 51,
          "y": 173,
          "width": 58,
          "height": 43,
          "rotation": 0,
          "visible": true
        },
        {
          "id": 6,
          "name": "canopée_3",
          "gid": 371,
          "x": 104,
          "y": 173,
          "width": 58,
          "height": 43,
          "rotation": 0,
          "visible": true
        },
        {
          "id": 7,
          "name": "canopée_2",
          "gid": 370,
          "x": 139,
          "y": 157,
          "width": 58,
          "height": 43,
          "rotation": 0,
          "visible": true
        },
        {
          "id": 8,
          "name": "canopée_3",
          "gid": 371,
          "x": 171,
          "y": 125,
          "width": 58,
          "height": 43,
          "rotation": 0,
          "visible": true
        },
        {
          "id": 9,
          "name": "canopée_0",
          "gid": 374,
          "x": 174,
          "y": 106,
          "width": 64,
          "height": 36,
          "rotation": 0,
          "visible": true
        }
      ]
    },
    {
      "id": 4,
      "name": "03_parquet",
      "visible": true,
      "opacity": 1,
      "properties": [
        {
          "name": "role",
          "type": "string",
          "value": "Parquet"
        }
      ],
      "type": "tilelayer",
      "width": 16,
      "height": 13,
      "x": 0,
      "y": 0,
      "data": [
        0,
        0,
        0,
        0,
        0,
        0,
        0,
        391,
        392,
        380,
        0,
        0,
        0,
        0,
        0,
        0,
        0,
        0,
        0,
        0,
        0,
        0,
        0,
        388,
        389,
        390,
        0,
        0,
        0,
        0,
        0,
        0,
        0,
        0,
        0,
        0,
        0,
        0,
        0,
        385,
        386,
        387,
        0,
        0,
        0,
        0,
        0,
        0,
        0,
        0,
        0,
        0,
        0,
        0,
        0,
        394,
        395,
        396,
        0,
        0,
        0,
        0,
        0,
        0,
        0,
        0,
        0,
        0,
        0,
        0,
        0,
        382,
        383,
        393,
        0,
        0,
        0,
        0,
        0,
        0,
        0,
        0,
        0,
        0,
        0,
        0,
        399,
        392,
        380,
        381,
        400,
        0,
        0,
        0,
        0,
        0,
        0,
        0,
        0,
        0,
        0,
        412,
        388,
        389,
        390,
        391,
        392,
        404,
        0,
        0,
        0,
        0,
        382,
        383,
        393,
        394,
        395,
        396,
        385,
        386,
        387,
        388,
        389,
        390,
        391,
        392,
        380,
        381,
        392,
        380,
        381,
        382,
        383,
        393,
        394,
        395,
        396,
        385,
        386,
        387,
        388,
        389,
        390,
        391,
        389,
        390,
        391,
        392,
        380,
        381,
        382,
        383,
        393,
        394,
        395,
        396,
        385,
        386,
        387,
        388,
        0,
        0,
        0,
        0,
        0,
        413,
        414,
        380,
        381,
        382,
        415,
        416,
        0,
        0,
        0,
        0,
        0,
        0,
        0,
        0,
        0,
        0,
        0,
        0,
        0,
        0,
        0,
        0,
        0,
        0,
        0,
        0,
        0,
        0,
        0,
        0,
        0,
        0,
        0,
        0,
        0,
        0,
        0,
        0,
        0,
        0,
        0,
        0
      ]
    },
    {
      "id": 5,
      "name": "04_murs_fond",
      "visible": true,
      "opacity": 1,
      "properties": [
        {
          "name": "role",
          "type": "string",
          "value": "Panneaux du fond"
        }
      ],
      "type": "objectgroup",
      "draworder": "index",
      "objects": [
        {
          "id": 10,
          "name": "murs_fond_64_0",
          "gid": 475,
          "x": 381,
          "y": 229,
          "width": 72,
          "height": 72,
          "rotation": 0,
          "visible": true
        },
        {
          "id": 11,
          "name": "murs_fond_64_0",
          "gid": 475,
          "x": 445,
          "y": 229,
          "width": 72,
          "height": 72,
          "rotation": 0,
          "visible": true
        },
        {
          "id": 12,
          "name": "murs_fond_53_0",
          "gid": 477,
          "x": -3,
          "y": 229,
          "width": 64,
          "height": 72,
          "rotation": 0,
          "visible": true
        },
        {
          "id": 13,
          "name": "murs_fond_53_0",
          "gid": 477,
          "x": 50,
          "y": 229,
          "width": 64,
          "height": 72,
          "rotation": 0,
          "visible": true
        },
        {
          "id": 14,
          "name": "murs_fond_53_0",
          "gid": 477,
          "x": 104,
          "y": 229,
          "width": 64,
          "height": 72,
          "rotation": 0,
          "visible": true
        }
      ]
    },
    {
      "id": 6,
      "name": "05_murs_retours",
      "visible": true,
      "opacity": 1,
      "properties": [
        {
          "name": "role",
          "type": "string",
          "value": "Murs de retour"
        }
      ],
      "type": "objectgroup",
      "draworder": "index",
      "objects": [
        {
          "id": 15,
          "name": "murs_retours_0_53",
          "gid": 494,
          "x": 317,
          "y": 61,
          "width": 32,
          "height": 104,
          "rotation": 0,
          "visible": true
        },
        {
          "id": 16,
          "name": "murs_retours_0_53",
          "gid": 494,
          "x": 317,
          "y": 114,
          "width": 32,
          "height": 104,
          "rotation": 0,
          "visible": true
        },
        {
          "id": 17,
          "name": "murs_retours_0_53",
          "gid": 494,
          "x": 317,
          "y": 168,
          "width": 32,
          "height": 104,
          "rotation": 0,
          "visible": true
        },
        {
          "id": 18,
          "name": "murs_fond_32_32",
          "gid": 481,
          "x": 317,
          "y": 197,
          "width": 48,
          "height": 104,
          "rotation": 0,
          "visible": true
        },
        {
          "id": 19,
          "name": "murs_fond_32_32",
          "gid": 481,
          "x": 349,
          "y": 229,
          "width": 48,
          "height": 104,
          "rotation": 0,
          "visible": true
        },
        {
          "id": 20,
          "name": "murs_fond_32_-32",
          "gid": 480,
          "x": 149,
          "y": 229,
          "width": 48,
          "height": 104,
          "rotation": 0,
          "visible": true
        },
        {
          "id": 21,
          "name": "murs_fond_32_-32",
          "gid": 480,
          "x": 181,
          "y": 197,
          "width": 48,
          "height": 104,
          "rotation": 0,
          "visible": true
        },
        {
          "id": 22,
          "name": "murs_retours_0_-53",
          "gid": 500,
          "x": 203,
          "y": 168,
          "width": 32,
          "height": 104,
          "rotation": 0,
          "visible": true
        },
        {
          "id": 23,
          "name": "murs_retours_0_-53",
          "gid": 500,
          "x": 203,
          "y": 115,
          "width": 32,
          "height": 104,
          "rotation": 0,
          "visible": true
        },
        {
          "id": 24,
          "name": "murs_retours_0_-53",
          "gid": 500,
          "x": 203,
          "y": 61,
          "width": 32,
          "height": 104,
          "rotation": 0,
          "visible": true
        },
        {
          "id": 25,
          "name": "joint_de_panneaux",
          "gid": 490,
          "x": 318,
          "y": 166,
          "width": 24,
          "height": 72,
          "rotation": 0,
          "visible": true
        },
        {
          "id": 26,
          "name": "joint_de_panneaux",
          "gid": 485,
          "x": 382,
          "y": 230,
          "width": 16,
          "height": 72,
          "rotation": 0,
          "visible": true
        },
        {
          "id": 27,
          "name": "joint_de_panneaux",
          "gid": 482,
          "x": 150,
          "y": 230,
          "width": 16,
          "height": 72,
          "rotation": 0,
          "visible": true
        },
        {
          "id": 28,
          "name": "joint_de_panneaux",
          "gid": 493,
          "x": 204,
          "y": 166,
          "width": 24,
          "height": 72,
          "rotation": 0,
          "visible": true
        }
      ]
    },
    {
      "id": 7,
      "name": "06_ombres_contact",
      "visible": true,
      "opacity": 1,
      "properties": [
        {
          "name": "role",
          "type": "string",
          "value": "Ombres de contact"
        }
      ],
      "type": "tilelayer",
      "width": 16,
      "height": 13,
      "x": 0,
      "y": 0,
      "data": [
        0,
        0,
        0,
        0,
        0,
        0,
        0,
        527,
        0,
        528,
        0,
        0,
        0,
        0,
        0,
        0,
        0,
        0,
        0,
        0,
        0,
        0,
        0,
        527,
        0,
        528,
        0,
        0,
        0,
        0,
        0,
        0,
        0,
        0,
        0,
        0,
        0,
        0,
        0,
        527,
        0,
        528,
        0,
        0,
        0,
        0,
        0,
        0,
        0,
        0,
        0,
        0,
        0,
        0,
        0,
        527,
        0,
        528,
        0,
        0,
        0,
        0,
        0,
        0,
        0,
        0,
        0,
        0,
        0,
        0,
        0,
        529,
        0,
        530,
        0,
        0,
        0,
        0,
        0,
        0,
        0,
        0,
        0,
        0,
        0,
        0,
        513,
        531,
        0,
        532,
        517,
        0,
        0,
        0,
        0,
        0,
        0,
        0,
        0,
        0,
        0,
        513,
        548,
        0,
        0,
        0,
        549,
        517,
        0,
        0,
        0,
        0,
        515,
        515,
        515,
        515,
        515,
        518,
        0,
        0,
        0,
        0,
        0,
        519,
        515,
        515,
        515,
        515,
        0,
        0,
        0,
        0,
        0,
        0,
        0,
        0,
        0,
        0,
        0,
        0,
        0,
        0,
        0,
        0,
        520,
        520,
        520,
        520,
        520,
        550,
        0,
        0,
        0,
        0,
        0,
        551,
        520,
        520,
        520,
        520,
        0,
        0,
        0,
        0,
        0,
        552,
        553,
        520,
        520,
        520,
        554,
        555,
        0,
        0,
        0,
        0,
        0,
        0,
        0,
        0,
        0,
        0,
        0,
        0,
        0,
        0,
        0,
        0,
        0,
        0,
        0,
        0,
        0,
        0,
        0,
        0,
        0,
        0,
        0,
        0,
        0,
        0,
        0,
        0,
        0,
        0,
        0,
        0
      ]
    },
    {
      "id": 8,
      "name": "07_reflets_seuils",
      "visible": true,
      "opacity": 1,
      "properties": [
        {
          "name": "role",
          "type": "string",
          "value": "Reflets des seuils"
        }
      ],
      "type": "tilelayer",
      "width": 16,
      "height": 13,
      "x": 0,
      "y": 0,
      "data": [
        0,
        0,
        0,
        0,
        0,
        0,
        0,
        597,
        0,
        598,
        0,
        0,
        0,
        0,
        0,
        0,
        0,
        0,
        0,
        0,
        0,
        0,
        0,
        0,
        0,
        0,
        0,
        0,
        0,
        0,
        0,
        0,
        0,
        0,
        0,
        0,
        0,
        0,
        0,
        0,
        0,
        0,
        0,
        0,
        0,
        0,
        0,
        0,
        0,
        0,
        0,
        0,
        0,
        0,
        0,
        0,
        0,
        0,
        0,
        0,
        0,
        0,
        0,
        0,
        0,
        0,
        0,
        0,
        0,
        0,
        0,
        0,
        0,
        0,
        0,
        0,
        0,
        0,
        0,
        0,
        0,
        0,
        0,
        0,
        0,
        0,
        0,
        0,
        0,
        0,
        0,
        0,
        0,
        0,
        0,
        0,
        0,
        0,
        0,
        0,
        0,
        0,
        0,
        0,
        0,
        0,
        0,
        0,
        0,
        0,
        0,
        0,
        593,
        0,
        0,
        0,
        0,
        0,
        0,
        0,
        0,
        0,
        0,
        0,
        0,
        0,
        0,
        594,
        0,
        0,
        0,
        0,
        0,
        0,
        0,
        0,
        0,
        0,
        0,
        0,
        0,
        0,
        0,
        0,
        595,
        0,
        0,
        0,
        0,
        0,
        0,
        0,
        0,
        0,
        0,
        0,
        0,
        0,
        0,
        596,
        0,
        0,
        0,
        0,
        0,
        0,
        0,
        0,
        0,
        0,
        0,
        0,
        0,
        0,
        0,
        0,
        0,
        0,
        0,
        0,
        0,
        0,
        0,
        0,
        0,
        0,
        0,
        0,
        0,
        0,
        0,
        0,
        0,
        0,
        0,
        0,
        0,
        0,
        0,
        0,
        0,
        0,
        0,
        0,
        0,
        0,
        0,
        0
      ]
    },
    {
      "id": 9,
      "name": "08_spirales",
      "visible": true,
      "opacity": 1,
      "properties": [
        {
          "name": "role",
          "type": "string",
          "value": "Traces spiralées"
        }
      ],
      "type": "objectgroup",
      "draworder": "index",
      "objects": []
    },
    {
      "id": 10,
      "name": "09_ombres_objets",
      "visible": true,
      "opacity": 1,
      "properties": [
        {
          "name": "role",
          "type": "string",
          "value": "Ombres des objets"
        }
      ],
      "type": "objectgroup",
      "draworder": "index",
      "objects": []
    },
    {
      "id": 11,
      "name": "10_objets",
      "visible": true,
      "opacity": 1,
      "properties": [
        {
          "name": "role",
          "type": "string",
          "value": "Objets et tentures"
        }
      ],
      "type": "objectgroup",
      "draworder": "index",
      "objects": []
    },
    {
      "id": 12,
      "name": "11_ecorce_racines_avant",
      "visible": true,
      "opacity": 1,
      "properties": [
        {
          "name": "role",
          "type": "string",
          "value": "Écorce et racines avant"
        }
      ],
      "type": "tilelayer",
      "width": 16,
      "height": 13,
      "x": 0,
      "y": 0,
      "data": [
        0,
        0,
        0,
        0,
        0,
        630,
        706,
        0,
        0,
        0,
        707,
        623,
        0,
        0,
        0,
        0,
        0,
        0,
        0,
        0,
        0,
        0,
        708,
        0,
        0,
        0,
        709,
        0,
        0,
        0,
        0,
        0,
        0,
        0,
        0,
        0,
        0,
        624,
        710,
        0,
        0,
        0,
        711,
        629,
        0,
        0,
        0,
        0,
        0,
        0,
        0,
        0,
        0,
        0,
        712,
        0,
        0,
        0,
        713,
        633,
        0,
        0,
        0,
        0,
        0,
        0,
        0,
        0,
        0,
        630,
        714,
        0,
        0,
        0,
        715,
        623,
        0,
        0,
        0,
        0,
        0,
        0,
        0,
        0,
        0,
        0,
        0,
        0,
        0,
        0,
        671,
        0,
        0,
        0,
        0,
        0,
        0,
        0,
        0,
        0,
        0,
        0,
        0,
        0,
        0,
        0,
        0,
        0,
        0,
        0,
        0,
        0,
        0,
        0,
        0,
        0,
        0,
        0,
        0,
        0,
        0,
        0,
        0,
        0,
        0,
        0,
        0,
        0,
        0,
        0,
        0,
        0,
        0,
        0,
        0,
        0,
        0,
        0,
        0,
        0,
        0,
        0,
        0,
        0,
        0,
        0,
        0,
        0,
        0,
        0,
        0,
        0,
        0,
        0,
        0,
        0,
        0,
        0,
        0,
        0,
        716,
        717,
        718,
        719,
        720,
        721,
        722,
        0,
        0,
        0,
        723,
        724,
        725,
        726,
        727,
        728,
        729,
        0,
        730,
        0,
        729,
        731,
        732,
        733,
        734,
        735,
        736,
        737,
        0,
        611,
        0,
        620,
        0,
        0,
        0,
        0,
        0,
        0,
        0,
        730,
        0,
        729,
        0,
        0,
        0,
        0,
        0,
        0
      ]
    },
    {
      "id": 13,
      "name": "12_feuillage_avant",
      "visible": true,
      "opacity": 1,
      "properties": [
        {
          "name": "role",
          "type": "string",
          "value": "Feuillage de premier plan"
        }
      ],
      "type": "objectgroup",
      "draworder": "index",
      "objects": [
        {
          "id": 29,
          "name": "bordure_végétale_1",
          "gid": 369,
          "x": 310,
          "y": 102,
          "width": 64,
          "height": 36,
          "rotation": 0,
          "visible": true
        },
        {
          "id": 30,
          "name": "bordure_végétale_2",
          "gid": 370,
          "x": 305,
          "y": 163,
          "width": 58,
          "height": 43,
          "rotation": 0,
          "visible": true
        },
        {
          "id": 31,
          "name": "retombée_1",
          "gid": 373,
          "x": 400,
          "y": 200,
          "width": 32,
          "height": 46,
          "rotation": 0,
          "visible": true
        },
        {
          "id": 32,
          "name": "bordure_végétale_5",
          "gid": 375,
          "x": 406,
          "y": 361,
          "width": 45,
          "height": 54,
          "rotation": 0,
          "visible": true
        },
        {
          "id": 33,
          "name": "bordure_végétale_6",
          "gid": 376,
          "x": 350,
          "y": 369,
          "width": 39,
          "height": 54,
          "rotation": 0,
          "visible": true
        },
        {
          "id": 34,
          "name": "bordure_végétale_7",
          "gid": 377,
          "x": 340,
          "y": 375,
          "width": 39,
          "height": 54,
          "rotation": 0,
          "visible": true
        },
        {
          "id": 35,
          "name": "bordure_végétale_2",
          "gid": 370,
          "x": 281,
          "y": 387,
          "width": 58,
          "height": 43,
          "rotation": 0,
          "visible": true
        },
        {
          "id": 36,
          "name": "bordure_végétale_3",
          "gid": 371,
          "x": 223,
          "y": 387,
          "width": 58,
          "height": 43,
          "rotation": 0,
          "visible": true
        },
        {
          "id": 37,
          "name": "bordure_végétale_5",
          "gid": 375,
          "x": 157,
          "y": 371,
          "width": 45,
          "height": 54,
          "rotation": 0,
          "visible": true
        },
        {
          "id": 38,
          "name": "bordure_végétale_0",
          "gid": 374,
          "x": 118,
          "y": 352,
          "width": 64,
          "height": 36,
          "rotation": 0,
          "visible": true
        },
        {
          "id": 39,
          "name": "bordure_végétale_1",
          "gid": 369,
          "x": 60,
          "y": 352,
          "width": 64,
          "height": 36,
          "rotation": 0,
          "visible": true
        },
        {
          "id": 40,
          "name": "retombée_0",
          "gid": 377,
          "x": 186,
          "y": 141,
          "width": 39,
          "height": 54,
          "rotation": 0,
          "visible": true
        },
        {
          "id": 41,
          "name": "bordure_végétale_4",
          "gid": 378,
          "x": 188,
          "y": 161,
          "width": 45,
          "height": 54,
          "rotation": 0,
          "visible": true
        },
        {
          "id": 42,
          "name": "bordure_végétale_5",
          "gid": 375,
          "x": 188,
          "y": 103,
          "width": 45,
          "height": 54,
          "rotation": 0,
          "visible": true
        }
      ]
    }
  ],
  "tilesets": [
    {
      "firstgid": 1,
      "source": "../../tiled/hallways_fond_nuit.tsj"
    },
    {
      "firstgid": 33,
      "source": "../../tiled/hallways_soubassement_nuit.tsj"
    },
    {
      "firstgid": 369,
      "source": "../../tiled/hallways_vegetation_nuit.tsj"
    },
    {
      "firstgid": 379,
      "source": "../../tiled/hallways_sol_decoupe_nuit.tsj"
    },
    {
      "firstgid": 475,
      "source": "../../tiled/hallways_murs_fond_nuit.tsj"
    },
    {
      "firstgid": 480,
      "source": "../../tiled/hallways_murs_retours_nuit.tsj"
    },
    {
      "firstgid": 513,
      "source": "../../tiled/hallways_contacts_nuit.tsj"
    },
    {
      "firstgid": 593,
      "source": "../../tiled/hallways_reflets_nuit.tsj"
    },
    {
      "firstgid": 601,
      "source": "../../tiled/hallways_ecorce_avant_nuit.tsj"
    },
    {
      "firstgid": 873,
      "source": "../../tiled/hallways_motifs_nuit.tsj"
    },
    {
      "firstgid": 889,
      "source": "../../tiled/hallways_ombres_objets_nuit.tsj"
    },
    {
      "firstgid": 909,
      "source": "../../tiled/hallways_objets_nuit.tsj"
    }
  ],
  "properties": [
    {
      "name": "architecture",
      "type": "string",
      "value": "panneaux verticaux + bordures d’immersion"
    }
  ]
}
