{
  "type": "map",
  "version": "1.10",
  "orientation": "orthogonal",
  "renderorder": "right-down",
  "infinite": false,
  "tilewidth": 32,
  "tileheight": 32,
  "width": 14,
  "height": 11,
  "nextlayerid": 14,
  "nextobjectid": 27,
  "layers": [
    {
      "id": 1,
      "name": "00_fond_immersion",
      "visible": true,
      "opacity": 1,
      "properties": [
        {
          "name": "role",
          "type": "string",
          "value": "Fond d’immersion"
        }
      ],
      "type": "tilelayer",
      "width": 14,
      "height": 11,
      "x": 0,
      "y": 0,
      "data": [
        1,
        1,
        1,
        1,
        1,
        1,
        1,
        1,
        1,
        1,
        1,
        1,
        1,
        1,
        1,
        1,
        1,
        1,
        1,
        1,
        1,
        1,
        1,
        1,
        1,
        1,
        1,
        1,
        1,
        1,
        1,
        1,
        1,
        1,
        1,
        1,
        1,
        1,
        1,
        1,
        1,
        1,
        1,
        1,
        1,
        1,
        1,
        1,
        1,
        1,
        1,
        1,
        1,
        1,
        1,
        1,
        1,
        1,
        1,
        1,
        2,
        0,
        0,
        0,
        0,
        3,
        1,
        1,
        1,
        1,
        0,
        0,
        0,
        0,
        0,
        0,
        0,
        0,
        0,
        0,
        0,
        0,
        0,
        0,
        0,
        0,
        0,
        0,
        0,
        0,
        0,
        0,
        0,
        0,
        0,
        0,
        0,
        0,
        0,
        0,
        0,
        0,
        0,
        0,
        0,
        0,
        0,
        0,
        0,
        0,
        0,
        0,
        1,
        1,
        1,
        1,
        4,
        0,
        0,
        0,
        0,
        5,
        1,
        1,
        1,
        1,
        1,
        1,
        1,
        1,
        1,
        1,
        1,
        1,
        1,
        1,
        1,
        1,
        1,
        1,
        1,
        1,
        1,
        1,
        1,
        1,
        1,
        1,
        1,
        1,
        1,
        1,
        1,
        1
      ]
    },
    {
      "id": 2,
      "name": "01_soubassement",
      "visible": true,
      "opacity": 1,
      "properties": [
        {
          "name": "role",
          "type": "string",
          "value": "Soubassement d’écorce"
        }
      ],
      "type": "tilelayer",
      "width": 14,
      "height": 11,
      "x": 0,
      "y": 0,
      "data": [
        0,
        0,
        0,
        0,
        0,
        0,
        0,
        0,
        0,
        0,
        0,
        0,
        0,
        0,
        0,
        0,
        0,
        0,
        0,
        0,
        0,
        0,
        0,
        0,
        0,
        0,
        0,
        0,
        0,
        0,
        0,
        0,
        0,
        0,
        0,
        0,
        0,
        0,
        0,
        0,
        0,
        0,
        0,
        0,
        0,
        0,
        33,
        34,
        35,
        36,
        37,
        38,
        0,
        0,
        0,
        0,
        39,
        40,
        41,
        42,
        43,
        0,
        0,
        0,
        0,
        44,
        45,
        46,
        47,
        48,
        0,
        0,
        0,
        0,
        0,
        0,
        0,
        0,
        0,
        0,
        0,
        0,
        0,
        0,
        0,
        0,
        0,
        0,
        0,
        0,
        0,
        0,
        0,
        0,
        0,
        0,
        0,
        0,
        0,
        0,
        0,
        0,
        0,
        0,
        0,
        0,
        0,
        0,
        0,
        0,
        0,
        0,
        49,
        50,
        51,
        52,
        53,
        0,
        0,
        0,
        0,
        54,
        55,
        56,
        57,
        58,
        0,
        0,
        0,
        0,
        59,
        60,
        61,
        62,
        63,
        64,
        0,
        0,
        0,
        0,
        0,
        0,
        0,
        0,
        0,
        0,
        0,
        0,
        0,
        0,
        0,
        0,
        0,
        0
      ]
    },
    {
      "id": 3,
      "name": "02_feuillage_arriere",
      "visible": true,
      "opacity": 1,
      "properties": [
        {
          "name": "role",
          "type": "string",
          "value": "Feuillage arrière"
        }
      ],
      "type": "objectgroup",
      "draworder": "index",
      "objects": [
        {
          "id": 1,
          "name": "canopée_1",
          "gid": 369,
          "x": 64,
          "y": 109,
          "width": 64,
          "height": 36,
          "rotation": 0,
          "visible": true
        },
        {
          "id": 2,
          "name": "canopée_1",
          "gid": 369,
          "x": 104,
          "y": 93,
          "width": 64,
          "height": 36,
          "rotation": 0,
          "visible": true
        },
        {
          "id": 3,
          "name": "canopée_2",
          "gid": 370,
          "x": 163,
          "y": 77,
          "width": 58,
          "height": 43,
          "rotation": 0,
          "visible": true
        },
        {
          "id": 4,
          "name": "canopée_3",
          "gid": 371,
          "x": 227,
          "y": 77,
          "width": 58,
          "height": 43,
          "rotation": 0,
          "visible": true
        },
        {
          "id": 5,
          "name": "canopée_3",
          "gid": 371,
          "x": 283,
          "y": 93,
          "width": 58,
          "height": 43,
          "rotation": 0,
          "visible": true
        },
        {
          "id": 6,
          "name": "canopée_0",
          "gid": 374,
          "x": 320,
          "y": 109,
          "width": 64,
          "height": 36,
          "rotation": 0,
          "visible": true
        }
      ]
    },
    {
      "id": 4,
      "name": "03_parquet",
      "visible": true,
      "opacity": 1,
      "properties": [
        {
          "name": "role",
          "type": "string",
          "value": "Parquet"
        }
      ],
      "type": "tilelayer",
      "width": 14,
      "height": 11,
      "x": 0,
      "y": 0,
      "data": [
        0,
        0,
        0,
        0,
        0,
        0,
        0,
        0,
        0,
        0,
        0,
        0,
        0,
        0,
        0,
        0,
        0,
        0,
        0,
        0,
        0,
        0,
        0,
        0,
        0,
        0,
        0,
        0,
        0,
        0,
        0,
        0,
        0,
        0,
        0,
        0,
        0,
        0,
        0,
        0,
        0,
        0,
        0,
        0,
        0,
        0,
        0,
        0,
        0,
        0,
        0,
        0,
        0,
        0,
        0,
        0,
        0,
        0,
        0,
        0,
        379,
        380,
        381,
        382,
        383,
        384,
        0,
        0,
        0,
        0,
        385,
        386,
        387,
        388,
        389,
        390,
        391,
        392,
        380,
        381,
        382,
        383,
        393,
        394,
        394,
        395,
        396,
        385,
        386,
        387,
        388,
        389,
        390,
        391,
        392,
        380,
        381,
        382,
        382,
        383,
        393,
        394,
        395,
        396,
        385,
        386,
        387,
        388,
        389,
        390,
        391,
        392,
        0,
        0,
        0,
        0,
        397,
        393,
        394,
        395,
        396,
        398,
        0,
        0,
        0,
        0,
        0,
        0,
        0,
        0,
        0,
        0,
        0,
        0,
        0,
        0,
        0,
        0,
        0,
        0,
        0,
        0,
        0,
        0,
        0,
        0,
        0,
        0,
        0,
        0,
        0,
        0,
        0,
        0
      ]
    },
    {
      "id": 5,
      "name": "04_murs_fond",
      "visible": true,
      "opacity": 1,
      "properties": [
        {
          "name": "role",
          "type": "string",
          "value": "Panneaux du fond"
        }
      ],
      "type": "objectgroup",
      "draworder": "index",
      "objects": [
        {
          "id": 7,
          "name": "murs_fond_64_0",
          "gid": 475,
          "x": -3,
          "y": 165,
          "width": 72,
          "height": 72,
          "rotation": 0,
          "visible": true
        },
        {
          "id": 8,
          "name": "murs_fond_64_0",
          "gid": 475,
          "x": 61,
          "y": 165,
          "width": 72,
          "height": 72,
          "rotation": 0,
          "visible": true
        },
        {
          "id": 9,
          "name": "murs_fond_64_0",
          "gid": 475,
          "x": 157,
          "y": 133,
          "width": 72,
          "height": 72,
          "rotation": 0,
          "visible": true
        },
        {
          "id": 10,
          "name": "murs_fond_64_0",
          "gid": 475,
          "x": 221,
          "y": 133,
          "width": 72,
          "height": 72,
          "rotation": 0,
          "visible": true
        },
        {
          "id": 11,
          "name": "murs_fond_64_0",
          "gid": 475,
          "x": 317,
          "y": 165,
          "width": 72,
          "height": 72,
          "rotation": 0,
          "visible": true
        },
        {
          "id": 12,
          "name": "murs_fond_64_0",
          "gid": 475,
          "x": 381,
          "y": 165,
          "width": 72,
          "height": 72,
          "rotation": 0,
          "visible": true
        }
      ]
    },
    {
      "id": 6,
      "name": "05_murs_retours",
      "visible": true,
      "opacity": 1,
      "properties": [
        {
          "name": "role",
          "type": "string",
          "value": "Murs de retour"
        }
      ],
      "type": "objectgroup",
      "draworder": "index",
      "objects": [
        {
          "id": 13,
          "name": "murs_fond_32_-32",
          "gid": 480,
          "x": 117,
          "y": 165,
          "width": 48,
          "height": 104,
          "rotation": 0,
          "visible": true
        },
        {
          "id": 14,
          "name": "murs_fond_32_32",
          "gid": 481,
          "x": 285,
          "y": 165,
          "width": 48,
          "height": 104,
          "rotation": 0,
          "visible": true
        },
        {
          "id": 15,
          "name": "joint_de_panneaux",
          "gid": 482,
          "x": 118,
          "y": 166,
          "width": 16,
          "height": 72,
          "rotation": 0,
          "visible": true
        },
        {
          "id": 16,
          "name": "joint_de_panneaux",
          "gid": 483,
          "x": 150,
          "y": 134,
          "width": 16,
          "height": 72,
          "rotation": 0,
          "visible": true
        },
        {
          "id": 17,
          "name": "joint_de_panneaux",
          "gid": 484,
          "x": 286,
          "y": 134,
          "width": 16,
          "height": 72,
          "rotation": 0,
          "visible": true
        },
        {
          "id": 18,
          "name": "joint_de_panneaux",
          "gid": 485,
          "x": 318,
          "y": 166,
          "width": 16,
          "height": 72,
          "rotation": 0,
          "visible": true
        }
      ]
    },
    {
      "id": 7,
      "name": "06_ombres_contact",
      "visible": true,
      "opacity": 1,
      "properties": [
        {
          "name": "role",
          "type": "string",
          "value": "Ombres de contact"
        }
      ],
      "type": "tilelayer",
      "width": 14,
      "height": 11,
      "x": 0,
      "y": 0,
      "data": [
        0,
        0,
        0,
        0,
        0,
        0,
        0,
        0,
        0,
        0,
        0,
        0,
        0,
        0,
        0,
        0,
        0,
        0,
        0,
        0,
        0,
        0,
        0,
        0,
        0,
        0,
        0,
        0,
        0,
        0,
        0,
        0,
        0,
        0,
        0,
        0,
        0,
        0,
        0,
        0,
        0,
        0,
        0,
        0,
        0,
        0,
        0,
        0,
        0,
        0,
        0,
        0,
        0,
        0,
        0,
        0,
        0,
        0,
        0,
        0,
        513,
        514,
        515,
        515,
        516,
        517,
        0,
        0,
        0,
        0,
        515,
        515,
        515,
        515,
        518,
        0,
        0,
        0,
        0,
        519,
        515,
        515,
        515,
        515,
        0,
        0,
        0,
        0,
        0,
        0,
        0,
        0,
        0,
        0,
        0,
        0,
        0,
        0,
        520,
        520,
        520,
        520,
        521,
        0,
        0,
        0,
        0,
        522,
        520,
        520,
        520,
        520,
        0,
        0,
        0,
        0,
        523,
        524,
        520,
        520,
        525,
        526,
        0,
        0,
        0,
        0,
        0,
        0,
        0,
        0,
        0,
        0,
        0,
        0,
        0,
        0,
        0,
        0,
        0,
        0,
        0,
        0,
        0,
        0,
        0,
        0,
        0,
        0,
        0,
        0,
        0,
        0,
        0,
        0
      ]
    },
    {
      "id": 8,
      "name": "07_reflets_seuils",
      "visible": true,
      "opacity": 1,
      "properties": [
        {
          "name": "role",
          "type": "string",
          "value": "Reflets des seuils"
        }
      ],
      "type": "tilelayer",
      "width": 14,
      "height": 11,
      "x": 0,
      "y": 0,
      "data": [
        0,
        0,
        0,
        0,
        0,
        0,
        0,
        0,
        0,
        0,
        0,
        0,
        0,
        0,
        0,
        0,
        0,
        0,
        0,
        0,
        0,
        0,
        0,
        0,
        0,
        0,
        0,
        0,
        0,
        0,
        0,
        0,
        0,
        0,
        0,
        0,
        0,
        0,
        0,
        0,
        0,
        0,
        0,
        0,
        0,
        0,
        0,
        0,
        0,
        0,
        0,
        0,
        0,
        0,
        0,
        0,
        0,
        0,
        0,
        0,
        0,
        0,
        0,
        0,
        0,
        0,
        0,
        0,
        0,
        0,
        593,
        0,
        0,
        0,
        0,
        0,
        0,
        0,
        0,
        0,
        0,
        0,
        0,
        594,
        0,
        0,
        0,
        0,
        0,
        0,
        0,
        0,
        0,
        0,
        0,
        0,
        0,
        0,
        595,
        0,
        0,
        0,
        0,
        0,
        0,
        0,
        0,
        0,
        0,
        0,
        0,
        596,
        0,
        0,
        0,
        0,
        0,
        0,
        0,
        0,
        0,
        0,
        0,
        0,
        0,
        0,
        0,
        0,
        0,
        0,
        0,
        0,
        0,
        0,
        0,
        0,
        0,
        0,
        0,
        0,
        0,
        0,
        0,
        0,
        0,
        0,
        0,
        0,
        0,
        0,
        0,
        0,
        0,
        0
      ]
    },
    {
      "id": 9,
      "name": "08_spirales",
      "visible": true,
      "opacity": 1,
      "properties": [
        {
          "name": "role",
          "type": "string",
          "value": "Traces spiralées"
        }
      ],
      "type": "objectgroup",
      "draworder": "index",
      "objects": []
    },
    {
      "id": 10,
      "name": "09_ombres_objets",
      "visible": true,
      "opacity": 1,
      "properties": [
        {
          "name": "role",
          "type": "string",
          "value": "Ombres des objets"
        }
      ],
      "type": "objectgroup",
      "draworder": "index",
      "objects": []
    },
    {
      "id": 11,
      "name": "10_objets",
      "visible": true,
      "opacity": 1,
      "properties": [
        {
          "name": "role",
          "type": "string",
          "value": "Objets et tentures"
        }
      ],
      "type": "objectgroup",
      "draworder": "index",
      "objects": []
    },
    {
      "id": 12,
      "name": "11_ecorce_racines_avant",
      "visible": true,
      "opacity": 1,
      "properties": [
        {
          "name": "role",
          "type": "string",
          "value": "Écorce et racines avant"
        }
      ],
      "type": "tilelayer",
      "width": 14,
      "height": 11,
      "x": 0,
      "y": 0,
      "data": [
        0,
        0,
        0,
        0,
        0,
        0,
        0,
        0,
        0,
        0,
        0,
        0,
        0,
        0,
        0,
        0,
        0,
        0,
        0,
        0,
        0,
        0,
        0,
        0,
        0,
        0,
        0,
        0,
        0,
        0,
        0,
        0,
        0,
        0,
        0,
        0,
        0,
        0,
        0,
        0,
        0,
        0,
        0,
        0,
        0,
        0,
        0,
        0,
        0,
        0,
        0,
        0,
        0,
        0,
        0,
        0,
        0,
        0,
        0,
        0,
        0,
        0,
        0,
        0,
        0,
        0,
        0,
        0,
        0,
        0,
        0,
        0,
        0,
        0,
        0,
        0,
        0,
        0,
        0,
        0,
        0,
        0,
        0,
        0,
        0,
        0,
        0,
        0,
        0,
        0,
        0,
        0,
        0,
        0,
        0,
        0,
        0,
        0,
        0,
        0,
        0,
        0,
        0,
        0,
        0,
        0,
        0,
        0,
        0,
        0,
        0,
        0,
        601,
        602,
        603,
        604,
        605,
        0,
        0,
        0,
        0,
        606,
        607,
        608,
        609,
        610,
        0,
        611,
        0,
        612,
        613,
        614,
        615,
        616,
        617,
        618,
        619,
        611,
        0,
        620,
        0,
        0,
        0,
        0,
        0,
        0,
        611,
        0,
        620,
        0,
        0,
        0,
        0,
        0
      ]
    },
    {
      "id": 13,
      "name": "12_feuillage_avant",
      "visible": true,
      "opacity": 1,
      "properties": [
        {
          "name": "role",
          "type": "string",
          "value": "Feuillage de premier plan"
        }
      ],
      "type": "objectgroup",
      "draworder": "index",
      "objects": [
        {
          "id": 19,
          "name": "retombée_0",
          "gid": 372,
          "x": 240,
          "y": 104,
          "width": 32,
          "height": 46,
          "rotation": 0,
          "visible": true
        },
        {
          "id": 20,
          "name": "retombée_1",
          "gid": 373,
          "x": 296,
          "y": 120,
          "width": 32,
          "height": 46,
          "rotation": 0,
          "visible": true
        },
        {
          "id": 21,
          "name": "bordure_végétale_0",
          "gid": 374,
          "x": 332,
          "y": 288,
          "width": 64,
          "height": 36,
          "rotation": 0,
          "visible": true
        },
        {
          "id": 22,
          "name": "bordure_végétale_2",
          "gid": 370,
          "x": 283,
          "y": 306,
          "width": 58,
          "height": 43,
          "rotation": 0,
          "visible": true
        },
        {
          "id": 23,
          "name": "bordure_végétale_5",
          "gid": 375,
          "x": 240,
          "y": 329,
          "width": 45,
          "height": 54,
          "rotation": 0,
          "visible": true
        },
        {
          "id": 24,
          "name": "bordure_végétale_6",
          "gid": 376,
          "x": 184,
          "y": 329,
          "width": 39,
          "height": 54,
          "rotation": 0,
          "visible": true
        },
        {
          "id": 25,
          "name": "bordure_végétale_0",
          "gid": 374,
          "x": 100,
          "y": 298,
          "width": 64,
          "height": 36,
          "rotation": 0,
          "visible": true
        },
        {
          "id": 26,
          "name": "bordure_végétale_3",
          "gid": 371,
          "x": 73,
          "y": 291,
          "width": 58,
          "height": 43,
          "rotation": 0,
          "visible": true
        }
      ]
    }
  ],
  "tilesets": [
    {
      "firstgid": 1,
      "source": "../../tiled/hallways_fond_jour.tsj"
    },
    {
      "firstgid": 33,
      "source": "../../tiled/hallways_soubassement_jour.tsj"
    },
    {
      "firstgid": 369,
      "source": "../../tiled/hallways_vegetation_jour.tsj"
    },
    {
      "firstgid": 379,
      "source": "../../tiled/hallways_sol_decoupe_jour.tsj"
    },
    {
      "firstgid": 475,
      "source": "../../tiled/hallways_murs_fond_jour.tsj"
    },
    {
      "firstgid": 480,
      "source": "../../tiled/hallways_murs_retours_jour.tsj"
    },
    {
      "firstgid": 513,
      "source": "../../tiled/hallways_contacts_jour.tsj"
    },
    {
      "firstgid": 593,
      "source": "../../tiled/hallways_reflets_jour.tsj"
    },
    {
      "firstgid": 601,
      "source": "../../tiled/hallways_ecorce_avant_jour.tsj"
    },
    {
      "firstgid": 873,
      "source": "../../tiled/hallways_motifs_jour.tsj"
    },
    {
      "firstgid": 889,
      "source": "../../tiled/hallways_ombres_objets_jour.tsj"
    },
    {
      "firstgid": 909,
      "source": "../../tiled/hallways_objets_jour.tsj"
    }
  ],
  "properties": [
    {
      "name": "architecture",
      "type": "string",
      "value": "panneaux verticaux + bordures d’immersion"
    }
  ]
}
