{"type":"map","version":"1.10","orientation":"orthogonal","renderorder":"right-down","width":256,"height":192,"tilewidth":8,"tileheight":8,"infinite":false,"nextlayerid":5,"nextobjectid":1,"layers":[{"id":1,"name":"herbe","type":"tilelayer","x":0,"y":0,"width":256,"height":192,"opacity":1,"visible":true,"data":[1,2,3,4,5,6,7,8,9,10,11,12,13,14,15,16,1,2,3,4,5,6,7,8,9,10,11,12,13,14,15,16,1,2,3,4,5,6,7,8,9,10,11,12,13,14,15,16,1,2,3,4,5,6,7,8,9,10,11,12,13,14,15,16,1,2,3,4,5,6,7,8,9,10,11,12,13,14,15,16,1,2,3,4,5,6,7,8,9,10,11,12,13,14,15,16,1,2,3,4,5,6,7,8,9,10,11,12,13,14,15,16,1,2,3,4,5,6,7,8,9,10,11,12,13,14,15,16,1,2,3,4,5,6,7,8,9,10,11,12,13,14,15,16,1,2,3,4,5,6,7,8,9,10,11,12,13,14,15,16,1,2,3,4,5,6,7,8,9,10,11,12,13,14,15,16,1,2,3,4,5,6,7,8,9,10,11,12,13,14,15,16,1,2,3,4,5,6,7,8,9,10,11,12,13,14,15,16,1,2,3,4,5,6,7,8,9,10,11,12,13,14,15,16,1,2,3,4,5,6,7,8,9,10,11,12,13,14,15,16,1,2,3,4,5,6,7,8,9,10,11,12,13,14,15,16,17,18,19,20,21,22,23,24,25,26,27,28,29,30,31,32,17,18,19,20,21,22,23,24,25,26,27,28,29,30,31,32,17,18,19,20,21,22,23,24,25,26,27,28,29,30,31,32,17,18,19,20,21,22,23,24,25,26,27,28,29,30,31,32,17,18,19,20,21,22,23,24,25,26,27,28,29,30,31,32,17,18,19,20,21,22,23,24,25,26,27,28,29,30,31,32,17,18,19,20,21,22,23,24,25,26,27,28,29,30,31,32,17,18,19,20,21,22,23,24,25,26,27,28,29,30,31,32,17,18,19,20,21,22,23,24,25,26,27,28,29,30,31,32,17,18,19,20,21,22,23,24,25,26,27,28,29,30,31,32,17,18,19,20,21,22,23,24,25,26,27,28,29,30,31,32,17,18,19,20,21,22,23,24,25,26,27,28,29,30,31,32,17,18,19,20,21,22,23,24,25,26,27,28,29,30,31,32,17,18,19,20,21,22,23,24,25,26,27,28,29,30,31,32,17,18,19,20,21,22,23,24,25,26,27,28,29,30,31,32,17,18,19,20,21,22,23,24,25,26,27,28,29,30,31,32,33,34,35,36,37,38,39,40,41,42,43,44,45,46,47,48,33,34,35,36,37,38,39,40,41,42,43,44,45,46,47,48,33,34,35,36,37,38,39,40,41,42,43,44,45,46,47,48,33,34,35,36,37,38,39,40,41,42,43,44,45,46,47,48,33,34,35,36,37,38,39,40,41,42,43,44,45,46,47,48,33,34,35,36,37,38,39,40,41,42,43,44,45,46,47,48,33,34,35,36,37,38,39,40,41,42,43,44,45,46,47,48,33,34,35,36,37,38,39,40,41,42,43,44,45,46,47,48,33,34,35,36,37,38,39,40,41,42,43,44,45,46,47,48,33,34,35,36,37,38,39,40,41,42,43,44,45,46,47,48,33,34,35,36,37,38,39,40,41,42,43,44,45,46,47,48,33,34,35,36,37,38,39,40,41,42,43,44,45,46,47,48,33,34,35,36,37,38,39,40,41,42,43,44,45,46,47,48,33,34,35,36,37,38,39,40,41,42,43,44,45,46,47,48,33,34,35,36,37,38,39,40,41,42,43,44,45,46,47,48,33,34,35,36,37,38,39,40,41,42,43,44,45,46,47,48,49,50,51,52,53,54,55,56,57,58,59,60,61,62,63,64,49,50,51,52,53,54,55,56,57,58,59,60,61,62,63,64,49,50,51,52,53,54,55,56,57,58,59,60,61,62,63,64,49,50,51,52,53,54,55,56,57,58,59,60,61,62,63,64,49,50,51,52,53,54,55,56,57,58,59,60,61,62,63,64,49,50,51,52,53,54,55,56,57,58,59,60,61,62,63,64,49,50,51,52,53,54,55,56,57,58,59,60,61,62,63,64,49,50,51,52,53,54,55,56,57,58,59,60,61,62,63,64,49,50,51,52,53,54,55,56,57,58,59,60,61,62,63,64,49,50,51,52,53,54,55,56,57,58,59,60,61,62,63,64,49,50,51,52,53,54,55,56,57,58,59,60,61,62,63,64,49,50,51,52,53,54,55,56,57,58,59,60,61,62,63,64,49,50,51,52,53,54,55,56,57,58,59,60,61,62,63,64,49,50,51,52,53,54,55,56,57,58,59,60,61,62,63,64,49,50,51,52,53,54,55,56,57,58,59,60,61,62,63,64,49,50,51,52,53,54,55,56,57,58,59,60,61,62,63,64,65,66,67,68,69,70,71,72,73,74,75,76,77,78,79,80,65,66,67,68,69,70,71,72,73,74,75,76,77,78,79,80,65,66,67,68,69,70,71,72,73,74,75,76,77,78,79,80,65,66,67,68,69,70,71,72,73,74,75,76,77,78,79,80,65,66,67,68,69,70,71,72,73,74,75,76,77,78,79,80,65,66,67,68,69,70,71,72,73,74,75,76,77,78,79,80,65,66,67,68,69,70,71,72,73,74,75,76,77,78,79,80,65,66,67,68,69,70,71,72,73,74,75,76,77,78,79,80,65,66,67,68,69,70,71,72,73,74,75,76,77,78,79,80,65,66,67,68,69,70,71,72,73,74,75,76,77,78,79,80,65,66,67,68,69,70,71,72,73,74,75,76,77,78,79,80,65,66,67,68,69,70,71,72,73,74,75,76,77,78,79,80,65,66,67,68,69,70,71,72,73,74,75,76,77,78,79,80,65,66,67,68,69,70,71,72,73,74,75,76,77,78,79,80,65,66,67,68,69,70,71,72,73,74,75,76,77,78,79,80,65,66,67,68,69,70,71,72,73,74,75,76,77,78,79,80,81,82,83,84,85,86,87,88,89,90,91,92,93,94,95,96,81,82,83,84,85,86,87,88,89,90,91,92,93,94,95,96,81,82,83,84,85,86,87,88,89,90,91,92,93,94,95,96,81,82,83,84,85,86,87,88,89,90,91,92,93,94,95,96,81,82,83,84,85,86,87,88,89,90,91,92,93,94,95,96,81,82,83,84,85,86,87,88,89,90,91,92,93,94,95,96,81,82,83,84,85,86,87,88,89,90,91,92,93,94,95,96,81,82,83,84,85,86,87,88,89,90,91,92,93,94,95,96,81,82,83,84,85,86,87,88,89,90,91,92,93,94,95,96,81,82,83,84,85,86,87,88,89,90,91,92,93,94,95,96,81,82,83,84,85,86,87,88,89,90,91,92,93,94,95,96,81,82,83,84,85,86,87,88,89,90,91,92,93,94,95,96,81,82,83,84,85,86,87,88,89,90,91,92,93,94,95,96,81,82,83,84,85,86,87,88,89,90,91,92,93,94,95,96,81,82,83,84,85,86,87,88,89,90,91,92,93,94,95,96,81,82,83,84,85,86,87,88,89,90,91,92,93,94,95,96,97,98,99,100,101,102,103,104,105,106,107,108,109,110,111,112,97,98,99,100,101,102,103,104,105,106,107,108,109,110,111,112,97,98,99,100,101,102,103,104,105,106,107,108,109,110,111,112,97,98,99,100,101,102,103,104,105,106,107,108,109,110,111,112,97,98,99,100,101,102,103,104,105,106,107,108,109,110,111,112,97,98,99,100,101,102,103,104,105,106,107,108,109,110,111,112,97,98,99,100,101,102,103,104,105,106,107,108,109,110,111,112,97,98,99,100,101,102,103,104,105,106,107,108,109,110,111,112,97,98,99,100,101,102,103,104,105,106,107,108,109,110,111,112,97,98,99,100,101,102,103,104,105,106,107,108,109,110,111,112,97,98,99,100,101,102,103,104,105,106,107,108,109,110,111,112,97,98,99,100,101,102,103,104,105,106,107,108,109,110,111,112,97,98,99,100,101,102,103,104,105,106,107,108,109,110,111,112,97,98,99,100,101,102,103,104,105,106,107,108,109,110,111,112,97,98,99,100,101,102,103,104,105,106,107,108,109,110,111,112,97,98,99,100,101,102,103,104,105,106,107,108,109,110,111,112,113,114,115,116,117,118,119,120,121,122,123,124,125,126,127,128,113,114,115,116,117,118,119,120,121,122,123,124,125,126,127,128,113,114,115,116,117,118,119,120,121,122,123,124,125,126,127,128,113,114,115,116,117,118,119,120,121,122,123,124,125,126,127,128,113,114,115,116,117,118,119,120,121,122,123,124,125,126,127,128,113,114,115,116,117,118,119,120,121,122,123,124,125,126,127,128,113,114,115,116,117,118,119,120,121,122,123,124,125,126,127,128,113,114,115,116,117,118,119,120,121,122,123,124,125,126,127,128,113,114,115,116,117,118,119,120,121,122,123,124,125,126,127,128,113,114,115,116,117,118,119,120,121,122,123,124,125,126,127,128,113,114,115,116,117,118,119,120,121,122,123,124,125,126,127,128,113,114,115,116,117,118,119,120,121,122,123,124,125,126,127,128,113,114,115,116,117,118,119,120,121,122,123,124,125,126,127,128,113,114,115,116,117,118,119,120,121,122,123,124,125,126,127,128,113,114,115,116,117,118,119,120,121,122,123,124,125,126,127,128,113,114,115,116,117,118,119,120,121,122,123,124,125,126,127,128,129,130,131,132,133,134,135,136,137,138,139,140,141,142,143,144,129,130,131,132,133,134,135,136,137,138,139,140,141,142,143,144,129,130,131,132,133,134,135,136,137,138,139,140,141,142,143,144,129,130,131,132,133,134,135,136,137,138,139,140,141,142,143,144,129,130,131,132,133,134,135,136,137,138,139,140,141,142,143,144,129,130,131,132,133,134,135,136,137,138,139,140,141,142,143,144,129,130,131,132,133,134,135,136,137,138,139,140,141,142,143,144,129,130,131,132,133,134,135,136,137,138,139,140,141,142,143,144,129,130,131,132,133,134,135,136,137,138,139,140,141,142,143,144,129,130,131,132,133,134,135,136,137,138,139,140,141,142,143,144,129,130,131,132,133,134,135,136,137,138,139,140,141,142,143,144,129,130,131,132,133,134,135,136,137,138,139,140,141,142,143,144,129,130,131,132,133,134,135,136,137,138,139,140,141,142,143,144,129,130,131,132,133,134,135,136,137,138,139,140,141,142,143,144,129,130,131,132,133,134,135,136,137,138,139,140,141,142,143,144,129,130,131,132,133,134,135,136,137,138,139,140,141,142,143,144,145,146,147,148,149,150,151,152,153,154,155,156,157,158,159,160,145,146,147,148,149,150,151,152,153,154,155,156,157,158,159,160,145,146,147,148,149,150,151,152,153,154,155,156,157,158,159,160,145,146,147,148,149,150,151,152,153,154,155,156,157,158,159,160,145,146,147,148,149,150,151,152,153,154,155,156,157,158,159,160,145,146,147,148,149,150,151,152,153,154,155,156,157,158,159,160,145,146,147,148,149,150,151,152,153,154,155,156,157,158,159,160,145,146,147,148,149,150,151,152,153,154,155,156,157,158,159,160,145,146,147,148,149,150,151,152,153,154,155,156,157,158,159,160,145,146,147,148,149,150,151,152,153,154,155,156,157,158,159,160,145,146,147,148,149,150,151,152,153,154,155,156,157,158,159,160,145,146,147,148,149,150,151,152,153,154,155,156,157,158,159,160,145,146,147,148,149,150,151,152,153,154,155,156,157,158,159,160,145,146,147,148,149,150,151,152,153,154,155,156,157,158,159,160,145,146,147,148,149,150,151,152,153,154,155,156,157,158,159,160,145,146,147,148,149,150,151,152,153,154,155,156,157,158,159,160,161,162,163,164,165,166,167,168,169,170,171,172,173,174,175,176,161,162,163,164,165,166,167,168,169,170,171,172,173,174,175,176,161,162,163,164,165,166,167,168,169,170,171,172,173,174,175,176,161,162,163,164,165,166,167,168,169,170,171,172,173,174,175,176,161,162,163,164,165,166,167,168,169,170,171,172,173,174,175,176,161,162,163,164,165,166,167,168,169,170,171,172,173,174,175,176,161,162,163,164,165,166,167,168,169,170,171,172,173,174,175,176,161,162,163,164,165,166,167,168,169,170,171,172,173,174,175,176,161,162,163,164,165,166,167,168,169,170,171,172,173,174,175,176,161,162,163,164,165,166,167,168,169,170,171,172,173,174,175,176,161,162,163,164,165,166,167,168,169,170,171,172,173,174,175,176,161,162,163,164,165,166,167,168,169,170,171,172,173,174,175,176,161,162,163,164,165,166,167,168,169,170,171,172,173,174,175,176,161,162,163,164,165,166,167,168,169,170,171,172,173,174,175,176,161,162,163,164,165,166,167,168,169,170,171,172,173,174,175,176,161,162,163,164,165,166,167,168,169,170,171,172,173,174,175,176,177,178,179,180,181,182,183,184,185,186,187,188,189,190,191,192,177,178,179,180,181,182,183,184,185,186,187,188,189,190,191,192,177,178,179,180,181,182,183,184,185,186,187,188,189,190,191,192,177,178,179,180,181,182,183,184,185,186,187,188,189,190,191,192,177,178,179,180,181,182,183,184,185,186,187,188,189,190,191,192,177,178,179,180,181,182,183,184,185,186,187,188,189,190,191,192,177,178,179,180,181,182,183,184,185,186,187,188,189,190,191,192,177,178,179,180,181,182,183,184,185,186,187,188,189,190,191,192,177,178,179,180,181,182,183,184,185,186,187,188,189,190,191,192,177,178,179,180,181,182,183,184,185,186,187,188,189,190,191,192,177,178,179,180,181,182,183,184,185,186,187,188,189,190,191,192,177,178,179,180,181,182,183,184,185,186,187,188,189,190,191,192,177,178,179,180,181,182,183,184,185,186,187,188,189,190,191,192,177,178,179,180,181,182,183,184,185,186,187,188,189,190,191,192,177,178,179,180,181,182,183,184,185,186,187,188,189,190,191,192,177,178,179,180,181,182,183,184,185,186,187,188,189,190,191,192,193,194,195,196,197,198,199,200,201,202,203,204,205,206,207,208,193,194,195,196,197,198,199,200,201,202,203,204,205,206,207,208,193,194,195,196,197,198,199,200,201,202,203,204,205,206,207,208,193,194,195,196,197,198,199,200,201,202,203,204,205,206,207,208,193,194,195,196,197,198,199,200,201,202,203,204,205,206,207,208,193,194,195,196,197,198,199,200,201,202,203,204,205,206,207,208,193,194,195,196,197,198,199,200,201,202,203,204,205,206,207,208,193,194,195,196,197,198,199,200,201,202,203,204,205,206,207,208,193,194,195,196,197,198,199,200,201,202,203,204,205,206,207,208,193,194,195,196,197,198,199,200,201,202,203,204,205,206,207,208,193,194,195,196,197,198,199,200,201,202,203,204,205,206,207,208,193,194,195,196,197,198,199,200,201,202,203,204,205,206,207,208,193,194,195,196,197,198,199,200,201,202,203,204,205,206,207,208,193,194,195,196,197,198,199,200,201,202,203,204,205,206,207,208,193,194,195,196,197,198,199,200,201,202,203,204,205,206,207,208,193,194,195,196,197,198,199,200,201,202,203,204,205,206,207,208,209,210,211,212,213,214,215,216,217,218,219,220,221,222,223,224,209,210,211,212,213,214,215,216,217,218,219,220,221,222,223,224,209,210,211,212,213,214,215,216,217,218,219,220,221,222,223,224,209,210,211,212,213,214,215,216,217,218,219,220,221,222,223,224,209,210,211,212,213,214,215,216,217,218,219,220,221,222,223,224,209,210,211,212,213,214,215,216,217,218,219,220,221,222,223,224,209,210,211,212,213,214,215,216,217,218,219,220,221,222,223,224,209,210,211,212,213,214,215,216,217,218,219,220,221,222,223,224,209,210,211,212,213,214,215,216,217,218,219,220,221,222,223,224,209,210,211,212,213,214,215,216,217,218,219,220,221,222,223,224,209,210,211,212,213,214,215,216,217,218,219,220,221,222,223,224,209,210,211,212,213,214,215,216,217,218,219,220,221,222,223,224,209,210,211,212,213,214,215,216,217,218,219,220,221,222,223,224,209,210,211,212,213,214,215,216,217,218,219,220,221,222,223,224,209,210,211,212,213,214,215,216,217,218,219,220,221,222,223,224,209,210,211,212,213,214,215,216,217,218,219,220,221,222,223,224,225,226,227,228,229,230,231,232,233,234,235,236,237,238,239,240,225,226,227,228,229,230,231,232,233,234,235,236,237,238,239,240,225,226,227,228,229,230,231,232,233,234,235,236,237,238,239,240,225,226,227,228,229,230,231,232,233,234,235,236,237,238,239,240,225,226,227,228,229,230,231,232,233,234,235,236,237,238,239,240,225,226,227,228,229,230,231,232,233,234,235,236,237,238,239,240,225,226,227,228,229,230,231,232,233,234,235,236,237,238,239,240,225,226,227,228,229,230,231,232,233,234,235,236,237,238,239,240,225,226,227,228,229,230,231,232,233,234,235,236,237,238,239,240,225,226,227,228,229,230,231,232,233,234,235,236,237,238,239,240,225,226,227,228,229,230,231,232,233,234,235,236,237,238,239,240,225,226,227,228,229,230,231,232,233,234,235,236,237,238,239,240,225,226,227,228,229,230,231,232,233,234,235,236,237,238,239,240,225,226,227,228,229,230,231,232,233,234,235,236,237,238,239,240,225,226,227,228,229,230,231,232,233,234,235,236,237,238,239,240,225,226,227,228,229,230,231,232,233,234,235,236,237,238,239,240,241,242,243,244,245,246,247,248,249,250,251,252,253,254,255,256,241,242,243,244,245,246,247,248,249,250,251,252,253,254,255,256,241,242,243,244,245,246,247,248,249,250,251,252,253,254,255,256,241,242,243,244,245,246,247,248,249,250,251,252,253,254,255,256,241,242,243,244,245,246,247,248,249,250,251,252,253,254,255,256,241,242,243,244,245,246,247,248,249,250,251,252,253,254,255,256,241,242,243,244,245,246,247,248,249,250,251,252,253,254,255,256,241,242,243,244,245,246,247,248,249,250,251,252,253,254,255,256,241,242,243,244,245,246,247,248,249,250,251,252,253,254,255,256,241,242,243,244,245,246,247,248,249,250,251,252,253,254,255,256,241,242,243,244,245,246,247,248,249,250,251,252,253,254,255,256,241,242,243,244,245,246,247,248,249,250,251,252,253,254,255,256,241,242,243,244,245,246,247,248,249,250,251,252,253,254,255,256,241,242,243,244,245,246,247,248,249,250,251,252,253,254,255,256,241,242,243,244,245,246,247,248,249,250,251,252,253,254,255,256,241,242,243,244,245,246,247,248,249,250,251,252,253,254,255,256,1,2,3,4,5,6,7,8,9,10,11,12,13,14,15,16,1,2,3,4,5,6,7,8,9,10,11,12,13,14,15,16,1,2,3,4,5,6,7,8,9,10,11,12,13,14,15,16,1,2,3,4,5,6,7,8,9,10,11,12,13,14,15,16,1,2,3,4,5,6,7,8,9,10,11,12,13,14,15,16,1,2,3,4,5,6,7,8,9,10,11,12,13,14,15,16,1,2,3,4,5,6,7,8,9,10,11,12,13,14,15,16,1,2,3,4,5,6,7,8,9,10,11,12,13,14,15,16,1,2,3,4,5,6,7,8,9,10,11,12,13,14,15,16,1,2,3,4,5,6,7,8,9,10,11,12,13,14,15,16,1,2,3,4,5,6,7,8,9,10,11,12,13,14,15,16,1,2,3,4,5,6,7,8,9,10,11,12,13,14,15,16,1,2,3,4,5,6,7,8,9,10,11,12,13,14,15,16,1,2,3,4,5,6,7,8,9,10,11,12,13,14,15,16,1,2,3,4,5,6,7,8,9,10,11,12,13,14,15,16,1,2,3,4,5,6,7,8,9,10,11,12,13,14,15,16,17,18,19,20,21,22,23,24,25,26,27,28,29,30,31,32,17,18,19,20,21,22,23,24,25,26,27,28,29,30,31,32,17,18,19,20,21,22,23,24,25,26,27,28,29,30,31,32,17,18,19,20,21,22,23,24,25,26,27,28,29,30,31,32,17,18,19,20,21,22,23,24,25,26,27,28,29,30,31,32,17,18,19,20,21,22,23,24,25,26,27,28,29,30,31,32,17,18,19,20,21,22,23,24,25,26,27,28,29,30,31,32,17,18,19,20,21,22,23,24,25,26,27,28,29,30,31,32,17,18,19,20,21,22,23,24,25,26,27,28,29,30,31,32,17,18,19,20,21,22,23,24,25,26,27,28,29,30,31,32,17,18,19,20,21,22,23,24,25,26,27,28,29,30,31,32,17,18,19,20,21,22,23,24,25,26,27,28,29,30,31,32,17,18,19,20,21,22,23,24,25,26,27,28,29,30,31,32,17,18,19,20,21,22,23,24,25,26,27,28,29,30,31,32,17,18,19,20,21,22,23,24,25,26,27,28,29,30,31,32,17,18,19,20,21,22,23,24,25,26,27,28,29,30,31,32,33,34,35,36,37,38,39,40,41,42,43,44,45,46,47,48,33,34,35,36,37,38,39,40,41,42,43,44,45,46,47,48,33,34,35,36,37,38,39,40,41,42,43,44,45,46,47,48,33,34,35,36,37,38,39,40,41,42,43,44,45,46,47,48,33,34,35,36,37,38,39,40,41,42,43,44,45,46,47,48,33,34,35,36,37,38,39,40,41,42,43,44,45,46,47,48,33,34,35,36,37,38,39,40,41,42,43,44,45,46,47,48,33,34,35,36,37,38,39,40,41,42,43,44,45,46,47,48,33,34,35,36,37,38,39,40,41,42,43,44,45,46,47,48,33,34,35,36,37,38,39,40,41,42,43,44,45,46,47,48,33,34,35,36,37,38,39,40,41,42,43,44,45,46,47,48,33,34,35,36,37,38,39,40,41,42,43,44,45,46,47,48,33,34,35,36,37,38,39,40,41,42,43,44,45,46,47,48,33,34,35,36,37,38,39,40,41,42,43,44,45,46,47,48,33,34,35,36,37,38,39,40,41,42,43,44,45,46,47,48,33,34,35,36,37,38,39,40,41,42,43,44,45,46,47,48,49,50,51,52,53,54,55,56,57,58,59,60,61,62,63,64,49,50,51,52,53,54,55,56,57,58,59,60,61,62,63,64,49,50,51,52,53,54,55,56,57,58,59,60,61,62,63,64,49,50,51,52,53,54,55,56,57,58,59,60,61,62,63,64,49,50,51,52,53,54,55,56,57,58,59,60,61,62,63,64,49,50,51,52,53,54,55,56,57,58,59,60,61,62,63,64,49,50,51,52,53,54,55,56,57,58,59,60,61,62,63,64,49,50,51,52,53,54,55,56,57,58,59,60,61,62,63,64,49,50,51,52,53,54,55,56,57,58,59,60,61,62,63,64,49,50,51,52,53,54,55,56,57,58,59,60,61,62,63,64,49,50,51,52,53,54,55,56,57,58,59,60,61,62,63,64,49,50,51,52,53,54,55,56,57,58,59,60,61,62,63,64,49,50,51,52,53,54,55,56,57,58,59,60,61,62,63,64,49,50,51,52,53,54,55,56,57,58,59,60,61,62,63,64,49,50,51,52,53,54,55,56,57,58,59,60,61,62,63,64,49,50,51,52,53,54,55,56,57,58,59,60,61,62,63,64,65,66,67,68,69,70,71,72,73,74,75,76,77,78,79,80,65,66,67,68,69,70,71,72,73,74,75,76,77,78,79,80,65,66,67,68,69,70,71,72,73,74,75,76,77,78,79,80,65,66,67,68,69,70,71,72,73,74,75,76,77,78,79,80,65,66,67,68,69,70,71,72,73,74,75,76,77,78,79,80,65,66,67,68,69,70,71,72,73,74,75,76,77,78,79,80,65,66,67,68,69,70,71,72,73,74,75,76,77,78,79,80,65,66,67,68,69,70,71,72,73,74,75,76,77,78,79,80,65,66,67,68,69,70,71,72,73,74,75,76,77,78,79,80,65,66,67,68,69,70,71,72,73,74,75,76,77,78,79,80,65,66,67,68,69,70,71,72,73,74,75,76,77,78,79,80,65,66,67,68,69,70,71,72,73,74,75,76,77,78,79,80,65,66,67,68,69,70,71,72,73,74,75,76,77,78,79,80,65,66,67,68,69,70,71,72,73,74,75,76,77,78,79,80,65,66,67,68,69,70,71,72,73,74,75,76,77,78,79,80,65,66,67,68,69,70,71,72,73,74,75,76,77,78,79,80,81,82,83,84,85,86,87,88,89,90,91,92,93,94,95,96,81,82,83,84,85,86,87,88,89,90,91,92,93,94,95,96,81,82,83,84,85,86,87,88,89,90,91,92,93,94,95,96,81,82,83,84,85,86,87,88,89,90,91,92,93,94,95,96,81,82,83,84,85,86,87,88,89,90,91,92,93,94,95,96,81,82,83,84,85,86,87,88,89,90,91,92,93,94,95,96,81,82,83,84,85,86,87,88,89,90,91,92,93,94,95,96,81,82,83,84,85,86,87,88,89,90,91,92,93,94,95,96,81,82,83,84,85,86,87,88,89,90,91,92,93,94,95,96,81,82,83,84,85,86,87,88,89,90,91,92,93,94,95,96,81,82,83,84,85,86,87,88,89,90,91,92,93,94,95,96,81,82,83,84,85,86,87,88,89,90,91,92,93,94,95,96,81,82,83,84,85,86,87,88,89,90,91,92,93,94,95,96,81,82,83,84,85,86,87,88,89,90,91,92,93,94,95,96,81,82,83,84,85,86,87,88,89,90,91,92,93,94,95,96,81,82,83,84,85,86,87,88,89,90,91,92,93,94,95,96,97,98,99,100,101,102,103,104,105,106,107,108,109,110,111,112,97,98,99,100,101,102,103,104,105,106,107,108,109,110,111,112,97,98,99,100,101,102,103,104,105,106,107,108,109,110,111,112,97,98,99,100,101,102,103,104,105,106,107,108,109,110,111,112,97,98,99,100,101,102,103,104,105,106,107,108,109,110,111,112,97,98,99,100,101,102,103,104,105,106,107,108,109,110,111,112,97,98,99,100,101,102,103,104,105,106,107,108,109,110,111,112,97,98,99,100,101,102,103,104,105,106,107,108,109,110,111,112,97,98,99,100,101,102,103,104,105,106,107,108,109,110,111,112,97,98,99,100,101,102,103,104,105,106,107,108,109,110,111,112,97,98,99,100,101,102,103,104,105,106,107,108,109,110,111,112,97,98,99,100,101,102,103,104,105,106,107,108,109,110,111,112,97,98,99,100,101,102,103,104,105,106,107,108,109,110,111,112,97,98,99,100,101,102,103,104,105,106,107,108,109,110,111,112,97,98,99,100,101,102,103,104,105,106,107,108,109,110,111,112,97,98,99,100,101,102,103,104,105,106,107,108,109,110,111,112,113,114,115,116,117,118,119,120,121,122,123,124,125,126,127,128,113,114,115,116,117,118,119,120,121,122,123,124,125,126,127,128,113,114,115,116,117,118,119,120,121,122,123,124,125,126,127,128,113,114,115,116,117,118,119,120,121,122,123,124,125,126,127,128,113,114,115,116,117,118,119,120,121,122,123,124,125,126,127,128,113,114,115,116,117,118,119,120,121,122,123,124,125,126,127,128,113,114,115,116,117,118,119,120,121,122,123,124,125,126,127,128,113,114,115,116,117,118,119,120,121,122,123,124,125,126,127,128,113,114,115,116,117,118,119,120,121,122,123,124,125,126,127,128,113,114,115,116,117,118,119,120,121,122,123,124,125,126,127,128,113,114,115,116,117,118,119,120,121,122,123,124,125,126,127,128,113,114,115,116,117,118,119,120,121,122,123,124,125,126,127,128,113,114,115,116,117,118,119,120,121,122,123,124,125,126,127,128,113,114,115,116,117,118,119,120,121,122,123,124,125,126,127,128,113,114,115,116,117,118,119,120,121,122,123,124,125,126,127,128,113,114,115,116,117,118,119,120,121,122,123,124,125,126,127,128,129,130,131,132,133,134,135,136,137,138,139,140,141,142,143,144,129,130,131,132,133,134,135,136,137,138,139,140,141,142,143,144,129,130,131,132,133,134,135,136,137,138,139,140,141,142,143,144,129,130,131,132,133,134,135,136,137,138,139,140,141,142,143,144,129,130,131,132,133,134,135,136,137,138,139,140,141,142,143,144,129,130,131,132,133,134,135,136,137,138,139,140,141,142,143,144,129,130,131,132,133,134,135,136,137,138,139,140,141,142,143,144,129,130,131,132,133,134,135,136,137,138,139,140,141,142,143,144,129,130,131,132,133,134,135,136,137,138,139,140,141,142,143,144,129,130,131,132,133,134,135,136,137,138,139,140,141,142,143,144,129,130,131,132,133,134,135,136,137,138,139,140,141,142,143,144,129,130,131,132,133,134,135,136,137,138,139,140,141,142,143,144,129,130,131,132,133,134,135,136,137,138,139,140,141,142,143,144,129,130,131,132,133,134,135,136,137,138,139,140,141,142,143,144,129,130,131,132,133,134,135,136,137,138,139,140,141,142,143,144,129,130,131,132,133,134,135,136,137,138,139,140,141,142,143,144,145,146,147,148,149,150,151,152,153,154,155,156,157,158,159,160,145,146,147,148,149,150,151,152,153,154,155,156,157,158,159,160,145,146,147,148,149,150,151,152,153,154,155,156,157,158,159,160,145,146,147,148,149,150,151,152,153,154,155,156,157,158,159,160,145,146,147,148,149,150,151,152,153,154,155,156,157,158,159,160,145,146,147,148,149,150,151,152,153,154,155,156,157,158,159,160,145,146,147,148,149,150,151,152,153,154,155,156,157,158,159,160,145,146,147,148,149,150,151,152,153,154,155,156,157,158,159,160,145,146,147,148,149,150,151,152,153,154,155,156,157,158,159,160,145,146,147,148,149,150,151,152,153,154,155,156,157,158,159,160,145,146,147,148,149,150,151,152,153,154,155,156,157,158,159,160,145,146,147,148,149,150,151,152,153,154,155,156,157,158,159,160,145,146,147,148,149,150,151,152,153,154,155,156,157,158,159,160,145,146,147,148,149,150,151,152,153,154,155,156,157,158,159,160,145,146,147,148,149,150,151,152,153,154,155,156,157,158,159,160,145,146,147,148,149,150,151,152,153,154,155,156,157,158,159,160,161,162,163,164,165,166,167,168,169,170,171,172,173,174,175,176,161,162,163,164,165,166,167,168,169,170,171,172,173,174,175,176,161,162,163,164,165,166,167,168,169,170,171,172,173,174,175,176,161,162,163,164,165,166,167,168,169,170,171,172,173,174,175,176,161,162,163,164,165,166,167,168,169,170,171,172,173,174,175,176,161,162,163,164,165,166,167,168,169,170,171,172,173,174,175,176,161,162,163,164,165,166,167,168,169,170,171,172,173,174,175,176,161,162,163,164,165,166,167,168,169,170,171,172,173,174,175,176,161,162,163,164,165,166,167,168,169,170,171,172,173,174,175,176,161,162,163,164,165,166,167,168,169,170,171,172,173,174,175,176,161,162,163,164,165,166,167,168,169,170,171,172,173,174,175,176,161,162,163,164,165,166,167,168,169,170,171,172,173,174,175,176,161,162,163,164,165,166,167,168,169,170,171,172,173,174,175,176,161,162,163,164,165,166,167,168,169,170,171,172,173,174,175,176,161,162,163,164,165,166,167,168,169,170,171,172,173,174,175,176,161,162,163,164,165,166,167,168,169,170,171,172,173,174,175,176,177,178,179,180,181,182,183,184,185,186,187,188,189,190,191,192,177,178,179,180,181,182,183,184,185,186,187,188,189,190,191,192,177,178,179,180,181,182,183,184,185,186,187,188,189,190,191,192,177,178,179,180,181,182,183,184,185,186,187,188,189,190,191,192,177,178,179,180,181,182,183,184,185,186,187,188,189,190,191,192,177,178,179,180,181,182,183,184,185,186,187,188,189,190,191,192,177,178,179,180,181,182,183,184,185,186,187,188,189,190,191,192,177,178,179,180,181,182,183,184,185,186,187,188,189,190,191,192,177,178,179,180,181,182,183,184,185,186,187,188,189,190,191,192,177,178,179,180,181,182,183,184,185,186,187,188,189,190,191,192,177,178,179,180,181,182,183,184,185,186,187,188,189,190,191,192,177,178,179,180,181,182,183,184,185,186,187,188,189,190,191,192,177,178,179,180,181,182,183,184,185,186,187,188,189,190,191,192,177,178,179,180,181,182,183,184,185,186,187,188,189,190,191,192,177,178,179,180,181,182,183,184,185,186,187,188,189,190,191,192,177,178,179,180,181,182,183,184,185,186,187,188,189,190,191,192,193,194,195,196,197,198,199,200,201,202,203,204,205,206,207,208,193,194,195,196,197,198,199,200,201,202,203,204,205,206,207,208,193,194,195,196,197,198,199,200,201,202,203,204,205,206,207,208,193,194,195,196,197,198,199,200,201,202,203,204,205,206,207,208,193,194,195,196,197,198,199,200,201,202,203,204,205,206,207,208,193,194,195,196,197,198,199,200,201,202,203,204,205,206,207,208,193,194,195,196,197,198,199,200,201,202,203,204,205,206,207,208,193,194,195,196,197,198,199,200,201,202,203,204,205,206,207,208,193,194,195,196,197,198,199,200,201,202,203,204,205,206,207,208,193,194,195,196,197,198,199,200,201,202,203,204,205,206,207,208,193,194,195,196,197,198,199,200,201,202,203,204,205,206,207,208,193,194,195,196,197,198,199,200,201,202,203,204,205,206,207,208,193,194,195,196,197,198,199,200,201,202,203,204,205,206,207,208,193,194,195,196,197,198,199,200,201,202,203,204,205,206,207,208,193,194,195,196,197,198,199,200,201,202,203,204,205,206,207,208,193,194,195,196,197,198,199,200,201,202,203,204,205,206,207,208,209,210,211,212,213,214,215,216,217,218,219,220,221,222,223,224,209,210,211,212,213,214,215,216,217,218,219,220,221,222,223,224,209,210,211,212,213,214,215,216,217,218,219,220,221,222,223,224,209,210,211,212,213,214,215,216,217,218,219,220,221,222,223,224,209,210,211,212,213,214,215,216,217,218,219,220,221,222,223,224,209,210,211,212,213,214,215,216,217,218,219,220,221,222,223,224,209,210,211,212,213,214,215,216,217,218,219,220,221,222,223,224,209,210,211,212,213,214,215,216,217,218,219,220,221,222,223,224,209,210,211,212,213,214,215,216,217,218,219,220,221,222,223,224,209,210,211,212,213,214,215,216,217,218,219,220,221,222,223,224,209,210,211,212,213,214,215,216,217,218,219,220,221,222,223,224,209,210,211,212,213,214,215,216,217,218,219,220,221,222,223,224,209,210,211,212,213,214,215,216,217,218,219,220,221,222,223,224,209,210,211,212,213,214,215,216,217,218,219,220,221,222,223,224,209,210,211,212,213,214,215,216,217,218,219,220,221,222,223,224,209,210,211,212,213,214,215,216,217,218,219,220,221,222,223,224,225,226,227,228,229,230,231,232,233,234,235,236,237,238,239,240,225,226,227,228,229,230,231,232,233,234,235,236,237,238,239,240,225,226,227,228,229,230,231,232,233,234,235,236,237,238,239,240,225,226,227,228,229,230,231,232,233,234,235,236,237,238,239,240,225,226,227,228,229,230,231,232,233,234,235,236,237,238,239,240,225,226,227,228,229,230,231,232,233,234,235,236,237,238,239,240,225,226,227,228,229,230,231,232,233,234,235,236,237,238,239,240,225,226,227,228,229,230,231,232,233,234,235,236,237,238,239,240,225,226,227,228,229,230,231,232,233,234,235,236,237,238,239,240,225,226,227,228,229,230,231,232,233,234,235,236,237,238,239,240,225,226,227,228,229,230,231,232,233,234,235,236,237,238,239,240,225,226,227,228,229,230,231,232,233,234,235,236,237,238,239,240,225,226,227,228,229,230,231,232,233,234,235,236,237,238,239,240,225,226,227,228,229,230,231,232,233,234,235,236,237,238,239,240,225,226,227,228,229,230,231,232,233,234,235,236,237,238,239,240,225,226,227,228,229,230,231,232,233,234,235,236,237,238,239,240,241,242,243,244,245,246,247,248,249,250,251,252,253,254,255,256,241,242,243,244,245,246,247,248,249,250,251,252,253,254,255,256,241,242,243,244,245,246,247,248,249,250,251,252,253,254,255,256,241,242,243,244,245,246,247,248,249,250,251,252,253,254,255,256,241,242,243,244,245,246,247,248,249,250,251,252,253,254,255,256,241,242,243,244,245,246,247,248,249,250,251,252,253,254,255,256,241,242,243,244,245,246,247,248,249,250,251,252,253,254,255,256,241,242,243,244,245,246,247,248,249,250,251,252,253,254,255,256,241,242,243,244,245,246,247,248,249,250,251,252,253,254,255,256,241,242,243,244,245,246,247,248,249,250,251,252,253,254,255,256,241,242,243,244,245,246,247,248,249,250,251,252,253,254,255,256,241,242,243,244,245,246,247,248,249,250,251,252,253,254,255,256,241,242,243,244,245,246,247,248,249,250,251,252,253,254,255,256,241,242,243,244,245,246,247,248,249,250,251,252,253,254,255,256,241,242,243,244,245,246,247,248,249,250,251,252,253,254,255,256,241,242,243,244,245,246,247,248,249,250,251,252,253,254,255,256,1,2,3,4,5,6,7,8,9,10,11,12,13,14,15,16,1,2,3,4,5,6,7,8,9,10,11,12,13,14,15,16,1,2,3,4,5,6,7,8,9,10,11,12,13,14,15,16,1,2,3,4,5,6,7,8,9,10,11,12,13,14,15,16,1,2,3,4,5,6,7,8,9,10,11,12,13,14,15,16,1,2,3,4,5,6,7,8,9,10,11,12,13,14,15,16,1,2,3,4,5,6,7,8,9,10,11,12,13,14,15,16,1,2,3,4,5,6,7,8,9,10,11,12,13,14,15,16,1,2,3,4,5,6,7,8,9,10,11,12,13,14,15,16,1,2,3,4,5,6,7,8,9,10,11,12,13,14,15,16,1,2,3,4,5,6,7,8,9,10,11,12,13,14,15,16,1,2,3,4,5,6,7,8,9,10,11,12,13,14,15,16,1,2,3,4,5,6,7,8,9,10,11,12,13,14,15,16,1,2,3,4,5,6,7,8,9,10,11,12,13,14,15,16,1,2,3,4,5,6,7,8,9,10,11,12,13,14,15,16,1,2,3,4,5,6,7,8,9,10,11,12,13,14,15,16,17,18,19,20,21,22,23,24,25,26,27,28,29,30,31,32,17,18,19,20,21,22,23,24,25,26,27,28,29,30,31,32,17,18,19,20,21,22,23,24,25,26,27,28,29,30,31,32,17,18,19,20,21,22,23,24,25,26,27,28,29,30,31,32,17,18,19,20,21,22,23,24,25,26,27,28,29,30,31,32,17,18,19,20,21,22,23,24,25,26,27,28,29,30,31,32,17,18,19,20,21,22,23,24,25,26,27,28,29,30,31,32,17,18,19,20,21,22,23,24,25,26,27,28,29,30,31,32,17,18,19,20,21,22,23,24,25,26,27,28,29,30,31,32,17,18,19,20,21,22,23,24,25,26,27,28,29,30,31,32,17,18,19,20,21,22,23,24,25,26,27,28,29,30,31,32,17,18,19,20,21,22,23,24,25,26,27,28,29,30,31,32,17,18,19,20,21,22,23,24,25,26,27,28,29,30,31,32,17,18,19,20,21,22,23,24,25,26,27,28,29,30,31,32,17,18,19,20,21,22,23,24,25,26,27,28,29,30,31,32,17,18,19,20,21,22,23,24,25,26,27,28,29,30,31,32,33,34,35,36,37,38,39,40,41,42,43,44,45,46,47,48,33,34,35,36,37,38,39,40,41,42,43,44,45,46,47,48,33,34,35,36,37,38,39,40,41,42,43,44,45,46,47,48,33,34,35,36,37,38,39,40,41,42,43,44,45,46,47,48,33,34,35,36,37,38,39,40,41,42,43,44,45,46,47,48,33,34,35,36,37,38,39,40,41,42,43,44,45,46,47,48,33,34,35,36,37,38,39,40,41,42,43,44,45,46,47,48,33,34,35,36,37,38,39,40,41,42,43,44,45,46,47,48,33,34,35,36,37,38,39,40,41,42,43,44,45,46,47,48,33,34,35,36,37,38,39,40,41,42,43,44,45,46,47,48,33,34,35,36,37,38,39,40,41,42,43,44,45,46,47,48,33,34,35,36,37,38,39,40,41,42,43,44,45,46,47,48,33,34,35,36,37,38,39,40,41,42,43,44,45,46,47,48,33,34,35,36,37,38,39,40,41,42,43,44,45,46,47,48,33,34,35,36,37,38,39,40,41,42,43,44,45,46,47,48,33,34,35,36,37,38,39,40,41,42,43,44,45,46,47,48,49,50,51,52,53,54,55,56,57,58,59,60,61,62,63,64,49,50,51,52,53,54,55,56,57,58,59,60,61,62,63,64,49,50,51,52,53,54,55,56,57,58,59,60,61,62,63,64,49,50,51,52,53,54,55,56,57,58,59,60,61,62,63,64,49,50,51,52,53,54,55,56,57,58,59,60,61,62,63,64,49,50,51,52,53,54,55,56,57,58,59,60,61,62,63,64,49,50,51,52,53,54,55,56,57,58,59,60,61,62,63,64,49,50,51,52,53,54,55,56,57,58,59,60,61,62,63,64,49,50,51,52,53,54,55,56,57,58,59,60,61,62,63,64,49,50,51,52,53,54,55,56,57,58,59,60,61,62,63,64,49,50,51,52,53,54,55,56,57,58,59,60,61,62,63,64,49,50,51,52,53,54,55,56,57,58,59,60,61,62,63,64,49,50,51,52,53,54,55,56,57,58,59,60,61,62,63,64,49,50,51,52,53,54,55,56,57,58,59,60,61,62,63,64,49,50,51,52,53,54,55,56,57,58,59,60,61,62,63,64,49,50,51,52,53,54,55,56,57,58,59,60,61,62,63,64,65,66,67,68,69,70,71,72,73,74,75,76,77,78,79,80,65,66,67,68,69,70,71,72,73,74,75,76,77,78,79,80,65,66,67,68,69,70,71,72,73,74,75,76,77,78,79,80,65,66,67,68,69,70,71,72,73,74,75,76,77,78,79,80,65,66,67,68,69,70,71,72,73,74,75,76,77,78,79,80,65,66,67,68,69,70,71,72,73,74,75,76,77,78,79,80,65,66,67,68,69,70,71,72,73,74,75,76,77,78,79,80,65,66,67,68,69,70,71,72,73,74,75,76,77,78,79,80,65,66,67,68,69,70,71,72,73,74,75,76,77,78,79,80,65,66,67,68,69,70,71,72,73,74,75,76,77,78,79,80,65,66,67,68,69,70,71,72,73,74,75,76,77,78,79,80,65,66,67,68,69,70,71,72,73,74,75,76,77,78,79,80,65,66,67,68,69,70,71,72,73,74,75,76,77,78,79,80,65,66,67,68,69,70,71,72,73,74,75,76,77,78,79,80,65,66,67,68,69,70,71,72,73,74,75,76,77,78,79,80,65,66,67,68,69,70,71,72,73,74,75,76,77,78,79,80,81,82,83,84,85,86,87,88,89,90,91,92,93,94,95,96,81,82,83,84,85,86,87,88,89,90,91,92,93,94,95,96,81,82,83,84,85,86,87,88,89,90,91,92,93,94,95,96,81,82,83,84,85,86,87,88,89,90,91,92,93,94,95,96,81,82,83,84,85,86,87,88,89,90,91,92,93,94,95,96,81,82,83,84,85,86,87,88,89,90,91,92,93,94,95,96,81,82,83,84,85,86,87,88,89,90,91,92,93,94,95,96,81,82,83,84,85,86,87,88,89,90,91,92,93,94,95,96,81,82,83,84,85,86,87,88,89,90,91,92,93,94,95,96,81,82,83,84,85,86,87,88,89,90,91,92,93,94,95,96,81,82,83,84,85,86,87,88,89,90,91,92,93,94,95,96,81,82,83,84,85,86,87,88,89,90,91,92,93,94,95,96,81,82,83,84,85,86,87,88,89,90,91,92,93,94,95,96,81,82,83,84,85,86,87,88,89,90,91,92,93,94,95,96,81,82,83,84,85,86,87,88,89,90,91,92,93,94,95,96,81,82,83,84,85,86,87,88,89,90,91,92,93,94,95,96,97,98,99,100,101,102,103,104,105,106,107,108,109,110,111,112,97,98,99,100,101,102,103,104,105,106,107,108,109,110,111,112,97,98,99,100,101,102,103,104,105,106,107,108,109,110,111,112,97,98,99,100,101,102,103,104,105,106,107,108,109,110,111,112,97,98,99,100,101,102,103,104,105,106,107,108,109,110,111,112,97,98,99,100,101,102,103,104,105,106,107,108,109,110,111,112,97,98,99,100,101,102,103,104,105,106,107,108,109,110,111,112,97,98,99,100,101,102,103,104,105,106,107,108,109,110,111,112,97,98,99,100,101,102,103,104,105,106,107,108,109,110,111,112,97,98,99,100,101,102,103,104,105,106,107,108,109,110,111,112,97,98,99,100,101,102,103,104,105,106,107,108,109,110,111,112,97,98,99,100,101,102,103,104,105,106,107,108,109,110,111,112,97,98,99,100,101,102,103,104,105,106,107,108,109,110,111,112,97,98,99,100,101,102,103,104,105,106,107,108,109,110,111,112,97,98,99,100,101,102,103,104,105,106,107,108,109,110,111,112,97,98,99,100,101,102,103,104,105,106,107,108,109,110,111,112,113,114,115,116,117,118,119,120,121,122,123,124,125,126,127,128,113,114,115,116,117,118,119,120,121,122,123,124,125,126,127,128,113,114,115,116,117,118,119,120,121,122,123,124,125,126,127,128,113,114,115,116,117,118,119,120,121,122,123,124,125,126,127,128,113,114,115,116,117,118,119,120,121,122,123,124,125,126,127,128,113,114,115,116,117,118,119,120,121,122,123,124,125,126,127,128,113,114,115,116,117,118,119,120,121,122,123,124,125,126,127,128,113,114,115,116,117,118,119,120,121,122,123,124,125,126,127,128,113,114,115,116,117,118,119,120,121,122,123,124,125,126,127,128,113,114,115,116,117,118,119,120,121,122,123,124,125,126,127,128,113,114,115,116,117,118,119,120,121,122,123,124,125,126,127,128,113,114,115,116,117,118,119,120,121,122,123,124,125,126,127,128,113,114,115,116,117,118,119,120,121,122,123,124,125,126,127,128,113,114,115,116,117,118,119,120,121,122,123,124,125,126,127,128,113,114,115,116,117,118,119,120,121,122,123,124,125,126,127,128,113,114,115,116,117,118,119,120,121,122,123,124,125,126,127,128,129,130,131,132,133,134,135,136,137,138,139,140,141,142,143,144,129,130,131,132,133,134,135,136,137,138,139,140,141,142,143,144,129,130,131,132,133,134,135,136,137,138,139,140,141,142,143,144,129,130,131,132,133,134,135,136,137,138,139,140,141,142,143,144,129,130,131,132,133,134,135,136,137,138,139,140,141,142,143,144,129,130,131,132,133,134,135,136,137,138,139,140,141,142,143,144,129,130,131,132,133,134,135,136,137,138,139,140,141,142,143,144,129,130,131,132,133,134,135,136,137,138,139,140,141,142,143,144,129,130,131,132,133,134,135,136,137,138,139,140,141,142,143,144,129,130,131,132,133,134,135,136,137,138,139,140,141,142,143,144,129,130,131,132,133,134,135,136,137,138,139,140,141,142,143,144,129,130,131,132,133,134,135,136,137,138,139,140,141,142,143,144,129,130,131,132,133,134,135,136,137,138,139,140,141,142,143,144,129,130,131,132,133,134,135,136,137,138,139,140,141,142,143,144,129,130,131,132,133,134,135,136,137,138,139,140,141,142,143,144,129,130,131,132,133,134,135,136,137,138,139,140,141,142,143,144,145,146,147,148,149,150,151,152,153,154,155,156,157,158,159,160,145,146,147,148,149,150,151,152,153,154,155,156,157,158,159,160,145,146,147,148,149,150,151,152,153,154,155,156,157,158,159,160,145,146,147,148,149,150,151,152,153,154,155,156,157,158,159,160,145,146,147,148,149,150,151,152,153,154,155,156,157,158,159,160,145,146,147,148,149,150,151,152,153,154,155,156,157,158,159,160,145,146,147,148,149,150,151,152,153,154,155,156,157,158,159,160,145,146,147,148,149,150,151,152,153,154,155,156,157,158,159,160,145,146,147,148,149,150,151,152,153,154,155,156,157,158,159,160,145,146,147,148,149,150,151,152,153,154,155,156,157,158,159,160,145,146,147,148,149,150,151,152,153,154,155,156,157,158,159,160,145,146,147,148,149,150,151,152,153,154,155,156,157,158,159,160,145,146,147,148,149,150,151,152,153,154,155,156,157,158,159,160,145,146,147,148,149,150,151,152,153,154,155,156,157,158,159,160,145,146,147,148,149,150,151,152,153,154,155,156,157,158,159,160,145,146,147,148,149,150,151,152,153,154,155,156,157,158,159,160,161,162,163,164,165,166,167,168,169,170,171,172,173,174,175,176,161,162,163,164,165,166,167,168,169,170,171,172,173,174,175,176,161,162,163,164,165,166,167,168,169,170,171,172,173,174,175,176,161,162,163,164,165,166,167,168,169,170,171,172,173,174,175,176,161,162,163,164,165,166,167,168,169,170,171,172,173,174,175,176,161,162,163,164,165,166,167,168,169,170,171,172,173,174,175,176,161,162,163,164,165,166,167,168,169,170,171,172,173,174,175,176,161,162,163,164,165,166,167,168,169,170,171,172,173,174,175,176,161,162,163,164,165,166,167,168,169,170,171,172,173,174,175,176,161,162,163,164,165,166,167,168,169,170,171,172,173,174,175,176,161,162,163,164,165,166,167,168,169,170,171,172,173,174,175,176,161,162,163,164,165,166,167,168,169,170,171,172,173,174,175,176,161,162,163,164,165,166,167,168,169,170,171,172,173,174,175,176,161,162,163,164,165,166,167,168,169,170,171,172,173,174,175,176,161,162,163,164,165,166,167,168,169,170,171,172,173,174,175,176,161,162,163,164,165,166,167,168,169,170,171,172,173,174,175,176,177,178,179,180,181,182,183,184,185,186,187,188,189,190,191,192,177,178,179,180,181,182,183,184,185,186,187,188,189,190,191,192,177,178,179,180,181,182,183,184,185,186,187,188,189,190,191,192,177,178,179,180,181,182,183,184,185,186,187,188,189,190,191,192,177,178,179,180,181,182,183,184,185,186,187,188,189,190,191,192,177,178,179,180,181,182,183,184,185,186,187,188,189,190,191,192,177,178,179,180,181,182,183,184,185,186,187,188,189,190,191,192,177,178,179,180,181,182,183,184,185,186,187,188,189,190,191,192,177,178,179,180,181,182,183,184,185,186,187,188,189,190,191,192,177,178,179,180,181,182,183,184,185,186,187,188,189,190,191,192,177,178,179,180,181,182,183,184,185,186,187,188,189,190,191,192,177,178,179,180,181,182,183,184,185,186,187,188,189,190,191,192,177,178,179,180,181,182,183,184,185,186,187,188,189,190,191,192,177,178,179,180,181,182,183,184,185,186,187,188,189,190,191,192,177,178,179,180,181,182,183,184,185,186,187,188,189,190,191,192,177,178,179,180,181,182,183,184,185,186,187,188,189,190,191,192,193,194,195,196,197,198,199,200,201,202,203,204,205,206,207,208,193,194,195,196,197,198,199,200,201,202,203,204,205,206,207,208,193,194,195,196,197,198,199,200,201,202,203,204,205,206,207,208,193,194,195,196,197,198,199,200,201,202,203,204,205,206,207,208,193,194,195,196,197,198,199,200,201,202,203,204,205,206,207,208,193,194,195,196,197,198,199,200,201,202,203,204,205,206,207,208,193,194,195,196,197,198,199,200,201,202,203,204,205,206,207,208,193,194,195,196,197,198,199,200,201,202,203,204,205,206,207,208,193,194,195,196,197,198,199,200,201,202,203,204,205,206,207,208,193,194,195,196,197,198,199,200,201,202,203,204,205,206,207,208,193,194,195,196,197,198,199,200,201,202,203,204,205,206,207,208,193,194,195,196,197,198,199,200,201,202,203,204,205,206,207,208,193,194,195,196,197,198,199,200,201,202,203,204,205,206,207,208,193,194,195,196,197,198,199,200,201,202,203,204,205,206,207,208,193,194,195,196,197,198,199,200,201,202,203,204,205,206,207,208,193,194,195,196,197,198,199,200,201,202,203,204,205,206,207,208,209,210,211,212,213,214,215,216,217,218,219,220,221,222,223,224,209,210,211,212,213,214,215,216,217,218,219,220,221,222,223,224,209,210,211,212,213,214,215,216,217,218,219,220,221,222,223,224,209,210,211,212,213,214,215,216,217,218,219,220,221,222,223,224,209,210,211,212,213,214,215,216,217,218,219,220,221,222,223,224,209,210,211,212,213,214,215,216,217,218,219,220,221,222,223,224,209,210,211,212,213,214,215,216,217,218,219,220,221,222,223,224,209,210,211,212,213,214,215,216,217,218,219,220,221,222,223,224,209,210,211,212,213,214,215,216,217,218,219,220,221,222,223,224,209,210,211,212,213,214,215,216,217,218,219,220,221,222,223,224,209,210,211,212,213,214,215,216,217,218,219,220,221,222,223,224,209,210,211,212,213,214,215,216,217,218,219,220,221,222,223,224,209,210,211,212,213,214,215,216,217,218,219,220,221,222,223,224,209,210,211,212,213,214,215,216,217,218,219,220,221,222,223,224,209,210,211,212,213,214,215,216,217,218,219,220,221,222,223,224,209,210,211,212,213,214,215,216,217,218,219,220,221,222,223,224,225,226,227,228,229,230,231,232,233,234,235,236,237,238,239,240,225,226,227,228,229,230,231,232,233,234,235,236,237,238,239,240,225,226,227,228,229,230,231,232,233,234,235,236,237,238,239,240,225,226,227,228,229,230,231,232,233,234,235,236,237,238,239,240,225,226,227,228,229,230,231,232,233,234,235,236,237,238,239,240,225,226,227,228,229,230,231,232,233,234,235,236,237,238,239,240,225,226,227,228,229,230,231,232,233,234,235,236,237,238,239,240,225,226,227,228,229,230,231,232,233,234,235,236,237,238,239,240,225,226,227,228,229,230,231,232,233,234,235,236,237,238,239,240,225,226,227,228,229,230,231,232,233,234,235,236,237,238,239,240,225,226,227,228,229,230,231,232,233,234,235,236,237,238,239,240,225,226,227,228,229,230,231,232,233,234,235,236,237,238,239,240,225,226,227,228,229,230,231,232,233,234,235,236,237,238,239,240,225,226,227,228,229,230,231,232,233,234,235,236,237,238,239,240,225,226,227,228,229,230,231,232,233,234,235,236,237,238,239,240,225,226,227,228,229,230,231,232,233,234,235,236,237,238,239,240,241,242,243,244,245,246,247,248,249,250,251,252,253,254,255,256,241,242,243,244,245,246,247,248,249,250,251,252,253,254,255,256,241,242,243,244,245,246,247,248,249,250,251,252,253,254,255,256,241,242,243,244,245,246,247,248,249,250,251,252,253,254,255,256,241,242,243,244,245,246,247,248,249,250,251,252,253,254,255,256,241,242,243,244,245,246,247,248,249,250,251,252,253,254,255,256,241,242,243,244,245,246,247,248,249,250,251,252,253,254,255,256,241,242,243,244,245,246,247,248,249,250,251,252,253,254,255,256,241,242,243,244,245,246,247,248,249,250,251,252,253,254,255,256,241,242,243,244,245,246,247,248,249,250,251,252,253,254,255,256,241,242,243,244,245,246,247,248,249,250,251,252,253,254,255,256,241,242,243,244,245,246,247,248,249,250,251,252,253,254,255,256,241,242,243,244,245,246,247,248,249,250,251,252,253,254,255,256,241,242,243,244,245,246,247,248,249,250,251,252,253,254,255,256,241,242,243,244,245,246,247,248,249,250,251,252,253,254,255,256,241,242,243,244,245,246,247,248,249,250,251,252,253,254,255,256,1,2,3,4,5,6,7,8,9,10,11,12,13,14,15,16,1,2,3,4,5,6,7,8,9,10,11,12,13,14,15,16,1,2,3,4,5,6,7,8,9,10,11,12,13,14,15,16,1,2,3,4,5,6,7,8,9,10,11,12,13,14,15,16,1,2,3,4,5,6,7,8,9,10,11,12,13,14,15,16,1,2,3,4,5,6,7,8,9,10,11,12,13,14,15,16,1,2,3,4,5,6,7,8,9,10,11,12,13,14,15,16,1,2,3,4,5,6,7,8,9,10,11,12,13,14,15,16,1,2,3,4,5,6,7,8,9,10,11,12,13,14,15,16,1,2,3,4,5,6,7,8,9,10,11,12,13,14,15,16,1,2,3,4,5,6,7,8,9,10,11,12,13,14,15,16,1,2,3,4,5,6,7,8,9,10,11,12,13,14,15,16,1,2,3,4,5,6,7,8,9,10,11,12,13,14,15,16,1,2,3,4,5,6,7,8,9,10,11,12,13,14,15,16,1,2,3,4,5,6,7,8,9,10,11,12,13,14,15,16,1,2,3,4,5,6,7,8,9,10,11,12,13,14,15,16,17,18,19,20,21,22,23,24,25,26,27,28,29,30,31,32,17,18,19,20,21,22,23,24,25,26,27,28,29,30,31,32,17,18,19,20,21,22,23,24,25,26,27,28,29,30,31,32,17,18,19,20,21,22,23,24,25,26,27,28,29,30,31,32,17,18,19,20,21,22,23,24,25,26,27,28,29,30,31,32,17,18,19,20,21,22,23,24,25,26,27,28,29,30,31,32,17,18,19,20,21,22,23,24,25,26,27,28,29,30,31,32,17,18,19,20,21,22,23,24,25,26,27,28,29,30,31,32,17,18,19,20,21,22,23,24,25,26,27,28,29,30,31,32,17,18,19,20,21,22,23,24,25,26,27,28,29,30,31,32,17,18,19,20,21,22,23,24,25,26,27,28,29,30,31,32,17,18,19,20,21,22,23,24,25,26,27,28,29,30,31,32,17,18,19,20,21,22,23,24,25,26,27,28,29,30,31,32,17,18,19,20,21,22,23,24,25,26,27,28,29,30,31,32,17,18,19,20,21,22,23,24,25,26,27,28,29,30,31,32,17,18,19,20,21,22,23,24,25,26,27,28,29,30,31,32,33,34,35,36,37,38,39,40,41,42,43,44,45,46,47,48,33,34,35,36,37,38,39,40,41,42,43,44,45,46,47,48,33,34,35,36,37,38,39,40,41,42,43,44,45,46,47,48,33,34,35,36,37,38,39,40,41,42,43,44,45,46,47,48,33,34,35,36,37,38,39,40,41,42,43,44,45,46,47,48,33,34,35,36,37,38,39,40,41,42,43,44,45,46,47,48,33,34,35,36,37,38,39,40,41,42,43,44,45,46,47,48,33,34,35,36,37,38,39,40,41,42,43,44,45,46,47,48,33,34,35,36,37,38,39,40,41,42,43,44,45,46,47,48,33,34,35,36,37,38,39,40,41,42,43,44,45,46,47,48,33,34,35,36,37,38,39,40,41,42,43,44,45,46,47,48,33,34,35,36,37,38,39,40,41,42,43,44,45,46,47,48,33,34,35,36,37,38,39,40,41,42,43,44,45,46,47,48,33,34,35,36,37,38,39,40,41,42,43,44,45,46,47,48,33,34,35,36,37,38,39,40,41,42,43,44,45,46,47,48,33,34,35,36,37,38,39,40,41,42,43,44,45,46,47,48,49,50,51,52,53,54,55,56,57,58,59,60,61,62,63,64,49,50,51,52,53,54,55,56,57,58,59,60,61,62,63,64,49,50,51,52,53,54,55,56,57,58,59,60,61,62,63,64,49,50,51,52,53,54,55,56,57,58,59,60,61,62,63,64,49,50,51,52,53,54,55,56,57,58,59,60,61,62,63,64,49,50,51,52,53,54,55,56,57,58,59,60,61,62,63,64,49,50,51,52,53,54,55,56,57,58,59,60,61,62,63,64,49,50,51,52,53,54,55,56,57,58,59,60,61,62,63,64,49,50,51,52,53,54,55,56,57,58,59,60,61,62,63,64,49,50,51,52,53,54,55,56,57,58,59,60,61,62,63,64,49,50,51,52,53,54,55,56,57,58,59,60,61,62,63,64,49,50,51,52,53,54,55,56,57,58,59,60,61,62,63,64,49,50,51,52,53,54,55,56,57,58,59,60,61,62,63,64,49,50,51,52,53,54,55,56,57,58,59,60,61,62,63,64,49,50,51,52,53,54,55,56,57,58,59,60,61,62,63,64,49,50,51,52,53,54,55,56,57,58,59,60,61,62,63,64,65,66,67,68,69,70,71,72,73,74,75,76,77,78,79,80,65,66,67,68,69,70,71,72,73,74,75,76,77,78,79,80,65,66,67,68,69,70,71,72,73,74,75,76,77,78,79,80,65,66,67,68,69,70,71,72,73,74,75,76,77,78,79,80,65,66,67,68,69,70,71,72,73,74,75,76,77,78,79,80,65,66,67,68,69,70,71,72,73,74,75,76,77,78,79,80,65,66,67,68,69,70,71,72,73,74,75,76,77,78,79,80,65,66,67,68,69,70,71,72,73,74,75,76,77,78,79,80,65,66,67,68,69,70,71,72,73,74,75,76,77,78,79,80,65,66,67,68,69,70,71,72,73,74,75,76,77,78,79,80,65,66,67,68,69,70,71,72,73,74,75,76,77,78,79,80,65,66,67,68,69,70,71,72,73,74,75,76,77,78,79,80,65,66,67,68,69,70,71,72,73,74,75,76,77,78,79,80,65,66,67,68,69,70,71,72,73,74,75,76,77,78,79,80,65,66,67,68,69,70,71,72,73,74,75,76,77,78,79,80,65,66,67,68,69,70,71,72,73,74,75,76,77,78,79,80,81,82,83,84,85,86,87,88,89,90,91,92,93,94,95,96,81,82,83,84,85,86,87,88,89,90,91,92,93,94,95,96,81,82,83,84,85,86,87,88,89,90,91,92,93,94,95,96,81,82,83,84,85,86,87,88,89,90,91,92,93,94,95,96,81,82,83,84,85,86,87,88,89,90,91,92,93,94,95,96,81,82,83,84,85,86,87,88,89,90,91,92,93,94,95,96,81,82,83,84,85,86,87,88,89,90,91,92,93,94,95,96,81,82,83,84,85,86,87,88,89,90,91,92,93,94,95,96,81,82,83,84,85,86,87,88,89,90,91,92,93,94,95,96,81,82,83,84,85,86,87,88,89,90,91,92,93,94,95,96,81,82,83,84,85,86,87,88,89,90,91,92,93,94,95,96,81,82,83,84,85,86,87,88,89,90,91,92,93,94,95,96,81,82,83,84,85,86,87,88,89,90,91,92,93,94,95,96,81,82,83,84,85,86,87,88,89,90,91,92,93,94,95,96,81,82,83,84,85,86,87,88,89,90,91,92,93,94,95,96,81,82,83,84,85,86,87,88,89,90,91,92,93,94,95,96,97,98,99,100,101,102,103,104,105,106,107,108,109,110,111,112,97,98,99,100,101,102,103,104,105,106,107,108,109,110,111,112,97,98,99,100,101,102,103,104,105,106,107,108,109,110,111,112,97,98,99,100,101,102,103,104,105,106,107,108,109,110,111,112,97,98,99,100,101,102,103,104,105,106,107,108,109,110,111,112,97,98,99,100,101,102,103,104,105,106,107,108,109,110,111,112,97,98,99,100,101,102,103,104,105,106,107,108,109,110,111,112,97,98,99,100,101,102,103,104,105,106,107,108,109,110,111,112,97,98,99,100,101,102,103,104,105,106,107,108,109,110,111,112,97,98,99,100,101,102,103,104,105,106,107,108,109,110,111,112,97,98,99,100,101,102,103,104,105,106,107,108,109,110,111,112,97,98,99,100,101,102,103,104,105,106,107,108,109,110,111,112,97,98,99,100,101,102,103,104,105,106,107,108,109,110,111,112,97,98,99,100,101,102,103,104,105,106,107,108,109,110,111,112,97,98,99,100,101,102,103,104,105,106,107,108,109,110,111,112,97,98,99,100,101,102,103,104,105,106,107,108,109,110,111,112,113,114,115,116,117,118,119,120,121,122,123,124,125,126,127,128,113,114,115,116,117,118,119,120,121,122,123,124,125,126,127,128,113,114,115,116,117,118,119,120,121,122,123,124,125,126,127,128,113,114,115,116,117,118,119,120,121,122,123,124,125,126,127,128,113,114,115,116,117,118,119,120,121,122,123,124,125,126,127,128,113,114,115,116,117,118,119,120,121,122,123,124,125,126,127,128,113,114,115,116,117,118,119,120,121,122,123,124,125,126,127,128,113,114,115,116,117,118,119,120,121,122,123,124,125,126,127,128,113,114,115,116,117,118,119,120,121,122,123,124,125,126,127,128,113,114,115,116,117,118,119,120,121,122,123,124,125,126,127,128,113,114,115,116,117,118,119,120,121,122,123,124,125,126,127,128,113,114,115,116,117,118,119,120,121,122,123,124,125,126,127,128,113,114,115,116,117,118,119,120,121,122,123,124,125,126,127,128,113,114,115,116,117,118,119,120,121,122,123,124,125,126,127,128,113,114,115,116,117,118,119,120,121,122,123,124,125,126,127,128,113,114,115,116,117,118,119,120,121,122,123,124,125,126,127,128,129,130,131,132,133,134,135,136,137,138,139,140,141,142,143,144,129,130,131,132,133,134,135,136,137,138,139,140,141,142,143,144,129,130,131,132,133,134,135,136,137,138,139,140,141,142,143,144,129,130,131,132,133,134,135,136,137,138,139,140,141,142,143,144,129,130,131,132,133,134,135,136,137,138,139,140,141,142,143,144,129,130,131,132,133,134,135,136,137,138,139,140,141,142,143,144,129,130,131,132,133,134,135,136,137,138,139,140,141,142,143,144,129,130,131,132,133,134,135,136,137,138,139,140,141,142,143,144,129,130,131,132,133,134,135,136,137,138,139,140,141,142,143,144,129,130,131,132,133,134,135,136,137,138,139,140,141,142,143,144,129,130,131,132,133,134,135,136,137,138,139,140,141,142,143,144,129,130,131,132,133,134,135,136,137,138,139,140,141,142,143,144,129,130,131,132,133,134,135,136,137,138,139,140,141,142,143,144,129,130,131,132,133,134,135,136,137,138,139,140,141,142,143,144,129,130,131,132,133,134,135,136,137,138,139,140,141,142,143,144,129,130,131,132,133,134,135,136,137,138,139,140,141,142,143,144,145,146,147,148,149,150,151,152,153,154,155,156,157,158,159,160,145,146,147,148,149,150,151,152,153,154,155,156,157,158,159,160,145,146,147,148,149,150,151,152,153,154,155,156,157,158,159,160,145,146,147,148,149,150,151,152,153,154,155,156,157,158,159,160,145,146,147,148,149,150,151,152,153,154,155,156,157,158,159,160,145,146,147,148,149,150,151,152,153,154,155,156,157,158,159,160,145,146,147,148,149,150,151,152,153,154,155,156,157,158,159,160,145,146,147,148,149,150,151,152,153,154,155,156,157,158,159,160,145,146,147,148,149,150,151,152,153,154,155,156,157,158,159,160,145,146,147,148,149,150,151,152,153,154,155,156,157,158,159,160,145,146,147,148,149,150,151,152,153,154,155,156,157,158,159,160,145,146,147,148,149,150,151,152,153,154,155,156,157,158,159,160,145,146,147,148,149,150,151,152,153,154,155,156,157,158,159,160,145,146,147,148,149,150,151,152,153,154,155,156,157,158,159,160,145,146,147,148,149,150,151,152,153,154,155,156,157,158,159,160,145,146,147,148,149,150,151,152,153,154,155,156,157,158,159,160,161,162,163,164,165,166,167,168,169,170,171,172,173,174,175,176,161,162,163,164,165,166,167,168,169,170,171,172,173,174,175,176,161,162,163,164,165,166,167,168,169,170,171,172,173,174,175,176,161,162,163,164,165,166,167,168,169,170,171,172,173,174,175,176,161,162,163,164,165,166,167,168,169,170,171,172,173,174,175,176,161,162,163,164,165,166,167,168,169,170,171,172,173,174,175,176,161,162,163,164,165,166,167,168,169,170,171,172,173,174,175,176,161,162,163,164,165,166,167,168,169,170,171,172,173,174,175,176,161,162,163,164,165,166,167,168,169,170,171,172,173,174,175,176,161,162,163,164,165,166,167,168,169,170,171,172,173,174,175,176,161,162,163,164,165,166,167,168,169,170,171,172,173,174,175,176,161,162,163,164,165,166,167,168,169,170,171,172,173,174,175,176,161,162,163,164,165,166,167,168,169,170,171,172,173,174,175,176,161,162,163,164,165,166,167,168,169,170,171,172,173,174,175,176,161,162,163,164,165,166,167,168,169,170,171,172,173,174,175,176,161,162,163,164,165,166,167,168,169,170,171,172,173,174,175,176,177,178,179,180,181,182,183,184,185,186,187,188,189,190,191,192,177,178,179,180,181,182,183,184,185,186,187,188,189,190,191,192,177,178,179,180,181,182,183,184,185,186,187,188,189,190,191,192,177,178,179,180,181,182,183,184,185,186,187,188,189,190,191,192,177,178,179,180,181,182,183,184,185,186,187,188,189,190,191,192,177,178,179,180,181,182,183,184,185,186,187,188,189,190,191,192,177,178,179,180,181,182,183,184,185,186,187,188,189,190,191,192,177,178,179,180,181,182,183,184,185,186,187,188,189,190,191,192,177,178,179,180,181,182,183,184,185,186,187,188,189,190,191,192,177,178,179,180,181,182,183,184,185,186,187,188,189,190,191,192,177,178,179,180,181,182,183,184,185,186,187,188,189,190,191,192,177,178,179,180,181,182,183,184,185,186,187,188,189,190,191,192,177,178,179,180,181,182,183,184,185,186,187,188,189,190,191,192,177,178,179,180,181,182,183,184,185,186,187,188,189,190,191,192,177,178,179,180,181,182,183,184,185,186,187,188,189,190,191,192,177,178,179,180,181,182,183,184,185,186,187,188,189,190,191,192,193,194,195,196,197,198,199,200,201,202,203,204,205,206,207,208,193,194,195,196,197,198,199,200,201,202,203,204,205,206,207,208,193,194,195,196,197,198,199,200,201,202,203,204,205,206,207,208,193,194,195,196,197,198,199,200,201,202,203,204,205,206,207,208,193,194,195,196,197,198,199,200,201,202,203,204,205,206,207,208,193,194,195,196,197,198,199,200,201,202,203,204,205,206,207,208,193,194,195,196,197,198,199,200,201,202,203,204,205,206,207,208,193,194,195,196,197,198,199,200,201,202,203,204,205,206,207,208,193,194,195,196,197,198,199,200,201,202,203,204,205,206,207,208,193,194,195,196,197,198,199,200,201,202,203,204,205,206,207,208,193,194,195,196,197,198,199,200,201,202,203,204,205,206,207,208,193,194,195,196,197,198,199,200,201,202,203,204,205,206,207,208,193,194,195,196,197,198,199,200,201,202,203,204,205,206,207,208,193,194,195,196,197,198,199,200,201,202,203,204,205,206,207,208,193,194,195,196,197,198,199,200,201,202,203,204,205,206,207,208,193,194,195,196,197,198,199,200,201,202,203,204,205,206,207,208,209,210,211,212,213,214,215,216,217,218,219,220,221,222,223,224,209,210,211,212,213,214,215,216,217,218,219,220,221,222,223,224,209,210,211,212,213,214,215,216,217,218,219,220,221,222,223,224,209,210,211,212,213,214,215,216,217,218,219,220,221,222,223,224,209,210,211,212,213,214,215,216,217,218,219,220,221,222,223,224,209,210,211,212,213,214,215,216,217,218,219,220,221,222,223,224,209,210,211,212,213,214,215,216,217,218,219,220,221,222,223,224,209,210,211,212,213,214,215,216,217,218,219,220,221,222,223,224,209,210,211,212,213,214,215,216,217,218,219,220,221,222,223,224,209,210,211,212,213,214,215,216,217,218,219,220,221,222,223,224,209,210,211,212,213,214,215,216,217,218,219,220,221,222,223,224,209,210,211,212,213,214,215,216,217,218,219,220,221,222,223,224,209,210,211,212,213,214,215,216,217,218,219,220,221,222,223,224,209,210,211,212,213,214,215,216,217,218,219,220,221,222,223,224,209,210,211,212,213,214,215,216,217,218,219,220,221,222,223,224,209,210,211,212,213,214,215,216,217,218,219,220,221,222,223,224,225,226,227,228,229,230,231,232,233,234,235,236,237,238,239,240,225,226,227,228,229,230,231,232,233,234,235,236,237,238,239,240,225,226,227,228,229,230,231,232,233,234,235,236,237,238,239,240,225,226,227,228,229,230,231,232,233,234,235,236,237,238,239,240,225,226,227,228,229,230,231,232,233,234,235,236,237,238,239,240,225,226,227,228,229,230,231,232,233,234,235,236,237,238,239,240,225,226,227,228,229,230,231,232,233,234,235,236,237,238,239,240,225,226,227,228,229,230,231,232,233,234,235,236,237,238,239,240,225,226,227,228,229,230,231,232,233,234,235,236,237,238,239,240,225,226,227,228,229,230,231,232,233,234,235,236,237,238,239,240,225,226,227,228,229,230,231,232,233,234,235,236,237,238,239,240,225,226,227,228,229,230,231,232,233,234,235,236,237,238,239,240,225,226,227,228,229,230,231,232,233,234,235,236,237,238,239,240,225,226,227,228,229,230,231,232,233,234,235,236,237,238,239,240,225,226,227,228,229,230,231,232,233,234,235,236,237,238,239,240,225,226,227,228,229,230,231,232,233,234,235,236,237,238,239,240,241,242,243,244,245,246,247,248,249,250,251,252,253,254,255,256,241,242,243,244,245,246,247,248,249,250,251,252,253,254,255,256,241,242,243,244,245,246,247,248,249,250,251,252,253,254,255,256,241,242,243,244,245,246,247,248,249,250,251,252,253,254,255,256,241,242,243,244,245,246,247,248,249,250,251,252,253,254,255,256,241,242,243,244,245,246,247,248,249,250,251,252,253,254,255,256,241,242,243,244,245,246,247,248,249,250,251,252,253,254,255,256,241,242,243,244,245,246,247,248,249,250,251,252,253,254,255,256,241,242,243,244,245,246,247,248,249,250,251,252,253,254,255,256,241,242,243,244,245,246,247,248,249,250,251,252,253,254,255,256,241,242,243,244,245,246,247,248,249,250,251,252,253,254,255,256,241,242,243,244,245,246,247,248,249,250,251,252,253,254,255,256,241,242,243,244,245,246,247,248,249,250,251,252,253,254,255,256,241,242,243,244,245,246,247,248,249,250,251,252,253,254,255,256,241,242,243,244,245,246,247,248,249,250,251,252,253,254,255,256,241,242,243,244,245,246,247,248,249,250,251,252,253,254,255,256,1,2,3,4,5,6,7,8,9,10,11,12,13,14,15,16,1,2,3,4,5,6,7,8,9,10,11,12,13,14,15,16,1,2,3,4,5,6,7,8,9,10,11,12,13,14,15,16,1,2,3,4,5,6,7,8,9,10,11,12,13,14,15,16,1,2,3,4,5,6,7,8,9,10,11,12,13,14,15,16,1,2,3,4,5,6,7,8,9,10,11,12,13,14,15,16,1,2,3,4,5,6,7,8,9,10,11,12,13,14,15,16,1,2,3,4,5,6,7,8,9,10,11,12,13,14,15,16,1,2,3,4,5,6,7,8,9,10,11,12,13,14,15,16,1,2,3,4,5,6,7,8,9,10,11,12,13,14,15,16,1,2,3,4,5,6,7,8,9,10,11,12,13,14,15,16,1,2,3,4,5,6,7,8,9,10,11,12,13,14,15,16,1,2,3,4,5,6,7,8,9,10,11,12,13,14,15,16,1,2,3,4,5,6,7,8,9,10,11,12,13,14,15,16,1,2,3,4,5,6,7,8,9,10,11,12,13,14,15,16,1,2,3,4,5,6,7,8,9,10,11,12,13,14,15,16,17,18,19,20,21,22,23,24,25,26,27,28,29,30,31,32,17,18,19,20,21,22,23,24,25,26,27,28,29,30,31,32,17,18,19,20,21,22,23,24,25,26,27,28,29,30,31,32,17,18,19,20,21,22,23,24,25,26,27,28,29,30,31,32,17,18,19,20,21,22,23,24,25,26,27,28,29,30,31,32,17,18,19,20,21,22,23,24,25,26,27,28,29,30,31,32,17,18,19,20,21,22,23,24,25,26,27,28,29,30,31,32,17,18,19,20,21,22,23,24,25,26,27,28,29,30,31,32,17,18,19,20,21,22,23,24,25,26,27,28,29,30,31,32,17,18,19,20,21,22,23,24,25,26,27,28,29,30,31,32,17,18,19,20,21,22,23,24,25,26,27,28,29,30,31,32,17,18,19,20,21,22,23,24,25,26,27,28,29,30,31,32,17,18,19,20,21,22,23,24,25,26,27,28,29,30,31,32,17,18,19,20,21,22,23,24,25,26,27,28,29,30,31,32,17,18,19,20,21,22,23,24,25,26,27,28,29,30,31,32,17,18,19,20,21,22,23,24,25,26,27,28,29,30,31,32,33,34,35,36,37,38,39,40,41,42,43,44,45,46,47,48,33,34,35,36,37,38,39,40,41,42,43,44,45,46,47,48,33,34,35,36,37,38,39,40,41,42,43,44,45,46,47,48,33,34,35,36,37,38,39,40,41,42,43,44,45,46,47,48,33,34,35,36,37,38,39,40,41,42,43,44,45,46,47,48,33,34,35,36,37,38,39,40,41,42,43,44,45,46,47,48,33,34,35,36,37,38,39,40,41,42,43,44,45,46,47,48,33,34,35,36,37,38,39,40,41,42,43,44,45,46,47,48,33,34,35,36,37,38,39,40,41,42,43,44,45,46,47,48,33,34,35,36,37,38,39,40,41,42,43,44,45,46,47,48,33,34,35,36,37,38,39,40,41,42,43,44,45,46,47,48,33,34,35,36,37,38,39,40,41,42,43,44,45,46,47,48,33,34,35,36,37,38,39,40,41,42,43,44,45,46,47,48,33,34,35,36,37,38,39,40,41,42,43,44,45,46,47,48,33,34,35,36,37,38,39,40,41,42,43,44,45,46,47,48,33,34,35,36,37,38,39,40,41,42,43,44,45,46,47,48,49,50,51,52,53,54,55,56,57,58,59,60,61,62,63,64,49,50,51,52,53,54,55,56,57,58,59,60,61,62,63,64,49,50,51,52,53,54,55,56,57,58,59,60,61,62,63,64,49,50,51,52,53,54,55,56,57,58,59,60,61,62,63,64,49,50,51,52,53,54,55,56,57,58,59,60,61,62,63,64,49,50,51,52,53,54,55,56,57,58,59,60,61,62,63,64,49,50,51,52,53,54,55,56,57,58,59,60,61,62,63,64,49,50,51,52,53,54,55,56,57,58,59,60,61,62,63,64,49,50,51,52,53,54,55,56,57,58,59,60,61,62,63,64,49,50,51,52,53,54,55,56,57,58,59,60,61,62,63,64,49,50,51,52,53,54,55,56,57,58,59,60,61,62,63,64,49,50,51,52,53,54,55,56,57,58,59,60,61,62,63,64,49,50,51,52,53,54,55,56,57,58,59,60,61,62,63,64,49,50,51,52,53,54,55,56,57,58,59,60,61,62,63,64,49,50,51,52,53,54,55,56,57,58,59,60,61,62,63,64,49,50,51,52,53,54,55,56,57,58,59,60,61,62,63,64,65,66,67,68,69,70,71,72,73,74,75,76,77,78,79,80,65,66,67,68,69,70,71,72,73,74,75,76,77,78,79,80,65,66,67,68,69,70,71,72,73,74,75,76,77,78,79,80,65,66,67,68,69,70,71,72,73,74,75,76,77,78,79,80,65,66,67,68,69,70,71,72,73,74,75,76,77,78,79,80,65,66,67,68,69,70,71,72,73,74,75,76,77,78,79,80,65,66,67,68,69,70,71,72,73,74,75,76,77,78,79,80,65,66,67,68,69,70,71,72,73,74,75,76,77,78,79,80,65,66,67,68,69,70,71,72,73,74,75,76,77,78,79,80,65,66,67,68,69,70,71,72,73,74,75,76,77,78,79,80,65,66,67,68,69,70,71,72,73,74,75,76,77,78,79,80,65,66,67,68,69,70,71,72,73,74,75,76,77,78,79,80,65,66,67,68,69,70,71,72,73,74,75,76,77,78,79,80,65,66,67,68,69,70,71,72,73,74,75,76,77,78,79,80,65,66,67,68,69,70,71,72,73,74,75,76,77,78,79,80,65,66,67,68,69,70,71,72,73,74,75,76,77,78,79,80,81,82,83,84,85,86,87,88,89,90,91,92,93,94,95,96,81,82,83,84,85,86,87,88,89,90,91,92,93,94,95,96,81,82,83,84,85,86,87,88,89,90,91,92,93,94,95,96,81,82,83,84,85,86,87,88,89,90,91,92,93,94,95,96,81,82,83,84,85,86,87,88,89,90,91,92,93,94,95,96,81,82,83,84,85,86,87,88,89,90,91,92,93,94,95,96,81,82,83,84,85,86,87,88,89,90,91,92,93,94,95,96,81,82,83,84,85,86,87,88,89,90,91,92,93,94,95,96,81,82,83,84,85,86,87,88,89,90,91,92,93,94,95,96,81,82,83,84,85,86,87,88,89,90,91,92,93,94,95,96,81,82,83,84,85,86,87,88,89,90,91,92,93,94,95,96,81,82,83,84,85,86,87,88,89,90,91,92,93,94,95,96,81,82,83,84,85,86,87,88,89,90,91,92,93,94,95,96,81,82,83,84,85,86,87,88,89,90,91,92,93,94,95,96,81,82,83,84,85,86,87,88,89,90,91,92,93,94,95,96,81,82,83,84,85,86,87,88,89,90,91,92,93,94,95,96,97,98,99,100,101,102,103,104,105,106,107,108,109,110,111,112,97,98,99,100,101,102,103,104,105,106,107,108,109,110,111,112,97,98,99,100,101,102,103,104,105,106,107,108,109,110,111,112,97,98,99,100,101,102,103,104,105,106,107,108,109,110,111,112,97,98,99,100,101,102,103,104,105,106,107,108,109,110,111,112,97,98,99,100,101,102,103,104,105,106,107,108,109,110,111,112,97,98,99,100,101,102,103,104,105,106,107,108,109,110,111,112,97,98,99,100,101,102,103,104,105,106,107,108,109,110,111,112,97,98,99,100,101,102,103,104,105,106,107,108,109,110,111,112,97,98,99,100,101,102,103,104,105,106,107,108,109,110,111,112,97,98,99,100,101,102,103,104,105,106,107,108,109,110,111,112,97,98,99,100,101,102,103,104,105,106,107,108,109,110,111,112,97,98,99,100,101,102,103,104,105,106,107,108,109,110,111,112,97,98,99,100,101,102,103,104,105,106,107,108,109,110,111,112,97,98,99,100,101,102,103,104,105,106,107,108,109,110,111,112,97,98,99,100,101,102,103,104,105,106,107,108,109,110,111,112,113,114,115,116,117,118,119,120,121,122,123,124,125,126,127,128,113,114,115,116,117,118,119,120,121,122,123,124,125,126,127,128,113,114,115,116,117,118,119,120,121,122,123,124,125,126,127,128,113,114,115,116,117,118,119,120,121,122,123,124,125,126,127,128,113,114,115,116,117,118,119,120,121,122,123,124,125,126,127,128,113,114,115,116,117,118,119,120,121,122,123,124,125,126,127,128,113,114,115,116,117,118,119,120,121,122,123,124,125,126,127,128,113,114,115,116,117,118,119,120,121,122,123,124,125,126,127,128,113,114,115,116,117,118,119,120,121,122,123,124,125,126,127,128,113,114,115,116,117,118,119,120,121,122,123,124,125,126,127,128,113,114,115,116,117,118,119,120,121,122,123,124,125,126,127,128,113,114,115,116,117,118,119,120,121,122,123,124,125,126,127,128,113,114,115,116,117,118,119,120,121,122,123,124,125,126,127,128,113,114,115,116,117,118,119,120,121,122,123,124,125,126,127,128,113,114,115,116,117,118,119,120,121,122,123,124,125,126,127,128,113,114,115,116,117,118,119,120,121,122,123,124,125,126,127,128,129,130,131,132,133,134,135,136,137,138,139,140,141,142,143,144,129,130,131,132,133,134,135,136,137,138,139,140,141,142,143,144,129,130,131,132,133,134,135,136,137,138,139,140,141,142,143,144,129,130,131,132,133,134,135,136,137,138,139,140,141,142,143,144,129,130,131,132,133,134,135,136,137,138,139,140,141,142,143,144,129,130,131,132,133,134,135,136,137,138,139,140,141,142,143,144,129,130,131,132,133,134,135,136,137,138,139,140,141,142,143,144,129,130,131,132,133,134,135,136,137,138,139,140,141,142,143,144,129,130,131,132,133,134,135,136,137,138,139,140,141,142,143,144,129,130,131,132,133,134,135,136,137,138,139,140,141,142,143,144,129,130,131,132,133,134,135,136,137,138,139,140,141,142,143,144,129,130,131,132,133,134,135,136,137,138,139,140,141,142,143,144,129,130,131,132,133,134,135,136,137,138,139,140,141,142,143,144,129,130,131,132,133,134,135,136,137,138,139,140,141,142,143,144,129,130,131,132,133,134,135,136,137,138,139,140,141,142,143,144,129,130,131,132,133,134,135,136,137,138,139,140,141,142,143,144,145,146,147,148,149,150,151,152,153,154,155,156,157,158,159,160,145,146,147,148,149,150,151,152,153,154,155,156,157,158,159,160,145,146,147,148,149,150,151,152,153,154,155,156,157,158,159,160,145,146,147,148,149,150,151,152,153,154,155,156,157,158,159,160,145,146,147,148,149,150,151,152,153,154,155,156,157,158,159,160,145,146,147,148,149,150,151,152,153,154,155,156,157,158,159,160,145,146,147,148,149,150,151,152,153,154,155,156,157,158,159,160,145,146,147,148,149,150,151,152,153,154,155,156,157,158,159,160,145,146,147,148,149,150,151,152,153,154,155,156,157,158,159,160,145,146,147,148,149,150,151,152,153,154,155,156,157,158,159,160,145,146,147,148,149,150,151,152,153,154,155,156,157,158,159,160,145,146,147,148,149,150,151,152,153,154,155,156,157,158,159,160,145,146,147,148,149,150,151,152,153,154,155,156,157,158,159,160,145,146,147,148,149,150,151,152,153,154,155,156,157,158,159,160,145,146,147,148,149,150,151,152,153,154,155,156,157,158,159,160,145,146,147,148,149,150,151,152,153,154,155,156,157,158,159,160,161,162,163,164,165,166,167,168,169,170,171,172,173,174,175,176,161,162,163,164,165,166,167,168,169,170,171,172,173,174,175,176,161,162,163,164,165,166,167,168,169,170,171,172,173,174,175,176,161,162,163,164,165,166,167,168,169,170,171,172,173,174,175,176,161,162,163,164,165,166,167,168,169,170,171,172,173,174,175,176,161,162,163,164,165,166,167,168,169,170,171,172,173,174,175,176,161,162,163,164,165,166,167,168,169,170,171,172,173,174,175,176,161,162,163,164,165,166,167,168,169,170,171,172,173,174,175,176,161,162,163,164,165,166,167,168,169,170,171,172,173,174,175,176,161,162,163,164,165,166,167,168,169,170,171,172,173,174,175,176,161,162,163,164,165,166,167,168,169,170,171,172,173,174,175,176,161,162,163,164,165,166,167,168,169,170,171,172,173,174,175,176,161,162,163,164,165,166,167,168,169,170,171,172,173,174,175,176,161,162,163,164,165,166,167,168,169,170,171,172,173,174,175,176,161,162,163,164,165,166,167,168,169,170,171,172,173,174,175,176,161,162,163,164,165,166,167,168,169,170,171,172,173,174,175,176,177,178,179,180,181,182,183,184,185,186,187,188,189,190,191,192,177,178,179,180,181,182,183,184,185,186,187,188,189,190,191,192,177,178,179,180,181,182,183,184,185,186,187,188,189,190,191,192,177,178,179,180,181,182,183,184,185,186,187,188,189,190,191,192,177,178,179,180,181,182,183,184,185,186,187,188,189,190,191,192,177,178,179,180,181,182,183,184,185,186,187,188,189,190,191,192,177,178,179,180,181,182,183,184,185,186,187,188,189,190,191,192,177,178,179,180,181,182,183,184,185,186,187,188,189,190,191,192,177,178,179,180,181,182,183,184,185,186,187,188,189,190,191,192,177,178,179,180,181,182,183,184,185,186,187,188,189,190,191,192,177,178,179,180,181,182,183,184,185,186,187,188,189,190,191,192,177,178,179,180,181,182,183,184,185,186,187,188,189,190,191,192,177,178,179,180,181,182,183,184,185,186,187,188,189,190,191,192,177,178,179,180,181,182,183,184,185,186,187,188,189,190,191,192,177,178,179,180,181,182,183,184,185,186,187,188,189,190,191,192,177,178,179,180,181,182,183,184,185,186,187,188,189,190,191,192,193,194,195,196,197,198,199,200,201,202,203,204,205,206,207,208,193,194,195,196,197,198,199,200,201,202,203,204,205,206,207,208,193,194,195,196,197,198,199,200,201,202,203,204,205,206,207,208,193,194,195,196,197,198,199,200,201,202,203,204,205,206,207,208,193,194,195,196,197,198,199,200,201,202,203,204,205,206,207,208,193,194,195,196,197,198,199,200,201,202,203,204,205,206,207,208,193,194,195,196,197,198,199,200,201,202,203,204,205,206,207,208,193,194,195,196,197,198,199,200,201,202,203,204,205,206,207,208,193,194,195,196,197,198,199,200,201,202,203,204,205,206,207,208,193,194,195,196,197,198,199,200,201,202,203,204,205,206,207,208,193,194,195,196,197,198,199,200,201,202,203,204,205,206,207,208,193,194,195,196,197,198,199,200,201,202,203,204,205,206,207,208,193,194,195,196,197,198,199,200,201,202,203,204,205,206,207,208,193,194,195,196,197,198,199,200,201,202,203,204,205,206,207,208,193,194,195,196,197,198,199,200,201,202,203,204,205,206,207,208,193,194,195,196,197,198,199,200,201,202,203,204,205,206,207,208,209,210,211,212,213,214,215,216,217,218,219,220,221,222,223,224,209,210,211,212,213,214,215,216,217,218,219,220,221,222,223,224,209,210,211,212,213,214,215,216,217,218,219,220,221,222,223,224,209,210,211,212,213,214,215,216,217,218,219,220,221,222,223,224,209,210,211,212,213,214,215,216,217,218,219,220,221,222,223,224,209,210,211,212,213,214,215,216,217,218,219,220,221,222,223,224,209,210,211,212,213,214,215,216,217,218,219,220,221,222,223,224,209,210,211,212,213,214,215,216,217,218,219,220,221,222,223,224,209,210,211,212,213,214,215,216,217,218,219,220,221,222,223,224,209,210,211,212,213,214,215,216,217,218,219,220,221,222,223,224,209,210,211,212,213,214,215,216,217,218,219,220,221,222,223,224,209,210,211,212,213,214,215,216,217,218,219,220,221,222,223,224,209,210,211,212,213,214,215,216,217,218,219,220,221,222,223,224,209,210,211,212,213,214,215,216,217,218,219,220,221,222,223,224,209,210,211,212,213,214,215,216,217,218,219,220,221,222,223,224,209,210,211,212,213,214,215,216,217,218,219,220,221,222,223,224,225,226,227,228,229,230,231,232,233,234,235,236,237,238,239,240,225,226,227,228,229,230,231,232,233,234,235,236,237,238,239,240,225,226,227,228,229,230,231,232,233,234,235,236,237,238,239,240,225,226,227,228,229,230,231,232,233,234,235,236,237,238,239,240,225,226,227,228,229,230,231,232,233,234,235,236,237,238,239,240,225,226,227,228,229,230,231,232,233,234,235,236,237,238,239,240,225,226,227,228,229,230,231,232,233,234,235,236,237,238,239,240,225,226,227,228,229,230,231,232,233,234,235,236,237,238,239,240,225,226,227,228,229,230,231,232,233,234,235,236,237,238,239,240,225,226,227,228,229,230,231,232,233,234,235,236,237,238,239,240,225,226,227,228,229,230,231,232,233,234,235,236,237,238,239,240,225,226,227,228,229,230,231,232,233,234,235,236,237,238,239,240,225,226,227,228,229,230,231,232,233,234,235,236,237,238,239,240,225,226,227,228,229,230,231,232,233,234,235,236,237,238,239,240,225,226,227,228,229,230,231,232,233,234,235,236,237,238,239,240,225,226,227,228,229,230,231,232,233,234,235,236,237,238,239,240,241,242,243,244,245,246,247,248,249,250,251,252,253,254,255,256,241,242,243,244,245,246,247,248,249,250,251,252,253,254,255,256,241,242,243,244,245,246,247,248,249,250,251,252,253,254,255,256,241,242,243,244,245,246,247,248,249,250,251,252,253,254,255,256,241,242,243,244,245,246,247,248,249,250,251,252,253,254,255,256,241,242,243,244,245,246,247,248,249,250,251,252,253,254,255,256,241,242,243,244,245,246,247,248,249,250,251,252,253,254,255,256,241,242,243,244,245,246,247,248,249,250,251,252,253,254,255,256,241,242,243,244,245,246,247,248,249,250,251,252,253,254,255,256,241,242,243,244,245,246,247,248,249,250,251,252,253,254,255,256,241,242,243,244,245,246,247,248,249,250,251,252,253,254,255,256,241,242,243,244,245,246,247,248,249,250,251,252,253,254,255,256,241,242,243,244,245,246,247,248,249,250,251,252,253,254,255,256,241,242,243,244,245,246,247,248,249,250,251,252,253,254,255,256,241,242,243,244,245,246,247,248,249,250,251,252,253,254,255,256,241,242,243,244,245,246,247,248,249,250,251,252,253,254,255,256,1,2,3,4,5,6,7,8,9,10,11,12,13,14,15,16,1,2,3,4,5,6,7,8,9,10,11,12,13,14,15,16,1,2,3,4,5,6,7,8,9,10,11,12,13,14,15,16,1,2,3,4,5,6,7,8,9,10,11,12,13,14,15,16,1,2,3,4,5,6,7,8,9,10,11,12,13,14,15,16,1,2,3,4,5,6,7,8,9,10,11,12,13,14,15,16,1,2,3,4,5,6,7,8,9,10,11,12,13,14,15,16,1,2,3,4,5,6,7,8,9,10,11,12,13,14,15,16,1,2,3,4,5,6,7,8,9,10,11,12,13,14,15,16,1,2,3,4,5,6,7,8,9,10,11,12,13,14,15,16,1,2,3,4,5,6,7,8,9,10,11,12,13,14,15,16,1,2,3,4,5,6,7,8,9,10,11,12,13,14,15,16,1,2,3,4,5,6,7,8,9,10,11,12,13,14,15,16,1,2,3,4,5,6,7,8,9,10,11,12,13,14,15,16,1,2,3,4,5,6,7,8,9,10,11,12,13,14,15,16,1,2,3,4,5,6,7,8,9,10,11,12,13,14,15,16,17,18,19,20,21,22,23,24,25,26,27,28,29,30,31,32,17,18,19,20,21,22,23,24,25,26,27,28,29,30,31,32,17,18,19,20,21,22,23,24,25,26,27,28,29,30,31,32,17,18,19,20,21,22,23,24,25,26,27,28,29,30,31,32,17,18,19,20,21,22,23,24,25,26,27,28,29,30,31,32,17,18,19,20,21,22,23,24,25,26,27,28,29,30,31,32,17,18,19,20,21,22,23,24,25,26,27,28,29,30,31,32,17,18,19,20,21,22,23,24,25,26,27,28,29,30,31,32,17,18,19,20,21,22,23,24,25,26,27,28,29,30,31,32,17,18,19,20,21,22,23,24,25,26,27,28,29,30,31,32,17,18,19,20,21,22,23,24,25,26,27,28,29,30,31,32,17,18,19,20,21,22,23,24,25,26,27,28,29,30,31,32,17,18,19,20,21,22,23,24,25,26,27,28,29,30,31,32,17,18,19,20,21,22,23,24,25,26,27,28,29,30,31,32,17,18,19,20,21,22,23,24,25,26,27,28,29,30,31,32,17,18,19,20,21,22,23,24,25,26,27,28,29,30,31,32,33,34,35,36,37,38,39,40,41,42,43,44,45,46,47,48,33,34,35,36,37,38,39,40,41,42,43,44,45,46,47,48,33,34,35,36,37,38,39,40,41,42,43,44,45,46,47,48,33,34,35,36,37,38,39,40,41,42,43,44,45,46,47,48,33,34,35,36,37,38,39,40,41,42,43,44,45,46,47,48,33,34,35,36,37,38,39,40,41,42,43,44,45,46,47,48,33,34,35,36,37,38,39,40,41,42,43,44,45,46,47,48,33,34,35,36,37,38,39,40,41,42,43,44,45,46,47,48,33,34,35,36,37,38,39,40,41,42,43,44,45,46,47,48,33,34,35,36,37,38,39,40,41,42,43,44,45,46,47,48,33,34,35,36,37,38,39,40,41,42,43,44,45,46,47,48,33,34,35,36,37,38,39,40,41,42,43,44,45,46,47,48,33,34,35,36,37,38,39,40,41,42,43,44,45,46,47,48,33,34,35,36,37,38,39,40,41,42,43,44,45,46,47,48,33,34,35,36,37,38,39,40,41,42,43,44,45,46,47,48,33,34,35,36,37,38,39,40,41,42,43,44,45,46,47,48,49,50,51,52,53,54,55,56,57,58,59,60,61,62,63,64,49,50,51,52,53,54,55,56,57,58,59,60,61,62,63,64,49,50,51,52,53,54,55,56,57,58,59,60,61,62,63,64,49,50,51,52,53,54,55,56,57,58,59,60,61,62,63,64,49,50,51,52,53,54,55,56,57,58,59,60,61,62,63,64,49,50,51,52,53,54,55,56,57,58,59,60,61,62,63,64,49,50,51,52,53,54,55,56,57,58,59,60,61,62,63,64,49,50,51,52,53,54,55,56,57,58,59,60,61,62,63,64,49,50,51,52,53,54,55,56,57,58,59,60,61,62,63,64,49,50,51,52,53,54,55,56,57,58,59,60,61,62,63,64,49,50,51,52,53,54,55,56,57,58,59,60,61,62,63,64,49,50,51,52,53,54,55,56,57,58,59,60,61,62,63,64,49,50,51,52,53,54,55,56,57,58,59,60,61,62,63,64,49,50,51,52,53,54,55,56,57,58,59,60,61,62,63,64,49,50,51,52,53,54,55,56,57,58,59,60,61,62,63,64,49,50,51,52,53,54,55,56,57,58,59,60,61,62,63,64,65,66,67,68,69,70,71,72,73,74,75,76,77,78,79,80,65,66,67,68,69,70,71,72,73,74,75,76,77,78,79,80,65,66,67,68,69,70,71,72,73,74,75,76,77,78,79,80,65,66,67,68,69,70,71,72,73,74,75,76,77,78,79,80,65,66,67,68,69,70,71,72,73,74,75,76,77,78,79,80,65,66,67,68,69,70,71,72,73,74,75,76,77,78,79,80,65,66,67,68,69,70,71,72,73,74,75,76,77,78,79,80,65,66,67,68,69,70,71,72,73,74,75,76,77,78,79,80,65,66,67,68,69,70,71,72,73,74,75,76,77,78,79,80,65,66,67,68,69,70,71,72,73,74,75,76,77,78,79,80,65,66,67,68,69,70,71,72,73,74,75,76,77,78,79,80,65,66,67,68,69,70,71,72,73,74,75,76,77,78,79,80,65,66,67,68,69,70,71,72,73,74,75,76,77,78,79,80,65,66,67,68,69,70,71,72,73,74,75,76,77,78,79,80,65,66,67,68,69,70,71,72,73,74,75,76,77,78,79,80,65,66,67,68,69,70,71,72,73,74,75,76,77,78,79,80,81,82,83,84,85,86,87,88,89,90,91,92,93,94,95,96,81,82,83,84,85,86,87,88,89,90,91,92,93,94,95,96,81,82,83,84,85,86,87,88,89,90,91,92,93,94,95,96,81,82,83,84,85,86,87,88,89,90,91,92,93,94,95,96,81,82,83,84,85,86,87,88,89,90,91,92,93,94,95,96,81,82,83,84,85,86,87,88,89,90,91,92,93,94,95,96,81,82,83,84,85,86,87,88,89,90,91,92,93,94,95,96,81,82,83,84,85,86,87,88,89,90,91,92,93,94,95,96,81,82,83,84,85,86,87,88,89,90,91,92,93,94,95,96,81,82,83,84,85,86,87,88,89,90,91,92,93,94,95,96,81,82,83,84,85,86,87,88,89,90,91,92,93,94,95,96,81,82,83,84,85,86,87,88,89,90,91,92,93,94,95,96,81,82,83,84,85,86,87,88,89,90,91,92,93,94,95,96,81,82,83,84,85,86,87,88,89,90,91,92,93,94,95,96,81,82,83,84,85,86,87,88,89,90,91,92,93,94,95,96,81,82,83,84,85,86,87,88,89,90,91,92,93,94,95,96,97,98,99,100,101,102,103,104,105,106,107,108,109,110,111,112,97,98,99,100,101,102,103,104,105,106,107,108,109,110,111,112,97,98,99,100,101,102,103,104,105,106,107,108,109,110,111,112,97,98,99,100,101,102,103,104,105,106,107,108,109,110,111,112,97,98,99,100,101,102,103,104,105,106,107,108,109,110,111,112,97,98,99,100,101,102,103,104,105,106,107,108,109,110,111,112,97,98,99,100,101,102,103,104,105,106,107,108,109,110,111,112,97,98,99,100,101,102,103,104,105,106,107,108,109,110,111,112,97,98,99,100,101,102,103,104,105,106,107,108,109,110,111,112,97,98,99,100,101,102,103,104,105,106,107,108,109,110,111,112,97,98,99,100,101,102,103,104,105,106,107,108,109,110,111,112,97,98,99,100,101,102,103,104,105,106,107,108,109,110,111,112,97,98,99,100,101,102,103,104,105,106,107,108,109,110,111,112,97,98,99,100,101,102,103,104,105,106,107,108,109,110,111,112,97,98,99,100,101,102,103,104,105,106,107,108,109,110,111,112,97,98,99,100,101,102,103,104,105,106,107,108,109,110,111,112,113,114,115,116,117,118,119,120,121,122,123,124,125,126,127,128,113,114,115,116,117,118,119,120,121,122,123,124,125,126,127,128,113,114,115,116,117,118,119,120,121,122,123,124,125,126,127,128,113,114,115,116,117,118,119,120,121,122,123,124,125,126,127,128,113,114,115,116,117,118,119,120,121,122,123,124,125,126,127,128,113,114,115,116,117,118,119,120,121,122,123,124,125,126,127,128,113,114,115,116,117,118,119,120,121,122,123,124,125,126,127,128,113,114,115,116,117,118,119,120,121,122,123,124,125,126,127,128,113,114,115,116,117,118,119,120,121,122,123,124,125,126,127,128,113,114,115,116,117,118,119,120,121,122,123,124,125,126,127,128,113,114,115,116,117,118,119,120,121,122,123,124,125,126,127,128,113,114,115,116,117,118,119,120,121,122,123,124,125,126,127,128,113,114,115,116,117,118,119,120,121,122,123,124,125,126,127,128,113,114,115,116,117,118,119,120,121,122,123,124,125,126,127,128,113,114,115,116,117,118,119,120,121,122,123,124,125,126,127,128,113,114,115,116,117,118,119,120,121,122,123,124,125,126,127,128,129,130,131,132,133,134,135,136,137,138,139,140,141,142,143,144,129,130,131,132,133,134,135,136,137,138,139,140,141,142,143,144,129,130,131,132,133,134,135,136,137,138,139,140,141,142,143,144,129,130,131,132,133,134,135,136,137,138,139,140,141,142,143,144,129,130,131,132,133,134,135,136,137,138,139,140,141,142,143,144,129,130,131,132,133,134,135,136,137,138,139,140,141,142,143,144,129,130,131,132,133,134,135,136,137,138,139,140,141,142,143,144,129,130,131,132,133,134,135,136,137,138,139,140,141,142,143,144,129,130,131,132,133,134,135,136,137,138,139,140,141,142,143,144,129,130,131,132,133,134,135,136,137,138,139,140,141,142,143,144,129,130,131,132,133,134,135,136,137,138,139,140,141,142,143,144,129,130,131,132,133,134,135,136,137,138,139,140,141,142,143,144,129,130,131,132,133,134,135,136,137,138,139,140,141,142,143,144,129,130,131,132,133,134,135,136,137,138,139,140,141,142,143,144,129,130,131,132,133,134,135,136,137,138,139,140,141,142,143,144,129,130,131,132,133,134,135,136,137,138,139,140,141,142,143,144,145,146,147,148,149,150,151,152,153,154,155,156,157,158,159,160,145,146,147,148,149,150,151,152,153,154,155,156,157,158,159,160,145,146,147,148,149,150,151,152,153,154,155,156,157,158,159,160,145,146,147,148,149,150,151,152,153,154,155,156,157,158,159,160,145,146,147,148,149,150,151,152,153,154,155,156,157,158,159,160,145,146,147,148,149,150,151,152,153,154,155,156,157,158,159,160,145,146,147,148,149,150,151,152,153,154,155,156,157,158,159,160,145,146,147,148,149,150,151,152,153,154,155,156,157,158,159,160,145,146,147,148,149,150,151,152,153,154,155,156,157,158,159,160,145,146,147,148,149,150,151,152,153,154,155,156,157,158,159,160,145,146,147,148,149,150,151,152,153,154,155,156,157,158,159,160,145,146,147,148,149,150,151,152,153,154,155,156,157,158,159,160,145,146,147,148,149,150,151,152,153,154,155,156,157,158,159,160,145,146,147,148,149,150,151,152,153,154,155,156,157,158,159,160,145,146,147,148,149,150,151,152,153,154,155,156,157,158,159,160,145,146,147,148,149,150,151,152,153,154,155,156,157,158,159,160,161,162,163,164,165,166,167,168,169,170,171,172,173,174,175,176,161,162,163,164,165,166,167,168,169,170,171,172,173,174,175,176,161,162,163,164,165,166,167,168,169,170,171,172,173,174,175,176,161,162,163,164,165,166,167,168,169,170,171,172,173,174,175,176,161,162,163,164,165,166,167,168,169,170,171,172,173,174,175,176,161,162,163,164,165,166,167,168,169,170,171,172,173,174,175,176,161,162,163,164,165,166,167,168,169,170,171,172,173,174,175,176,161,162,163,164,165,166,167,168,169,170,171,172,173,174,175,176,161,162,163,164,165,166,167,168,169,170,171,172,173,174,175,176,161,162,163,164,165,166,167,168,169,170,171,172,173,174,175,176,161,162,163,164,165,166,167,168,169,170,171,172,173,174,175,176,161,162,163,164,165,166,167,168,169,170,171,172,173,174,175,176,161,162,163,164,165,166,167,168,169,170,171,172,173,174,175,176,161,162,163,164,165,166,167,168,169,170,171,172,173,174,175,176,161,162,163,164,165,166,167,168,169,170,171,172,173,174,175,176,161,162,163,164,165,166,167,168,169,170,171,172,173,174,175,176,177,178,179,180,181,182,183,184,185,186,187,188,189,190,191,192,177,178,179,180,181,182,183,184,185,186,187,188,189,190,191,192,177,178,179,180,181,182,183,184,185,186,187,188,189,190,191,192,177,178,179,180,181,182,183,184,185,186,187,188,189,190,191,192,177,178,179,180,181,182,183,184,185,186,187,188,189,190,191,192,177,178,179,180,181,182,183,184,185,186,187,188,189,190,191,192,177,178,179,180,181,182,183,184,185,186,187,188,189,190,191,192,177,178,179,180,181,182,183,184,185,186,187,188,189,190,191,192,177,178,179,180,181,182,183,184,185,186,187,188,189,190,191,192,177,178,179,180,181,182,183,184,185,186,187,188,189,190,191,192,177,178,179,180,181,182,183,184,185,186,187,188,189,190,191,192,177,178,179,180,181,182,183,184,185,186,187,188,189,190,191,192,177,178,179,180,181,182,183,184,185,186,187,188,189,190,191,192,177,178,179,180,181,182,183,184,185,186,187,188,189,190,191,192,177,178,179,180,181,182,183,184,185,186,187,188,189,190,191,192,177,178,179,180,181,182,183,184,185,186,187,188,189,190,191,192,193,194,195,196,197,198,199,200,201,202,203,204,205,206,207,208,193,194,195,196,197,198,199,200,201,202,203,204,205,206,207,208,193,194,195,196,197,198,199,200,201,202,203,204,205,206,207,208,193,194,195,196,197,198,199,200,201,202,203,204,205,206,207,208,193,194,195,196,197,198,199,200,201,202,203,204,205,206,207,208,193,194,195,196,197,198,199,200,201,202,203,204,205,206,207,208,193,194,195,196,197,198,199,200,201,202,203,204,205,206,207,208,193,194,195,196,197,198,199,200,201,202,203,204,205,206,207,208,193,194,195,196,197,198,199,200,201,202,203,204,205,206,207,208,193,194,195,196,197,198,199,200,201,202,203,204,205,206,207,208,193,194,195,196,197,198,199,200,201,202,203,204,205,206,207,208,193,194,195,196,197,198,199,200,201,202,203,204,205,206,207,208,193,194,195,196,197,198,199,200,201,202,203,204,205,206,207,208,193,194,195,196,197,198,199,200,201,202,203,204,205,206,207,208,193,194,195,196,197,198,199,200,201,202,203,204,205,206,207,208,193,194,195,196,197,198,199,200,201,202,203,204,205,206,207,208,209,210,211,212,213,214,215,216,217,218,219,220,221,222,223,224,209,210,211,212,213,214,215,216,217,218,219,220,221,222,223,224,209,210,211,212,213,214,215,216,217,218,219,220,221,222,223,224,209,210,211,212,213,214,215,216,217,218,219,220,221,222,223,224,209,210,211,212,213,214,215,216,217,218,219,220,221,222,223,224,209,210,211,212,213,214,215,216,217,218,219,220,221,222,223,224,209,210,211,212,213,214,215,216,217,218,219,220,221,222,223,224,209,210,211,212,213,214,215,216,217,218,219,220,221,222,223,224,209,210,211,212,213,214,215,216,217,218,219,220,221,222,223,224,209,210,211,212,213,214,215,216,217,218,219,220,221,222,223,224,209,210,211,212,213,214,215,216,217,218,219,220,221,222,223,224,209,210,211,212,213,214,215,216,217,218,219,220,221,222,223,224,209,210,211,212,213,214,215,216,217,218,219,220,221,222,223,224,209,210,211,212,213,214,215,216,217,218,219,220,221,222,223,224,209,210,211,212,213,214,215,216,217,218,219,220,221,222,223,224,209,210,211,212,213,214,215,216,217,218,219,220,221,222,223,224,225,226,227,228,229,230,231,232,233,234,235,236,237,238,239,240,225,226,227,228,229,230,231,232,233,234,235,236,237,238,239,240,225,226,227,228,229,230,231,232,233,234,235,236,237,238,239,240,225,226,227,228,229,230,231,232,233,234,235,236,237,238,239,240,225,226,227,228,229,230,231,232,233,234,235,236,237,238,239,240,225,226,227,228,229,230,231,232,233,234,235,236,237,238,239,240,225,226,227,228,229,230,231,232,233,234,235,236,237,238,239,240,225,226,227,228,229,230,231,232,233,234,235,236,237,238,239,240,225,226,227,228,229,230,231,232,233,234,235,236,237,238,239,240,225,226,227,228,229,230,231,232,233,234,235,236,237,238,239,240,225,226,227,228,229,230,231,232,233,234,235,236,237,238,239,240,225,226,227,228,229,230,231,232,233,234,235,236,237,238,239,240,225,226,227,228,229,230,231,232,233,234,235,236,237,238,239,240,225,226,227,228,229,230,231,232,233,234,235,236,237,238,239,240,225,226,227,228,229,230,231,232,233,234,235,236,237,238,239,240,225,226,227,228,229,230,231,232,233,234,235,236,237,238,239,240,241,242,243,244,245,246,247,248,249,250,251,252,253,254,255,256,241,242,243,244,245,246,247,248,249,250,251,252,253,254,255,256,241,242,243,244,245,246,247,248,249,250,251,252,253,254,255,256,241,242,243,244,245,246,247,248,249,250,251,252,253,254,255,256,241,242,243,244,245,246,247,248,249,250,251,252,253,254,255,256,241,242,243,244,245,246,247,248,249,250,251,252,253,254,255,256,241,242,243,244,245,246,247,248,249,250,251,252,253,254,255,256,241,242,243,244,245,246,247,248,249,250,251,252,253,254,255,256,241,242,243,244,245,246,247,248,249,250,251,252,253,254,255,256,241,242,243,244,245,246,247,248,249,250,251,252,253,254,255,256,241,242,243,244,245,246,247,248,249,250,251,252,253,254,255,256,241,242,243,244,245,246,247,248,249,250,251,252,253,254,255,256,241,242,243,244,245,246,247,248,249,250,251,252,253,254,255,256,241,242,243,244,245,246,247,248,249,250,251,252,253,254,255,256,241,242,243,244,245,246,247,248,249,250,251,252,253,254,255,256,241,242,243,244,245,246,247,248,249,250,251,252,253,254,255,256,1,2,3,4,5,6,7,8,9,10,11,12,13,14,15,16,1,2,3,4,5,6,7,8,9,10,11,12,13,14,15,16,1,2,3,4,5,6,7,8,9,10,11,12,13,14,15,16,1,2,3,4,5,6,7,8,9,10,11,12,13,14,15,16,1,2,3,4,5,6,7,8,9,10,11,12,13,14,15,16,1,2,3,4,5,6,7,8,9,10,11,12,13,14,15,16,1,2,3,4,5,6,7,8,9,10,11,12,13,14,15,16,1,2,3,4,5,6,7,8,9,10,11,12,13,14,15,16,1,2,3,4,5,6,7,8,9,10,11,12,13,14,15,16,1,2,3,4,5,6,7,8,9,10,11,12,13,14,15,16,1,2,3,4,5,6,7,8,9,10,11,12,13,14,15,16,1,2,3,4,5,6,7,8,9,10,11,12,13,14,15,16,1,2,3,4,5,6,7,8,9,10,11,12,13,14,15,16,1,2,3,4,5,6,7,8,9,10,11,12,13,14,15,16,1,2,3,4,5,6,7,8,9,10,11,12,13,14,15,16,1,2,3,4,5,6,7,8,9,10,11,12,13,14,15,16,17,18,19,20,21,22,23,24,25,26,27,28,29,30,31,32,17,18,19,20,21,22,23,24,25,26,27,28,29,30,31,32,17,18,19,20,21,22,23,24,25,26,27,28,29,30,31,32,17,18,19,20,21,22,23,24,25,26,27,28,29,30,31,32,17,18,19,20,21,22,23,24,25,26,27,28,29,30,31,32,17,18,19,20,21,22,23,24,25,26,27,28,29,30,31,32,17,18,19,20,21,22,23,24,25,26,27,28,29,30,31,32,17,18,19,20,21,22,23,24,25,26,27,28,29,30,31,32,17,18,19,20,21,22,23,24,25,26,27,28,29,30,31,32,17,18,19,20,21,22,23,24,25,26,27,28,29,30,31,32,17,18,19,20,21,22,23,24,25,26,27,28,29,30,31,32,17,18,19,20,21,22,23,24,25,26,27,28,29,30,31,32,17,18,19,20,21,22,23,24,25,26,27,28,29,30,31,32,17,18,19,20,21,22,23,24,25,26,27,28,29,30,31,32,17,18,19,20,21,22,23,24,25,26,27,28,29,30,31,32,17,18,19,20,21,22,23,24,25,26,27,28,29,30,31,32,33,34,35,36,37,38,39,40,41,42,43,44,45,46,47,48,33,34,35,36,37,38,39,40,41,42,43,44,45,46,47,48,33,34,35,36,37,38,39,40,41,42,43,44,45,46,47,48,33,34,35,36,37,38,39,40,41,42,43,44,45,46,47,48,33,34,35,36,37,38,39,40,41,42,43,44,45,46,47,48,33,34,35,36,37,38,39,40,41,42,43,44,45,46,47,48,33,34,35,36,37,38,39,40,41,42,43,44,45,46,47,48,33,34,35,36,37,38,39,40,41,42,43,44,45,46,47,48,33,34,35,36,37,38,39,40,41,42,43,44,45,46,47,48,33,34,35,36,37,38,39,40,41,42,43,44,45,46,47,48,33,34,35,36,37,38,39,40,41,42,43,44,45,46,47,48,33,34,35,36,37,38,39,40,41,42,43,44,45,46,47,48,33,34,35,36,37,38,39,40,41,42,43,44,45,46,47,48,33,34,35,36,37,38,39,40,41,42,43,44,45,46,47,48,33,34,35,36,37,38,39,40,41,42,43,44,45,46,47,48,33,34,35,36,37,38,39,40,41,42,43,44,45,46,47,48,49,50,51,52,53,54,55,56,57,58,59,60,61,62,63,64,49,50,51,52,53,54,55,56,57,58,59,60,61,62,63,64,49,50,51,52,53,54,55,56,57,58,59,60,61,62,63,64,49,50,51,52,53,54,55,56,57,58,59,60,61,62,63,64,49,50,51,52,53,54,55,56,57,58,59,60,61,62,63,64,49,50,51,52,53,54,55,56,57,58,59,60,61,62,63,64,49,50,51,52,53,54,55,56,57,58,59,60,61,62,63,64,49,50,51,52,53,54,55,56,57,58,59,60,61,62,63,64,49,50,51,52,53,54,55,56,57,58,59,60,61,62,63,64,49,50,51,52,53,54,55,56,57,58,59,60,61,62,63,64,49,50,51,52,53,54,55,56,57,58,59,60,61,62,63,64,49,50,51,52,53,54,55,56,57,58,59,60,61,62,63,64,49,50,51,52,53,54,55,56,57,58,59,60,61,62,63,64,49,50,51,52,53,54,55,56,57,58,59,60,61,62,63,64,49,50,51,52,53,54,55,56,57,58,59,60,61,62,63,64,49,50,51,52,53,54,55,56,57,58,59,60,61,62,63,64,65,66,67,68,69,70,71,72,73,74,75,76,77,78,79,80,65,66,67,68,69,70,71,72,73,74,75,76,77,78,79,80,65,66,67,68,69,70,71,72,73,74,75,76,77,78,79,80,65,66,67,68,69,70,71,72,73,74,75,76,77,78,79,80,65,66,67,68,69,70,71,72,73,74,75,76,77,78,79,80,65,66,67,68,69,70,71,72,73,74,75,76,77,78,79,80,65,66,67,68,69,70,71,72,73,74,75,76,77,78,79,80,65,66,67,68,69,70,71,72,73,74,75,76,77,78,79,80,65,66,67,68,69,70,71,72,73,74,75,76,77,78,79,80,65,66,67,68,69,70,71,72,73,74,75,76,77,78,79,80,65,66,67,68,69,70,71,72,73,74,75,76,77,78,79,80,65,66,67,68,69,70,71,72,73,74,75,76,77,78,79,80,65,66,67,68,69,70,71,72,73,74,75,76,77,78,79,80,65,66,67,68,69,70,71,72,73,74,75,76,77,78,79,80,65,66,67,68,69,70,71,72,73,74,75,76,77,78,79,80,65,66,67,68,69,70,71,72,73,74,75,76,77,78,79,80,81,82,83,84,85,86,87,88,89,90,91,92,93,94,95,96,81,82,83,84,85,86,87,88,89,90,91,92,93,94,95,96,81,82,83,84,85,86,87,88,89,90,91,92,93,94,95,96,81,82,83,84,85,86,87,88,89,90,91,92,93,94,95,96,81,82,83,84,85,86,87,88,89,90,91,92,93,94,95,96,81,82,83,84,85,86,87,88,89,90,91,92,93,94,95,96,81,82,83,84,85,86,87,88,89,90,91,92,93,94,95,96,81,82,83,84,85,86,87,88,89,90,91,92,93,94,95,96,81,82,83,84,85,86,87,88,89,90,91,92,93,94,95,96,81,82,83,84,85,86,87,88,89,90,91,92,93,94,95,96,81,82,83,84,85,86,87,88,89,90,91,92,93,94,95,96,81,82,83,84,85,86,87,88,89,90,91,92,93,94,95,96,81,82,83,84,85,86,87,88,89,90,91,92,93,94,95,96,81,82,83,84,85,86,87,88,89,90,91,92,93,94,95,96,81,82,83,84,85,86,87,88,89,90,91,92,93,94,95,96,81,82,83,84,85,86,87,88,89,90,91,92,93,94,95,96,97,98,99,100,101,102,103,104,105,106,107,108,109,110,111,112,97,98,99,100,101,102,103,104,105,106,107,108,109,110,111,112,97,98,99,100,101,102,103,104,105,106,107,108,109,110,111,112,97,98,99,100,101,102,103,104,105,106,107,108,109,110,111,112,97,98,99,100,101,102,103,104,105,106,107,108,109,110,111,112,97,98,99,100,101,102,103,104,105,106,107,108,109,110,111,112,97,98,99,100,101,102,103,104,105,106,107,108,109,110,111,112,97,98,99,100,101,102,103,104,105,106,107,108,109,110,111,112,97,98,99,100,101,102,103,104,105,106,107,108,109,110,111,112,97,98,99,100,101,102,103,104,105,106,107,108,109,110,111,112,97,98,99,100,101,102,103,104,105,106,107,108,109,110,111,112,97,98,99,100,101,102,103,104,105,106,107,108,109,110,111,112,97,98,99,100,101,102,103,104,105,106,107,108,109,110,111,112,97,98,99,100,101,102,103,104,105,106,107,108,109,110,111,112,97,98,99,100,101,102,103,104,105,106,107,108,109,110,111,112,97,98,99,100,101,102,103,104,105,106,107,108,109,110,111,112,113,114,115,116,117,118,119,120,121,122,123,124,125,126,127,128,113,114,115,116,117,118,119,120,121,122,123,124,125,126,127,128,113,114,115,116,117,118,119,120,121,122,123,124,125,126,127,128,113,114,115,116,117,118,119,120,121,122,123,124,125,126,127,128,113,114,115,116,117,118,119,120,121,122,123,124,125,126,127,128,113,114,115,116,117,118,119,120,121,122,123,124,125,126,127,128,113,114,115,116,117,118,119,120,121,122,123,124,125,126,127,128,113,114,115,116,117,118,119,120,121,122,123,124,125,126,127,128,113,114,115,116,117,118,119,120,121,122,123,124,125,126,127,128,113,114,115,116,117,118,119,120,121,122,123,124,125,126,127,128,113,114,115,116,117,118,119,120,121,122,123,124,125,126,127,128,113,114,115,116,117,118,119,120,121,122,123,124,125,126,127,128,113,114,115,116,117,118,119,120,121,122,123,124,125,126,127,128,113,114,115,116,117,118,119,120,121,122,123,124,125,126,127,128,113,114,115,116,117,118,119,120,121,122,123,124,125,126,127,128,113,114,115,116,117,118,119,120,121,122,123,124,125,126,127,128,129,130,131,132,133,134,135,136,137,138,139,140,141,142,143,144,129,130,131,132,133,134,135,136,137,138,139,140,141,142,143,144,129,130,131,132,133,134,135,136,137,138,139,140,141,142,143,144,129,130,131,132,133,134,135,136,137,138,139,140,141,142,143,144,129,130,131,132,133,134,135,136,137,138,139,140,141,142,143,144,129,130,131,132,133,134,135,136,137,138,139,140,141,142,143,144,129,130,131,132,133,134,135,136,137,138,139,140,141,142,143,144,129,130,131,132,133,134,135,136,137,138,139,140,141,142,143,144,129,130,131,132,133,134,135,136,137,138,139,140,141,142,143,144,129,130,131,132,133,134,135,136,137,138,139,140,141,142,143,144,129,130,131,132,133,134,135,136,137,138,139,140,141,142,143,144,129,130,131,132,133,134,135,136,137,138,139,140,141,142,143,144,129,130,131,132,133,134,135,136,137,138,139,140,141,142,143,144,129,130,131,132,133,134,135,136,137,138,139,140,141,142,143,144,129,130,131,132,133,134,135,136,137,138,139,140,141,142,143,144,129,130,131,132,133,134,135,136,137,138,139,140,141,142,143,144,145,146,147,148,149,150,151,152,153,154,155,156,157,158,159,160,145,146,147,148,149,150,151,152,153,154,155,156,157,158,159,160,145,146,147,148,149,150,151,152,153,154,155,156,157,158,159,160,145,146,147,148,149,150,151,152,153,154,155,156,157,158,159,160,145,146,147,148,149,150,151,152,153,154,155,156,157,158,159,160,145,146,147,148,149,150,151,152,153,154,155,156,157,158,159,160,145,146,147,148,149,150,151,152,153,154,155,156,157,158,159,160,145,146,147,148,149,150,151,152,153,154,155,156,157,158,159,160,145,146,147,148,149,150,151,152,153,154,155,156,157,158,159,160,145,146,147,148,149,150,151,152,153,154,155,156,157,158,159,160,145,146,147,148,149,150,151,152,153,154,155,156,157,158,159,160,145,146,147,148,149,150,151,152,153,154,155,156,157,158,159,160,145,146,147,148,149,150,151,152,153,154,155,156,157,158,159,160,145,146,147,148,149,150,151,152,153,154,155,156,157,158,159,160,145,146,147,148,149,150,151,152,153,154,155,156,157,158,159,160,145,146,147,148,149,150,151,152,153,154,155,156,157,158,159,160,161,162,163,164,165,166,167,168,169,170,171,172,173,174,175,176,161,162,163,164,165,166,167,168,169,170,171,172,173,174,175,176,161,162,163,164,165,166,167,168,169,170,171,172,173,174,175,176,161,162,163,164,165,166,167,168,169,170,171,172,173,174,175,176,161,162,163,164,165,166,167,168,169,170,171,172,173,174,175,176,161,162,163,164,165,166,167,168,169,170,171,172,173,174,175,176,161,162,163,164,165,166,167,168,169,170,171,172,173,174,175,176,161,162,163,164,165,166,167,168,169,170,171,172,173,174,175,176,161,162,163,164,165,166,167,168,169,170,171,172,173,174,175,176,161,162,163,164,165,166,167,168,169,170,171,172,173,174,175,176,161,162,163,164,165,166,167,168,169,170,171,172,173,174,175,176,161,162,163,164,165,166,167,168,169,170,171,172,173,174,175,176,161,162,163,164,165,166,167,168,169,170,171,172,173,174,175,176,161,162,163,164,165,166,167,168,169,170,171,172,173,174,175,176,161,162,163,164,165,166,167,168,169,170,171,172,173,174,175,176,161,162,163,164,165,166,167,168,169,170,171,172,173,174,175,176,177,178,179,180,181,182,183,184,185,186,187,188,189,190,191,192,177,178,179,180,181,182,183,184,185,186,187,188,189,190,191,192,177,178,179,180,181,182,183,184,185,186,187,188,189,190,191,192,177,178,179,180,181,182,183,184,185,186,187,188,189,190,191,192,177,178,179,180,181,182,183,184,185,186,187,188,189,190,191,192,177,178,179,180,181,182,183,184,185,186,187,188,189,190,191,192,177,178,179,180,181,182,183,184,185,186,187,188,189,190,191,192,177,178,179,180,181,182,183,184,185,186,187,188,189,190,191,192,177,178,179,180,181,182,183,184,185,186,187,188,189,190,191,192,177,178,179,180,181,182,183,184,185,186,187,188,189,190,191,192,177,178,179,180,181,182,183,184,185,186,187,188,189,190,191,192,177,178,179,180,181,182,183,184,185,186,187,188,189,190,191,192,177,178,179,180,181,182,183,184,185,186,187,188,189,190,191,192,177,178,179,180,181,182,183,184,185,186,187,188,189,190,191,192,177,178,179,180,181,182,183,184,185,186,187,188,189,190,191,192,177,178,179,180,181,182,183,184,185,186,187,188,189,190,191,192,193,194,195,196,197,198,199,200,201,202,203,204,205,206,207,208,193,194,195,196,197,198,199,200,201,202,203,204,205,206,207,208,193,194,195,196,197,198,199,200,201,202,203,204,205,206,207,208,193,194,195,196,197,198,199,200,201,202,203,204,205,206,207,208,193,194,195,196,197,198,199,200,201,202,203,204,205,206,207,208,193,194,195,196,197,198,199,200,201,202,203,204,205,206,207,208,193,194,195,196,197,198,199,200,201,202,203,204,205,206,207,208,193,194,195,196,197,198,199,200,201,202,203,204,205,206,207,208,193,194,195,196,197,198,199,200,201,202,203,204,205,206,207,208,193,194,195,196,197,198,199,200,201,202,203,204,205,206,207,208,193,194,195,196,197,198,199,200,201,202,203,204,205,206,207,208,193,194,195,196,197,198,199,200,201,202,203,204,205,206,207,208,193,194,195,196,197,198,199,200,201,202,203,204,205,206,207,208,193,194,195,196,197,198,199,200,201,202,203,204,205,206,207,208,193,194,195,196,197,198,199,200,201,202,203,204,205,206,207,208,193,194,195,196,197,198,199,200,201,202,203,204,205,206,207,208,209,210,211,212,213,214,215,216,217,218,219,220,221,222,223,224,209,210,211,212,213,214,215,216,217,218,219,220,221,222,223,224,209,210,211,212,213,214,215,216,217,218,219,220,221,222,223,224,209,210,211,212,213,214,215,216,217,218,219,220,221,222,223,224,209,210,211,212,213,214,215,216,217,218,219,220,221,222,223,224,209,210,211,212,213,214,215,216,217,218,219,220,221,222,223,224,209,210,211,212,213,214,215,216,217,218,219,220,221,222,223,224,209,210,211,212,213,214,215,216,217,218,219,220,221,222,223,224,209,210,211,212,213,214,215,216,217,218,219,220,221,222,223,224,209,210,211,212,213,214,215,216,217,218,219,220,221,222,223,224,209,210,211,212,213,214,215,216,217,218,219,220,221,222,223,224,209,210,211,212,213,214,215,216,217,218,219,220,221,222,223,224,209,210,211,212,213,214,215,216,217,218,219,220,221,222,223,224,209,210,211,212,213,214,215,216,217,218,219,220,221,222,223,224,209,210,211,212,213,214,215,216,217,218,219,220,221,222,223,224,209,210,211,212,213,214,215,216,217,218,219,220,221,222,223,224,225,226,227,228,229,230,231,232,233,234,235,236,237,238,239,240,225,226,227,228,229,230,231,232,233,234,235,236,237,238,239,240,225,226,227,228,229,230,231,232,233,234,235,236,237,238,239,240,225,226,227,228,229,230,231,232,233,234,235,236,237,238,239,240,225,226,227,228,229,230,231,232,233,234,235,236,237,238,239,240,225,226,227,228,229,230,231,232,233,234,235,236,237,238,239,240,225,226,227,228,229,230,231,232,233,234,235,236,237,238,239,240,225,226,227,228,229,230,231,232,233,234,235,236,237,238,239,240,225,226,227,228,229,230,231,232,233,234,235,236,237,238,239,240,225,226,227,228,229,230,231,232,233,234,235,236,237,238,239,240,225,226,227,228,229,230,231,232,233,234,235,236,237,238,239,240,225,226,227,228,229,230,231,232,233,234,235,236,237,238,239,240,225,226,227,228,229,230,231,232,233,234,235,236,237,238,239,240,225,226,227,228,229,230,231,232,233,234,235,236,237,238,239,240,225,226,227,228,229,230,231,232,233,234,235,236,237,238,239,240,225,226,227,228,229,230,231,232,233,234,235,236,237,238,239,240,241,242,243,244,245,246,247,248,249,250,251,252,253,254,255,256,241,242,243,244,245,246,247,248,249,250,251,252,253,254,255,256,241,242,243,244,245,246,247,248,249,250,251,252,253,254,255,256,241,242,243,244,245,246,247,248,249,250,251,252,253,254,255,256,241,242,243,244,245,246,247,248,249,250,251,252,253,254,255,256,241,242,243,244,245,246,247,248,249,250,251,252,253,254,255,256,241,242,243,244,245,246,247,248,249,250,251,252,253,254,255,256,241,242,243,244,245,246,247,248,249,250,251,252,253,254,255,256,241,242,243,244,245,246,247,248,249,250,251,252,253,254,255,256,241,242,243,244,245,246,247,248,249,250,251,252,253,254,255,256,241,242,243,244,245,246,247,248,249,250,251,252,253,254,255,256,241,242,243,244,245,246,247,248,249,250,251,252,253,254,255,256,241,242,243,244,245,246,247,248,249,250,251,252,253,254,255,256,241,242,243,244,245,246,247,248,249,250,251,252,253,254,255,256,241,242,243,244,245,246,247,248,249,250,251,252,253,254,255,256,241,242,243,244,245,246,247,248,249,250,251,252,253,254,255,256,1,2,3,4,5,6,7,8,9,10,11,12,13,14,15,16,1,2,3,4,5,6,7,8,9,10,11,12,13,14,15,16,1,2,3,4,5,6,7,8,9,10,11,12,13,14,15,16,1,2,3,4,5,6,7,8,9,10,11,12,13,14,15,16,1,2,3,4,5,6,7,8,9,10,11,12,13,14,15,16,1,2,3,4,5,6,7,8,9,10,11,12,13,14,15,16,1,2,3,4,5,6,7,8,9,10,11,12,13,14,15,16,1,2,3,4,5,6,7,8,9,10,11,12,13,14,15,16,1,2,3,4,5,6,7,8,9,10,11,12,13,14,15,16,1,2,3,4,5,6,7,8,9,10,11,12,13,14,15,16,1,2,3,4,5,6,7,8,9,10,11,12,13,14,15,16,1,2,3,4,5,6,7,8,9,10,11,12,13,14,15,16,1,2,3,4,5,6,7,8,9,10,11,12,13,14,15,16,1,2,3,4,5,6,7,8,9,10,11,12,13,14,15,16,1,2,3,4,5,6,7,8,9,10,11,12,13,14,15,16,1,2,3,4,5,6,7,8,9,10,11,12,13,14,15,16,17,18,19,20,21,22,23,24,25,26,27,28,29,30,31,32,17,18,19,20,21,22,23,24,25,26,27,28,29,30,31,32,17,18,19,20,21,22,23,24,25,26,27,28,29,30,31,32,17,18,19,20,21,22,23,24,25,26,27,28,29,30,31,32,17,18,19,20,21,22,23,24,25,26,27,28,29,30,31,32,17,18,19,20,21,22,23,24,25,26,27,28,29,30,31,32,17,18,19,20,21,22,23,24,25,26,27,28,29,30,31,32,17,18,19,20,21,22,23,24,25,26,27,28,29,30,31,32,17,18,19,20,21,22,23,24,25,26,27,28,29,30,31,32,17,18,19,20,21,22,23,24,25,26,27,28,29,30,31,32,17,18,19,20,21,22,23,24,25,26,27,28,29,30,31,32,17,18,19,20,21,22,23,24,25,26,27,28,29,30,31,32,17,18,19,20,21,22,23,24,25,26,27,28,29,30,31,32,17,18,19,20,21,22,23,24,25,26,27,28,29,30,31,32,17,18,19,20,21,22,23,24,25,26,27,28,29,30,31,32,17,18,19,20,21,22,23,24,25,26,27,28,29,30,31,32,33,34,35,36,37,38,39,40,41,42,43,44,45,46,47,48,33,34,35,36,37,38,39,40,41,42,43,44,45,46,47,48,33,34,35,36,37,38,39,40,41,42,43,44,45,46,47,48,33,34,35,36,37,38,39,40,41,42,43,44,45,46,47,48,33,34,35,36,37,38,39,40,41,42,43,44,45,46,47,48,33,34,35,36,37,38,39,40,41,42,43,44,45,46,47,48,33,34,35,36,37,38,39,40,41,42,43,44,45,46,47,48,33,34,35,36,37,38,39,40,41,42,43,44,45,46,47,48,33,34,35,36,37,38,39,40,41,42,43,44,45,46,47,48,33,34,35,36,37,38,39,40,41,42,43,44,45,46,47,48,33,34,35,36,37,38,39,40,41,42,43,44,45,46,47,48,33,34,35,36,37,38,39,40,41,42,43,44,45,46,47,48,33,34,35,36,37,38,39,40,41,42,43,44,45,46,47,48,33,34,35,36,37,38,39,40,41,42,43,44,45,46,47,48,33,34,35,36,37,38,39,40,41,42,43,44,45,46,47,48,33,34,35,36,37,38,39,40,41,42,43,44,45,46,47,48,49,50,51,52,53,54,55,56,57,58,59,60,61,62,63,64,49,50,51,52,53,54,55,56,57,58,59,60,61,62,63,64,49,50,51,52,53,54,55,56,57,58,59,60,61,62,63,64,49,50,51,52,53,54,55,56,57,58,59,60,61,62,63,64,49,50,51,52,53,54,55,56,57,58,59,60,61,62,63,64,49,50,51,52,53,54,55,56,57,58,59,60,61,62,63,64,49,50,51,52,53,54,55,56,57,58,59,60,61,62,63,64,49,50,51,52,53,54,55,56,57,58,59,60,61,62,63,64,49,50,51,52,53,54,55,56,57,58,59,60,61,62,63,64,49,50,51,52,53,54,55,56,57,58,59,60,61,62,63,64,49,50,51,52,53,54,55,56,57,58,59,60,61,62,63,64,49,50,51,52,53,54,55,56,57,58,59,60,61,62,63,64,49,50,51,52,53,54,55,56,57,58,59,60,61,62,63,64,49,50,51,52,53,54,55,56,57,58,59,60,61,62,63,64,49,50,51,52,53,54,55,56,57,58,59,60,61,62,63,64,49,50,51,52,53,54,55,56,57,58,59,60,61,62,63,64,65,66,67,68,69,70,71,72,73,74,75,76,77,78,79,80,65,66,67,68,69,70,71,72,73,74,75,76,77,78,79,80,65,66,67,68,69,70,71,72,73,74,75,76,77,78,79,80,65,66,67,68,69,70,71,72,73,74,75,76,77,78,79,80,65,66,67,68,69,70,71,72,73,74,75,76,77,78,79,80,65,66,67,68,69,70,71,72,73,74,75,76,77,78,79,80,65,66,67,68,69,70,71,72,73,74,75,76,77,78,79,80,65,66,67,68,69,70,71,72,73,74,75,76,77,78,79,80,65,66,67,68,69,70,71,72,73,74,75,76,77,78,79,80,65,66,67,68,69,70,71,72,73,74,75,76,77,78,79,80,65,66,67,68,69,70,71,72,73,74,75,76,77,78,79,80,65,66,67,68,69,70,71,72,73,74,75,76,77,78,79,80,65,66,67,68,69,70,71,72,73,74,75,76,77,78,79,80,65,66,67,68,69,70,71,72,73,74,75,76,77,78,79,80,65,66,67,68,69,70,71,72,73,74,75,76,77,78,79,80,65,66,67,68,69,70,71,72,73,74,75,76,77,78,79,80,81,82,83,84,85,86,87,88,89,90,91,92,93,94,95,96,81,82,83,84,85,86,87,88,89,90,91,92,93,94,95,96,81,82,83,84,85,86,87,88,89,90,91,92,93,94,95,96,81,82,83,84,85,86,87,88,89,90,91,92,93,94,95,96,81,82,83,84,85,86,87,88,89,90,91,92,93,94,95,96,81,82,83,84,85,86,87,88,89,90,91,92,93,94,95,96,81,82,83,84,85,86,87,88,89,90,91,92,93,94,95,96,81,82,83,84,85,86,87,88,89,90,91,92,93,94,95,96,81,82,83,84,85,86,87,88,89,90,91,92,93,94,95,96,81,82,83,84,85,86,87,88,89,90,91,92,93,94,95,96,81,82,83,84,85,86,87,88,89,90,91,92,93,94,95,96,81,82,83,84,85,86,87,88,89,90,91,92,93,94,95,96,81,82,83,84,85,86,87,88,89,90,91,92,93,94,95,96,81,82,83,84,85,86,87,88,89,90,91,92,93,94,95,96,81,82,83,84,85,86,87,88,89,90,91,92,93,94,95,96,81,82,83,84,85,86,87,88,89,90,91,92,93,94,95,96,97,98,99,100,101,102,103,104,105,106,107,108,109,110,111,112,97,98,99,100,101,102,103,104,105,106,107,108,109,110,111,112,97,98,99,100,101,102,103,104,105,106,107,108,109,110,111,112,97,98,99,100,101,102,103,104,105,106,107,108,109,110,111,112,97,98,99,100,101,102,103,104,105,106,107,108,109,110,111,112,97,98,99,100,101,102,103,104,105,106,107,108,109,110,111,112,97,98,99,100,101,102,103,104,105,106,107,108,109,110,111,112,97,98,99,100,101,102,103,104,105,106,107,108,109,110,111,112,97,98,99,100,101,102,103,104,105,106,107,108,109,110,111,112,97,98,99,100,101,102,103,104,105,106,107,108,109,110,111,112,97,98,99,100,101,102,103,104,105,106,107,108,109,110,111,112,97,98,99,100,101,102,103,104,105,106,107,108,109,110,111,112,97,98,99,100,101,102,103,104,105,106,107,108,109,110,111,112,97,98,99,100,101,102,103,104,105,106,107,108,109,110,111,112,97,98,99,100,101,102,103,104,105,106,107,108,109,110,111,112,97,98,99,100,101,102,103,104,105,106,107,108,109,110,111,112,113,114,115,116,117,118,119,120,121,122,123,124,125,126,127,128,113,114,115,116,117,118,119,120,121,122,123,124,125,126,127,128,113,114,115,116,117,118,119,120,121,122,123,124,125,126,127,128,113,114,115,116,117,118,119,120,121,122,123,124,125,126,127,128,113,114,115,116,117,118,119,120,121,122,123,124,125,126,127,128,113,114,115,116,117,118,119,120,121,122,123,124,125,126,127,128,113,114,115,116,117,118,119,120,121,122,123,124,125,126,127,128,113,114,115,116,117,118,119,120,121,122,123,124,125,126,127,128,113,114,115,116,117,118,119,120,121,122,123,124,125,126,127,128,113,114,115,116,117,118,119,120,121,122,123,124,125,126,127,128,113,114,115,116,117,118,119,120,121,122,123,124,125,126,127,128,113,114,115,116,117,118,119,120,121,122,123,124,125,126,127,128,113,114,115,116,117,118,119,120,121,122,123,124,125,126,127,128,113,114,115,116,117,118,119,120,121,122,123,124,125,126,127,128,113,114,115,116,117,118,119,120,121,122,123,124,125,126,127,128,113,114,115,116,117,118,119,120,121,122,123,124,125,126,127,128,129,130,131,132,133,134,135,136,137,138,139,140,141,142,143,144,129,130,131,132,133,134,135,136,137,138,139,140,141,142,143,144,129,130,131,132,133,134,135,136,137,138,139,140,141,142,143,144,129,130,131,132,133,134,135,136,137,138,139,140,141,142,143,144,129,130,131,132,133,134,135,136,137,138,139,140,141,142,143,144,129,130,131,132,133,134,135,136,137,138,139,140,141,142,143,144,129,130,131,132,133,134,135,136,137,138,139,140,141,142,143,144,129,130,131,132,133,134,135,136,137,138,139,140,141,142,143,144,129,130,131,132,133,134,135,136,137,138,139,140,141,142,143,144,129,130,131,132,133,134,135,136,137,138,139,140,141,142,143,144,129,130,131,132,133,134,135,136,137,138,139,140,141,142,143,144,129,130,131,132,133,134,135,136,137,138,139,140,141,142,143,144,129,130,131,132,133,134,135,136,137,138,139,140,141,142,143,144,129,130,131,132,133,134,135,136,137,138,139,140,141,142,143,144,129,130,131,132,133,134,135,136,137,138,139,140,141,142,143,144,129,130,131,132,133,134,135,136,137,138,139,140,141,142,143,144,145,146,147,148,149,150,151,152,153,154,155,156,157,158,159,160,145,146,147,148,149,150,151,152,153,154,155,156,157,158,159,160,145,146,147,148,149,150,151,152,153,154,155,156,157,158,159,160,145,146,147,148,149,150,151,152,153,154,155,156,157,158,159,160,145,146,147,148,149,150,151,152,153,154,155,156,157,158,159,160,145,146,147,148,149,150,151,152,153,154,155,156,157,158,159,160,145,146,147,148,149,150,151,152,153,154,155,156,157,158,159,160,145,146,147,148,149,150,151,152,153,154,155,156,157,158,159,160,145,146,147,148,149,150,151,152,153,154,155,156,157,158,159,160,145,146,147,148,149,150,151,152,153,154,155,156,157,158,159,160,145,146,147,148,149,150,151,152,153,154,155,156,157,158,159,160,145,146,147,148,149,150,151,152,153,154,155,156,157,158,159,160,145,146,147,148,149,150,151,152,153,154,155,156,157,158,159,160,145,146,147,148,149,150,151,152,153,154,155,156,157,158,159,160,145,146,147,148,149,150,151,152,153,154,155,156,157,158,159,160,145,146,147,148,149,150,151,152,153,154,155,156,157,158,159,160,161,162,163,164,165,166,167,168,169,170,171,172,173,174,175,176,161,162,163,164,165,166,167,168,169,170,171,172,173,174,175,176,161,162,163,164,165,166,167,168,169,170,171,172,173,174,175,176,161,162,163,164,165,166,167,168,169,170,171,172,173,174,175,176,161,162,163,164,165,166,167,168,169,170,171,172,173,174,175,176,161,162,163,164,165,166,167,168,169,170,171,172,173,174,175,176,161,162,163,164,165,166,167,168,169,170,171,172,173,174,175,176,161,162,163,164,165,166,167,168,169,170,171,172,173,174,175,176,161,162,163,164,165,166,167,168,169,170,171,172,173,174,175,176,161,162,163,164,165,166,167,168,169,170,171,172,173,174,175,176,161,162,163,164,165,166,167,168,169,170,171,172,173,174,175,176,161,162,163,164,165,166,167,168,169,170,171,172,173,174,175,176,161,162,163,164,165,166,167,168,169,170,171,172,173,174,175,176,161,162,163,164,165,166,167,168,169,170,171,172,173,174,175,176,161,162,163,164,165,166,167,168,169,170,171,172,173,174,175,176,161,162,163,164,165,166,167,168,169,170,171,172,173,174,175,176,177,178,179,180,181,182,183,184,185,186,187,188,189,190,191,192,177,178,179,180,181,182,183,184,185,186,187,188,189,190,191,192,177,178,179,180,181,182,183,184,185,186,187,188,189,190,191,192,177,178,179,180,181,182,183,184,185,186,187,188,189,190,191,192,177,178,179,180,181,182,183,184,185,186,187,188,189,190,191,192,177,178,179,180,181,182,183,184,185,186,187,188,189,190,191,192,177,178,179,180,181,182,183,184,185,186,187,188,189,190,191,192,177,178,179,180,181,182,183,184,185,186,187,188,189,190,191,192,177,178,179,180,181,182,183,184,185,186,187,188,189,190,191,192,177,178,179,180,181,182,183,184,185,186,187,188,189,190,191,192,177,178,179,180,181,182,183,184,185,186,187,188,189,190,191,192,177,178,179,180,181,182,183,184,185,186,187,188,189,190,191,192,177,178,179,180,181,182,183,184,185,186,187,188,189,190,191,192,177,178,179,180,181,182,183,184,185,186,187,188,189,190,191,192,177,178,179,180,181,182,183,184,185,186,187,188,189,190,191,192,177,178,179,180,181,182,183,184,185,186,187,188,189,190,191,192,193,194,195,196,197,198,199,200,201,202,203,204,205,206,207,208,193,194,195,196,197,198,199,200,201,202,203,204,205,206,207,208,193,194,195,196,197,198,199,200,201,202,203,204,205,206,207,208,193,194,195,196,197,198,199,200,201,202,203,204,205,206,207,208,193,194,195,196,197,198,199,200,201,202,203,204,205,206,207,208,193,194,195,196,197,198,199,200,201,202,203,204,205,206,207,208,193,194,195,196,197,198,199,200,201,202,203,204,205,206,207,208,193,194,195,196,197,198,199,200,201,202,203,204,205,206,207,208,193,194,195,196,197,198,199,200,201,202,203,204,205,206,207,208,193,194,195,196,197,198,199,200,201,202,203,204,205,206,207,208,193,194,195,196,197,198,199,200,201,202,203,204,205,206,207,208,193,194,195,196,197,198,199,200,201,202,203,204,205,206,207,208,193,194,195,196,197,198,199,200,201,202,203,204,205,206,207,208,193,194,195,196,197,198,199,200,201,202,203,204,205,206,207,208,193,194,195,196,197,198,199,200,201,202,203,204,205,206,207,208,193,194,195,196,197,198,199,200,201,202,203,204,205,206,207,208,209,210,211,212,213,214,215,216,217,218,219,220,221,222,223,224,209,210,211,212,213,214,215,216,217,218,219,220,221,222,223,224,209,210,211,212,213,214,215,216,217,218,219,220,221,222,223,224,209,210,211,212,213,214,215,216,217,218,219,220,221,222,223,224,209,210,211,212,213,214,215,216,217,218,219,220,221,222,223,224,209,210,211,212,213,214,215,216,217,218,219,220,221,222,223,224,209,210,211,212,213,214,215,216,217,218,219,220,221,222,223,224,209,210,211,212,213,214,215,216,217,218,219,220,221,222,223,224,209,210,211,212,213,214,215,216,217,218,219,220,221,222,223,224,209,210,211,212,213,214,215,216,217,218,219,220,221,222,223,224,209,210,211,212,213,214,215,216,217,218,219,220,221,222,223,224,209,210,211,212,213,214,215,216,217,218,219,220,221,222,223,224,209,210,211,212,213,214,215,216,217,218,219,220,221,222,223,224,209,210,211,212,213,214,215,216,217,218,219,220,221,222,223,224,209,210,211,212,213,214,215,216,217,218,219,220,221,222,223,224,209,210,211,212,213,214,215,216,217,218,219,220,221,222,223,224,225,226,227,228,229,230,231,232,233,234,235,236,237,238,239,240,225,226,227,228,229,230,231,232,233,234,235,236,237,238,239,240,225,226,227,228,229,230,231,232,233,234,235,236,237,238,239,240,225,226,227,228,229,230,231,232,233,234,235,236,237,238,239,240,225,226,227,228,229,230,231,232,233,234,235,236,237,238,239,240,225,226,227,228,229,230,231,232,233,234,235,236,237,238,239,240,225,226,227,228,229,230,231,232,233,234,235,236,237,238,239,240,225,226,227,228,229,230,231,232,233,234,235,236,237,238,239,240,225,226,227,228,229,230,231,232,233,234,235,236,237,238,239,240,225,226,227,228,229,230,231,232,233,234,235,236,237,238,239,240,225,226,227,228,229,230,231,232,233,234,235,236,237,238,239,240,225,226,227,228,229,230,231,232,233,234,235,236,237,238,239,240,225,226,227,228,229,230,231,232,233,234,235,236,237,238,239,240,225,226,227,228,229,230,231,232,233,234,235,236,237,238,239,240,225,226,227,228,229,230,231,232,233,234,235,236,237,238,239,240,225,226,227,228,229,230,231,232,233,234,235,236,237,238,239,240,241,242,243,244,245,246,247,248,249,250,251,252,253,254,255,256,241,242,243,244,245,246,247,248,249,250,251,252,253,254,255,256,241,242,243,244,245,246,247,248,249,250,251,252,253,254,255,256,241,242,243,244,245,246,247,248,249,250,251,252,253,254,255,256,241,242,243,244,245,246,247,248,249,250,251,252,253,254,255,256,241,242,243,244,245,246,247,248,249,250,251,252,253,254,255,256,241,242,243,244,245,246,247,248,249,250,251,252,253,254,255,256,241,242,243,244,245,246,247,248,249,250,251,252,253,254,255,256,241,242,243,244,245,246,247,248,249,250,251,252,253,254,255,256,241,242,243,244,245,246,247,248,249,250,251,252,253,254,255,256,241,242,243,244,245,246,247,248,249,250,251,252,253,254,255,256,241,242,243,244,245,246,247,248,249,250,251,252,253,254,255,256,241,242,243,244,245,246,247,248,249,250,251,252,253,254,255,256,241,242,243,244,245,246,247,248,249,250,251,252,253,254,255,256,241,242,243,244,245,246,247,248,249,250,251,252,253,254,255,256,241,242,243,244,245,246,247,248,249,250,251,252,253,254,255,256,1,2,3,4,5,6,7,8,9,10,11,12,13,14,15,16,1,2,3,4,5,6,7,8,9,10,11,12,13,14,15,16,1,2,3,4,5,6,7,8,9,10,11,12,13,14,15,16,1,2,3,4,5,6,7,8,9,10,11,12,13,14,15,16,1,2,3,4,5,6,7,8,9,10,11,12,13,14,15,16,1,2,3,4,5,6,7,8,9,10,11,12,13,14,15,16,1,2,3,4,5,6,7,8,9,10,11,12,13,14,15,16,1,2,3,4,5,6,7,8,9,10,11,12,13,14,15,16,1,2,3,4,5,6,7,8,9,10,11,12,13,14,15,16,1,2,3,4,5,6,7,8,9,10,11,12,13,14,15,16,1,2,3,4,5,6,7,8,9,10,11,12,13,14,15,16,1,2,3,4,5,6,7,8,9,10,11,12,13,14,15,16,1,2,3,4,5,6,7,8,9,10,11,12,13,14,15,16,1,2,3,4,5,6,7,8,9,10,11,12,13,14,15,16,1,2,3,4,5,6,7,8,9,10,11,12,13,14,15,16,1,2,3,4,5,6,7,8,9,10,11,12,13,14,15,16,17,18,19,20,21,22,23,24,25,26,27,28,29,30,31,32,17,18,19,20,21,22,23,24,25,26,27,28,29,30,31,32,17,18,19,20,21,22,23,24,25,26,27,28,29,30,31,32,17,18,19,20,21,22,23,24,25,26,27,28,29,30,31,32,17,18,19,20,21,22,23,24,25,26,27,28,29,30,31,32,17,18,19,20,21,22,23,24,25,26,27,28,29,30,31,32,17,18,19,20,21,22,23,24,25,26,27,28,29,30,31,32,17,18,19,20,21,22,23,24,25,26,27,28,29,30,31,32,17,18,19,20,21,22,23,24,25,26,27,28,29,30,31,32,17,18,19,20,21,22,23,24,25,26,27,28,29,30,31,32,17,18,19,20,21,22,23,24,25,26,27,28,29,30,31,32,17,18,19,20,21,22,23,24,25,26,27,28,29,30,31,32,17,18,19,20,21,22,23,24,25,26,27,28,29,30,31,32,17,18,19,20,21,22,23,24,25,26,27,28,29,30,31,32,17,18,19,20,21,22,23,24,25,26,27,28,29,30,31,32,17,18,19,20,21,22,23,24,25,26,27,28,29,30,31,32,33,34,35,36,37,38,39,40,41,42,43,44,45,46,47,48,33,34,35,36,37,38,39,40,41,42,43,44,45,46,47,48,33,34,35,36,37,38,39,40,41,42,43,44,45,46,47,48,33,34,35,36,37,38,39,40,41,42,43,44,45,46,47,48,33,34,35,36,37,38,39,40,41,42,43,44,45,46,47,48,33,34,35,36,37,38,39,40,41,42,43,44,45,46,47,48,33,34,35,36,37,38,39,40,41,42,43,44,45,46,47,48,33,34,35,36,37,38,39,40,41,42,43,44,45,46,47,48,33,34,35,36,37,38,39,40,41,42,43,44,45,46,47,48,33,34,35,36,37,38,39,40,41,42,43,44,45,46,47,48,33,34,35,36,37,38,39,40,41,42,43,44,45,46,47,48,33,34,35,36,37,38,39,40,41,42,43,44,45,46,47,48,33,34,35,36,37,38,39,40,41,42,43,44,45,46,47,48,33,34,35,36,37,38,39,40,41,42,43,44,45,46,47,48,33,34,35,36,37,38,39,40,41,42,43,44,45,46,47,48,33,34,35,36,37,38,39,40,41,42,43,44,45,46,47,48,49,50,51,52,53,54,55,56,57,58,59,60,61,62,63,64,49,50,51,52,53,54,55,56,57,58,59,60,61,62,63,64,49,50,51,52,53,54,55,56,57,58,59,60,61,62,63,64,49,50,51,52,53,54,55,56,57,58,59,60,61,62,63,64,49,50,51,52,53,54,55,56,57,58,59,60,61,62,63,64,49,50,51,52,53,54,55,56,57,58,59,60,61,62,63,64,49,50,51,52,53,54,55,56,57,58,59,60,61,62,63,64,49,50,51,52,53,54,55,56,57,58,59,60,61,62,63,64,49,50,51,52,53,54,55,56,57,58,59,60,61,62,63,64,49,50,51,52,53,54,55,56,57,58,59,60,61,62,63,64,49,50,51,52,53,54,55,56,57,58,59,60,61,62,63,64,49,50,51,52,53,54,55,56,57,58,59,60,61,62,63,64,49,50,51,52,53,54,55,56,57,58,59,60,61,62,63,64,49,50,51,52,53,54,55,56,57,58,59,60,61,62,63,64,49,50,51,52,53,54,55,56,57,58,59,60,61,62,63,64,49,50,51,52,53,54,55,56,57,58,59,60,61,62,63,64,65,66,67,68,69,70,71,72,73,74,75,76,77,78,79,80,65,66,67,68,69,70,71,72,73,74,75,76,77,78,79,80,65,66,67,68,69,70,71,72,73,74,75,76,77,78,79,80,65,66,67,68,69,70,71,72,73,74,75,76,77,78,79,80,65,66,67,68,69,70,71,72,73,74,75,76,77,78,79,80,65,66,67,68,69,70,71,72,73,74,75,76,77,78,79,80,65,66,67,68,69,70,71,72,73,74,75,76,77,78,79,80,65,66,67,68,69,70,71,72,73,74,75,76,77,78,79,80,65,66,67,68,69,70,71,72,73,74,75,76,77,78,79,80,65,66,67,68,69,70,71,72,73,74,75,76,77,78,79,80,65,66,67,68,69,70,71,72,73,74,75,76,77,78,79,80,65,66,67,68,69,70,71,72,73,74,75,76,77,78,79,80,65,66,67,68,69,70,71,72,73,74,75,76,77,78,79,80,65,66,67,68,69,70,71,72,73,74,75,76,77,78,79,80,65,66,67,68,69,70,71,72,73,74,75,76,77,78,79,80,65,66,67,68,69,70,71,72,73,74,75,76,77,78,79,80,81,82,83,84,85,86,87,88,89,90,91,92,93,94,95,96,81,82,83,84,85,86,87,88,89,90,91,92,93,94,95,96,81,82,83,84,85,86,87,88,89,90,91,92,93,94,95,96,81,82,83,84,85,86,87,88,89,90,91,92,93,94,95,96,81,82,83,84,85,86,87,88,89,90,91,92,93,94,95,96,81,82,83,84,85,86,87,88,89,90,91,92,93,94,95,96,81,82,83,84,85,86,87,88,89,90,91,92,93,94,95,96,81,82,83,84,85,86,87,88,89,90,91,92,93,94,95,96,81,82,83,84,85,86,87,88,89,90,91,92,93,94,95,96,81,82,83,84,85,86,87,88,89,90,91,92,93,94,95,96,81,82,83,84,85,86,87,88,89,90,91,92,93,94,95,96,81,82,83,84,85,86,87,88,89,90,91,92,93,94,95,96,81,82,83,84,85,86,87,88,89,90,91,92,93,94,95,96,81,82,83,84,85,86,87,88,89,90,91,92,93,94,95,96,81,82,83,84,85,86,87,88,89,90,91,92,93,94,95,96,81,82,83,84,85,86,87,88,89,90,91,92,93,94,95,96,97,98,99,100,101,102,103,104,105,106,107,108,109,110,111,112,97,98,99,100,101,102,103,104,105,106,107,108,109,110,111,112,97,98,99,100,101,102,103,104,105,106,107,108,109,110,111,112,97,98,99,100,101,102,103,104,105,106,107,108,109,110,111,112,97,98,99,100,101,102,103,104,105,106,107,108,109,110,111,112,97,98,99,100,101,102,103,104,105,106,107,108,109,110,111,112,97,98,99,100,101,102,103,104,105,106,107,108,109,110,111,112,97,98,99,100,101,102,103,104,105,106,107,108,109,110,111,112,97,98,99,100,101,102,103,104,105,106,107,108,109,110,111,112,97,98,99,100,101,102,103,104,105,106,107,108,109,110,111,112,97,98,99,100,101,102,103,104,105,106,107,108,109,110,111,112,97,98,99,100,101,102,103,104,105,106,107,108,109,110,111,112,97,98,99,100,101,102,103,104,105,106,107,108,109,110,111,112,97,98,99,100,101,102,103,104,105,106,107,108,109,110,111,112,97,98,99,100,101,102,103,104,105,106,107,108,109,110,111,112,97,98,99,100,101,102,103,104,105,106,107,108,109,110,111,112,113,114,115,116,117,118,119,120,121,122,123,124,125,126,127,128,113,114,115,116,117,118,119,120,121,122,123,124,125,126,127,128,113,114,115,116,117,118,119,120,121,122,123,124,125,126,127,128,113,114,115,116,117,118,119,120,121,122,123,124,125,126,127,128,113,114,115,116,117,118,119,120,121,122,123,124,125,126,127,128,113,114,115,116,117,118,119,120,121,122,123,124,125,126,127,128,113,114,115,116,117,118,119,120,121,122,123,124,125,126,127,128,113,114,115,116,117,118,119,120,121,122,123,124,125,126,127,128,113,114,115,116,117,118,119,120,121,122,123,124,125,126,127,128,113,114,115,116,117,118,119,120,121,122,123,124,125,126,127,128,113,114,115,116,117,118,119,120,121,122,123,124,125,126,127,128,113,114,115,116,117,118,119,120,121,122,123,124,125,126,127,128,113,114,115,116,117,118,119,120,121,122,123,124,125,126,127,128,113,114,115,116,117,118,119,120,121,122,123,124,125,126,127,128,113,114,115,116,117,118,119,120,121,122,123,124,125,126,127,128,113,114,115,116,117,118,119,120,121,122,123,124,125,126,127,128,129,130,131,132,133,134,135,136,137,138,139,140,141,142,143,144,129,130,131,132,133,134,135,136,137,138,139,140,141,142,143,144,129,130,131,132,133,134,135,136,137,138,139,140,141,142,143,144,129,130,131,132,133,134,135,136,137,138,139,140,141,142,143,144,129,130,131,132,133,134,135,136,137,138,139,140,141,142,143,144,129,130,131,132,133,134,135,136,137,138,139,140,141,142,143,144,129,130,131,132,133,134,135,136,137,138,139,140,141,142,143,144,129,130,131,132,133,134,135,136,137,138,139,140,141,142,143,144,129,130,131,132,133,134,135,136,137,138,139,140,141,142,143,144,129,130,131,132,133,134,135,136,137,138,139,140,141,142,143,144,129,130,131,132,133,134,135,136,137,138,139,140,141,142,143,144,129,130,131,132,133,134,135,136,137,138,139,140,141,142,143,144,129,130,131,132,133,134,135,136,137,138,139,140,141,142,143,144,129,130,131,132,133,134,135,136,137,138,139,140,141,142,143,144,129,130,131,132,133,134,135,136,137,138,139,140,141,142,143,144,129,130,131,132,133,134,135,136,137,138,139,140,141,142,143,144,145,146,147,148,149,150,151,152,153,154,155,156,157,158,159,160,145,146,147,148,149,150,151,152,153,154,155,156,157,158,159,160,145,146,147,148,149,150,151,152,153,154,155,156,157,158,159,160,145,146,147,148,149,150,151,152,153,154,155,156,157,158,159,160,145,146,147,148,149,150,151,152,153,154,155,156,157,158,159,160,145,146,147,148,149,150,151,152,153,154,155,156,157,158,159,160,145,146,147,148,149,150,151,152,153,154,155,156,157,158,159,160,145,146,147,148,149,150,151,152,153,154,155,156,157,158,159,160,145,146,147,148,149,150,151,152,153,154,155,156,157,158,159,160,145,146,147,148,149,150,151,152,153,154,155,156,157,158,159,160,145,146,147,148,149,150,151,152,153,154,155,156,157,158,159,160,145,146,147,148,149,150,151,152,153,154,155,156,157,158,159,160,145,146,147,148,149,150,151,152,153,154,155,156,157,158,159,160,145,146,147,148,149,150,151,152,153,154,155,156,157,158,159,160,145,146,147,148,149,150,151,152,153,154,155,156,157,158,159,160,145,146,147,148,149,150,151,152,153,154,155,156,157,158,159,160,161,162,163,164,165,166,167,168,169,170,171,172,173,174,175,176,161,162,163,164,165,166,167,168,169,170,171,172,173,174,175,176,161,162,163,164,165,166,167,168,169,170,171,172,173,174,175,176,161,162,163,164,165,166,167,168,169,170,171,172,173,174,175,176,161,162,163,164,165,166,167,168,169,170,171,172,173,174,175,176,161,162,163,164,165,166,167,168,169,170,171,172,173,174,175,176,161,162,163,164,165,166,167,168,169,170,171,172,173,174,175,176,161,162,163,164,165,166,167,168,169,170,171,172,173,174,175,176,161,162,163,164,165,166,167,168,169,170,171,172,173,174,175,176,161,162,163,164,165,166,167,168,169,170,171,172,173,174,175,176,161,162,163,164,165,166,167,168,169,170,171,172,173,174,175,176,161,162,163,164,165,166,167,168,169,170,171,172,173,174,175,176,161,162,163,164,165,166,167,168,169,170,171,172,173,174,175,176,161,162,163,164,165,166,167,168,169,170,171,172,173,174,175,176,161,162,163,164,165,166,167,168,169,170,171,172,173,174,175,176,161,162,163,164,165,166,167,168,169,170,171,172,173,174,175,176,177,178,179,180,181,182,183,184,185,186,187,188,189,190,191,192,177,178,179,180,181,182,183,184,185,186,187,188,189,190,191,192,177,178,179,180,181,182,183,184,185,186,187,188,189,190,191,192,177,178,179,180,181,182,183,184,185,186,187,188,189,190,191,192,177,178,179,180,181,182,183,184,185,186,187,188,189,190,191,192,177,178,179,180,181,182,183,184,185,186,187,188,189,190,191,192,177,178,179,180,181,182,183,184,185,186,187,188,189,190,191,192,177,178,179,180,181,182,183,184,185,186,187,188,189,190,191,192,177,178,179,180,181,182,183,184,185,186,187,188,189,190,191,192,177,178,179,180,181,182,183,184,185,186,187,188,189,190,191,192,177,178,179,180,181,182,183,184,185,186,187,188,189,190,191,192,177,178,179,180,181,182,183,184,185,186,187,188,189,190,191,192,177,178,179,180,181,182,183,184,185,186,187,188,189,190,191,192,177,178,179,180,181,182,183,184,185,186,187,188,189,190,191,192,177,178,179,180,181,182,183,184,185,186,187,188,189,190,191,192,177,178,179,180,181,182,183,184,185,186,187,188,189,190,191,192,193,194,195,196,197,198,199,200,201,202,203,204,205,206,207,208,193,194,195,196,197,198,199,200,201,202,203,204,205,206,207,208,193,194,195,196,197,198,199,200,201,202,203,204,205,206,207,208,193,194,195,196,197,198,199,200,201,202,203,204,205,206,207,208,193,194,195,196,197,198,199,200,201,202,203,204,205,206,207,208,193,194,195,196,197,198,199,200,201,202,203,204,205,206,207,208,193,194,195,196,197,198,199,200,201,202,203,204,205,206,207,208,193,194,195,196,197,198,199,200,201,202,203,204,205,206,207,208,193,194,195,196,197,198,199,200,201,202,203,204,205,206,207,208,193,194,195,196,197,198,199,200,201,202,203,204,205,206,207,208,193,194,195,196,197,198,199,200,201,202,203,204,205,206,207,208,193,194,195,196,197,198,199,200,201,202,203,204,205,206,207,208,193,194,195,196,197,198,199,200,201,202,203,204,205,206,207,208,193,194,195,196,197,198,199,200,201,202,203,204,205,206,207,208,193,194,195,196,197,198,199,200,201,202,203,204,205,206,207,208,193,194,195,196,197,198,199,200,201,202,203,204,205,206,207,208,209,210,211,212,213,214,215,216,217,218,219,220,221,222,223,224,209,210,211,212,213,214,215,216,217,218,219,220,221,222,223,224,209,210,211,212,213,214,215,216,217,218,219,220,221,222,223,224,209,210,211,212,213,214,215,216,217,218,219,220,221,222,223,224,209,210,211,212,213,214,215,216,217,218,219,220,221,222,223,224,209,210,211,212,213,214,215,216,217,218,219,220,221,222,223,224,209,210,211,212,213,214,215,216,217,218,219,220,221,222,223,224,209,210,211,212,213,214,215,216,217,218,219,220,221,222,223,224,209,210,211,212,213,214,215,216,217,218,219,220,221,222,223,224,209,210,211,212,213,214,215,216,217,218,219,220,221,222,223,224,209,210,211,212,213,214,215,216,217,218,219,220,221,222,223,224,209,210,211,212,213,214,215,216,217,218,219,220,221,222,223,224,209,210,211,212,213,214,215,216,217,218,219,220,221,222,223,224,209,210,211,212,213,214,215,216,217,218,219,220,221,222,223,224,209,210,211,212,213,214,215,216,217,218,219,220,221,222,223,224,209,210,211,212,213,214,215,216,217,218,219,220,221,222,223,224,225,226,227,228,229,230,231,232,233,234,235,236,237,238,239,240,225,226,227,228,229,230,231,232,233,234,235,236,237,238,239,240,225,226,227,228,229,230,231,232,233,234,235,236,237,238,239,240,225,226,227,228,229,230,231,232,233,234,235,236,237,238,239,240,225,226,227,228,229,230,231,232,233,234,235,236,237,238,239,240,225,226,227,228,229,230,231,232,233,234,235,236,237,238,239,240,225,226,227,228,229,230,231,232,233,234,235,236,237,238,239,240,225,226,227,228,229,230,231,232,233,234,235,236,237,238,239,240,225,226,227,228,229,230,231,232,233,234,235,236,237,238,239,240,225,226,227,228,229,230,231,232,233,234,235,236,237,238,239,240,225,226,227,228,229,230,231,232,233,234,235,236,237,238,239,240,225,226,227,228,229,230,231,232,233,234,235,236,237,238,239,240,225,226,227,228,229,230,231,232,233,234,235,236,237,238,239,240,225,226,227,228,229,230,231,232,233,234,235,236,237,238,239,240,225,226,227,228,229,230,231,232,233,234,235,236,237,238,239,240,225,226,227,228,229,230,231,232,233,234,235,236,237,238,239,240,241,242,243,244,245,246,247,248,249,250,251,252,253,254,255,256,241,242,243,244,245,246,247,248,249,250,251,252,253,254,255,256,241,242,243,244,245,246,247,248,249,250,251,252,253,254,255,256,241,242,243,244,245,246,247,248,249,250,251,252,253,254,255,256,241,242,243,244,245,246,247,248,249,250,251,252,253,254,255,256,241,242,243,244,245,246,247,248,249,250,251,252,253,254,255,256,241,242,243,244,245,246,247,248,249,250,251,252,253,254,255,256,241,242,243,244,245,246,247,248,249,250,251,252,253,254,255,256,241,242,243,244,245,246,247,248,249,250,251,252,253,254,255,256,241,242,243,244,245,246,247,248,249,250,251,252,253,254,255,256,241,242,243,244,245,246,247,248,249,250,251,252,253,254,255,256,241,242,243,244,245,246,247,248,249,250,251,252,253,254,255,256,241,242,243,244,245,246,247,248,249,250,251,252,253,254,255,256,241,242,243,244,245,246,247,248,249,250,251,252,253,254,255,256,241,242,243,244,245,246,247,248,249,250,251,252,253,254,255,256,241,242,243,244,245,246,247,248,249,250,251,252,253,254,255,256,1,2,3,4,5,6,7,8,9,10,11,12,13,14,15,16,1,2,3,4,5,6,7,8,9,10,11,12,13,14,15,16,1,2,3,4,5,6,7,8,9,10,11,12,13,14,15,16,1,2,3,4,5,6,7,8,9,10,11,12,13,14,15,16,1,2,3,4,5,6,7,8,9,10,11,12,13,14,15,16,1,2,3,4,5,6,7,8,9,10,11,12,13,14,15,16,1,2,3,4,5,6,7,8,9,10,11,12,13,14,15,16,1,2,3,4,5,6,7,8,9,10,11,12,13,14,15,16,1,2,3,4,5,6,7,8,9,10,11,12,13,14,15,16,1,2,3,4,5,6,7,8,9,10,11,12,13,14,15,16,1,2,3,4,5,6,7,8,9,10,11,12,13,14,15,16,1,2,3,4,5,6,7,8,9,10,11,12,13,14,15,16,1,2,3,4,5,6,7,8,9,10,11,12,13,14,15,16,1,2,3,4,5,6,7,8,9,10,11,12,13,14,15,16,1,2,3,4,5,6,7,8,9,10,11,12,13,14,15,16,1,2,3,4,5,6,7,8,9,10,11,12,13,14,15,16,17,18,19,20,21,22,23,24,25,26,27,28,29,30,31,32,17,18,19,20,21,22,23,24,25,26,27,28,29,30,31,32,17,18,19,20,21,22,23,24,25,26,27,28,29,30,31,32,17,18,19,20,21,22,23,24,25,26,27,28,29,30,31,32,17,18,19,20,21,22,23,24,25,26,27,28,29,30,31,32,17,18,19,20,21,22,23,24,25,26,27,28,29,30,31,32,17,18,19,20,21,22,23,24,25,26,27,28,29,30,31,32,17,18,19,20,21,22,23,24,25,26,27,28,29,30,31,32,17,18,19,20,21,22,23,24,25,26,27,28,29,30,31,32,17,18,19,20,21,22,23,24,25,26,27,28,29,30,31,32,17,18,19,20,21,22,23,24,25,26,27,28,29,30,31,32,17,18,19,20,21,22,23,24,25,26,27,28,29,30,31,32,17,18,19,20,21,22,23,24,25,26,27,28,29,30,31,32,17,18,19,20,21,22,23,24,25,26,27,28,29,30,31,32,17,18,19,20,21,22,23,24,25,26,27,28,29,30,31,32,17,18,19,20,21,22,23,24,25,26,27,28,29,30,31,32,33,34,35,36,37,38,39,40,41,42,43,44,45,46,47,48,33,34,35,36,37,38,39,40,41,42,43,44,45,46,47,48,33,34,35,36,37,38,39,40,41,42,43,44,45,46,47,48,33,34,35,36,37,38,39,40,41,42,43,44,45,46,47,48,33,34,35,36,37,38,39,40,41,42,43,44,45,46,47,48,33,34,35,36,37,38,39,40,41,42,43,44,45,46,47,48,33,34,35,36,37,38,39,40,41,42,43,44,45,46,47,48,33,34,35,36,37,38,39,40,41,42,43,44,45,46,47,48,33,34,35,36,37,38,39,40,41,42,43,44,45,46,47,48,33,34,35,36,37,38,39,40,41,42,43,44,45,46,47,48,33,34,35,36,37,38,39,40,41,42,43,44,45,46,47,48,33,34,35,36,37,38,39,40,41,42,43,44,45,46,47,48,33,34,35,36,37,38,39,40,41,42,43,44,45,46,47,48,33,34,35,36,37,38,39,40,41,42,43,44,45,46,47,48,33,34,35,36,37,38,39,40,41,42,43,44,45,46,47,48,33,34,35,36,37,38,39,40,41,42,43,44,45,46,47,48,49,50,51,52,53,54,55,56,57,58,59,60,61,62,63,64,49,50,51,52,53,54,55,56,57,58,59,60,61,62,63,64,49,50,51,52,53,54,55,56,57,58,59,60,61,62,63,64,49,50,51,52,53,54,55,56,57,58,59,60,61,62,63,64,49,50,51,52,53,54,55,56,57,58,59,60,61,62,63,64,49,50,51,52,53,54,55,56,57,58,59,60,61,62,63,64,49,50,51,52,53,54,55,56,57,58,59,60,61,62,63,64,49,50,51,52,53,54,55,56,57,58,59,60,61,62,63,64,49,50,51,52,53,54,55,56,57,58,59,60,61,62,63,64,49,50,51,52,53,54,55,56,57,58,59,60,61,62,63,64,49,50,51,52,53,54,55,56,57,58,59,60,61,62,63,64,49,50,51,52,53,54,55,56,57,58,59,60,61,62,63,64,49,50,51,52,53,54,55,56,57,58,59,60,61,62,63,64,49,50,51,52,53,54,55,56,57,58,59,60,61,62,63,64,49,50,51,52,53,54,55,56,57,58,59,60,61,62,63,64,49,50,51,52,53,54,55,56,57,58,59,60,61,62,63,64,65,66,67,68,69,70,71,72,73,74,75,76,77,78,79,80,65,66,67,68,69,70,71,72,73,74,75,76,77,78,79,80,65,66,67,68,69,70,71,72,73,74,75,76,77,78,79,80,65,66,67,68,69,70,71,72,73,74,75,76,77,78,79,80,65,66,67,68,69,70,71,72,73,74,75,76,77,78,79,80,65,66,67,68,69,70,71,72,73,74,75,76,77,78,79,80,65,66,67,68,69,70,71,72,73,74,75,76,77,78,79,80,65,66,67,68,69,70,71,72,73,74,75,76,77,78,79,80,65,66,67,68,69,70,71,72,73,74,75,76,77,78,79,80,65,66,67,68,69,70,71,72,73,74,75,76,77,78,79,80,65,66,67,68,69,70,71,72,73,74,75,76,77,78,79,80,65,66,67,68,69,70,71,72,73,74,75,76,77,78,79,80,65,66,67,68,69,70,71,72,73,74,75,76,77,78,79,80,65,66,67,68,69,70,71,72,73,74,75,76,77,78,79,80,65,66,67,68,69,70,71,72,73,74,75,76,77,78,79,80,65,66,67,68,69,70,71,72,73,74,75,76,77,78,79,80,81,82,83,84,85,86,87,88,89,90,91,92,93,94,95,96,81,82,83,84,85,86,87,88,89,90,91,92,93,94,95,96,81,82,83,84,85,86,87,88,89,90,91,92,93,94,95,96,81,82,83,84,85,86,87,88,89,90,91,92,93,94,95,96,81,82,83,84,85,86,87,88,89,90,91,92,93,94,95,96,81,82,83,84,85,86,87,88,89,90,91,92,93,94,95,96,81,82,83,84,85,86,87,88,89,90,91,92,93,94,95,96,81,82,83,84,85,86,87,88,89,90,91,92,93,94,95,96,81,82,83,84,85,86,87,88,89,90,91,92,93,94,95,96,81,82,83,84,85,86,87,88,89,90,91,92,93,94,95,96,81,82,83,84,85,86,87,88,89,90,91,92,93,94,95,96,81,82,83,84,85,86,87,88,89,90,91,92,93,94,95,96,81,82,83,84,85,86,87,88,89,90,91,92,93,94,95,96,81,82,83,84,85,86,87,88,89,90,91,92,93,94,95,96,81,82,83,84,85,86,87,88,89,90,91,92,93,94,95,96,81,82,83,84,85,86,87,88,89,90,91,92,93,94,95,96,97,98,99,100,101,102,103,104,105,106,107,108,109,110,111,112,97,98,99,100,101,102,103,104,105,106,107,108,109,110,111,112,97,98,99,100,101,102,103,104,105,106,107,108,109,110,111,112,97,98,99,100,101,102,103,104,105,106,107,108,109,110,111,112,97,98,99,100,101,102,103,104,105,106,107,108,109,110,111,112,97,98,99,100,101,102,103,104,105,106,107,108,109,110,111,112,97,98,99,100,101,102,103,104,105,106,107,108,109,110,111,112,97,98,99,100,101,102,103,104,105,106,107,108,109,110,111,112,97,98,99,100,101,102,103,104,105,106,107,108,109,110,111,112,97,98,99,100,101,102,103,104,105,106,107,108,109,110,111,112,97,98,99,100,101,102,103,104,105,106,107,108,109,110,111,112,97,98,99,100,101,102,103,104,105,106,107,108,109,110,111,112,97,98,99,100,101,102,103,104,105,106,107,108,109,110,111,112,97,98,99,100,101,102,103,104,105,106,107,108,109,110,111,112,97,98,99,100,101,102,103,104,105,106,107,108,109,110,111,112,97,98,99,100,101,102,103,104,105,106,107,108,109,110,111,112,113,114,115,116,117,118,119,120,121,122,123,124,125,126,127,128,113,114,115,116,117,118,119,120,121,122,123,124,125,126,127,128,113,114,115,116,117,118,119,120,121,122,123,124,125,126,127,128,113,114,115,116,117,118,119,120,121,122,123,124,125,126,127,128,113,114,115,116,117,118,119,120,121,122,123,124,125,126,127,128,113,114,115,116,117,118,119,120,121,122,123,124,125,126,127,128,113,114,115,116,117,118,119,120,121,122,123,124,125,126,127,128,113,114,115,116,117,118,119,120,121,122,123,124,125,126,127,128,113,114,115,116,117,118,119,120,121,122,123,124,125,126,127,128,113,114,115,116,117,118,119,120,121,122,123,124,125,126,127,128,113,114,115,116,117,118,119,120,121,122,123,124,125,126,127,128,113,114,115,116,117,118,119,120,121,122,123,124,125,126,127,128,113,114,115,116,117,118,119,120,121,122,123,124,125,126,127,128,113,114,115,116,117,118,119,120,121,122,123,124,125,126,127,128,113,114,115,116,117,118,119,120,121,122,123,124,125,126,127,128,113,114,115,116,117,118,119,120,121,122,123,124,125,126,127,128,129,130,131,132,133,134,135,136,137,138,139,140,141,142,143,144,129,130,131,132,133,134,135,136,137,138,139,140,141,142,143,144,129,130,131,132,133,134,135,136,137,138,139,140,141,142,143,144,129,130,131,132,133,134,135,136,137,138,139,140,141,142,143,144,129,130,131,132,133,134,135,136,137,138,139,140,141,142,143,144,129,130,131,132,133,134,135,136,137,138,139,140,141,142,143,144,129,130,131,132,133,134,135,136,137,138,139,140,141,142,143,144,129,130,131,132,133,134,135,136,137,138,139,140,141,142,143,144,129,130,131,132,133,134,135,136,137,138,139,140,141,142,143,144,129,130,131,132,133,134,135,136,137,138,139,140,141,142,143,144,129,130,131,132,133,134,135,136,137,138,139,140,141,142,143,144,129,130,131,132,133,134,135,136,137,138,139,140,141,142,143,144,129,130,131,132,133,134,135,136,137,138,139,140,141,142,143,144,129,130,131,132,133,134,135,136,137,138,139,140,141,142,143,144,129,130,131,132,133,134,135,136,137,138,139,140,141,142,143,144,129,130,131,132,133,134,135,136,137,138,139,140,141,142,143,144,145,146,147,148,149,150,151,152,153,154,155,156,157,158,159,160,145,146,147,148,149,150,151,152,153,154,155,156,157,158,159,160,145,146,147,148,149,150,151,152,153,154,155,156,157,158,159,160,145,146,147,148,149,150,151,152,153,154,155,156,157,158,159,160,145,146,147,148,149,150,151,152,153,154,155,156,157,158,159,160,145,146,147,148,149,150,151,152,153,154,155,156,157,158,159,160,145,146,147,148,149,150,151,152,153,154,155,156,157,158,159,160,145,146,147,148,149,150,151,152,153,154,155,156,157,158,159,160,145,146,147,148,149,150,151,152,153,154,155,156,157,158,159,160,145,146,147,148,149,150,151,152,153,154,155,156,157,158,159,160,145,146,147,148,149,150,151,152,153,154,155,156,157,158,159,160,145,146,147,148,149,150,151,152,153,154,155,156,157,158,159,160,145,146,147,148,149,150,151,152,153,154,155,156,157,158,159,160,145,146,147,148,149,150,151,152,153,154,155,156,157,158,159,160,145,146,147,148,149,150,151,152,153,154,155,156,157,158,159,160,145,146,147,148,149,150,151,152,153,154,155,156,157,158,159,160,161,162,163,164,165,166,167,168,169,170,171,172,173,174,175,176,161,162,163,164,165,166,167,168,169,170,171,172,173,174,175,176,161,162,163,164,165,166,167,168,169,170,171,172,173,174,175,176,161,162,163,164,165,166,167,168,169,170,171,172,173,174,175,176,161,162,163,164,165,166,167,168,169,170,171,172,173,174,175,176,161,162,163,164,165,166,167,168,169,170,171,172,173,174,175,176,161,162,163,164,165,166,167,168,169,170,171,172,173,174,175,176,161,162,163,164,165,166,167,168,169,170,171,172,173,174,175,176,161,162,163,164,165,166,167,168,169,170,171,172,173,174,175,176,161,162,163,164,165,166,167,168,169,170,171,172,173,174,175,176,161,162,163,164,165,166,167,168,169,170,171,172,173,174,175,176,161,162,163,164,165,166,167,168,169,170,171,172,173,174,175,176,161,162,163,164,165,166,167,168,169,170,171,172,173,174,175,176,161,162,163,164,165,166,167,168,169,170,171,172,173,174,175,176,161,162,163,164,165,166,167,168,169,170,171,172,173,174,175,176,161,162,163,164,165,166,167,168,169,170,171,172,173,174,175,176,177,178,179,180,181,182,183,184,185,186,187,188,189,190,191,192,177,178,179,180,181,182,183,184,185,186,187,188,189,190,191,192,177,178,179,180,181,182,183,184,185,186,187,188,189,190,191,192,177,178,179,180,181,182,183,184,185,186,187,188,189,190,191,192,177,178,179,180,181,182,183,184,185,186,187,188,189,190,191,192,177,178,179,180,181,182,183,184,185,186,187,188,189,190,191,192,177,178,179,180,181,182,183,184,185,186,187,188,189,190,191,192,177,178,179,180,181,182,183,184,185,186,187,188,189,190,191,192,177,178,179,180,181,182,183,184,185,186,187,188,189,190,191,192,177,178,179,180,181,182,183,184,185,186,187,188,189,190,191,192,177,178,179,180,181,182,183,184,185,186,187,188,189,190,191,192,177,178,179,180,181,182,183,184,185,186,187,188,189,190,191,192,177,178,179,180,181,182,183,184,185,186,187,188,189,190,191,192,177,178,179,180,181,182,183,184,185,186,187,188,189,190,191,192,177,178,179,180,181,182,183,184,185,186,187,188,189,190,191,192,177,178,179,180,181,182,183,184,185,186,187,188,189,190,191,192,193,194,195,196,197,198,199,200,201,202,203,204,205,206,207,208,193,194,195,196,197,198,199,200,201,202,203,204,205,206,207,208,193,194,195,196,197,198,199,200,201,202,203,204,205,206,207,208,193,194,195,196,197,198,199,200,201,202,203,204,205,206,207,208,193,194,195,196,197,198,199,200,201,202,203,204,205,206,207,208,193,194,195,196,197,198,199,200,201,202,203,204,205,206,207,208,193,194,195,196,197,198,199,200,201,202,203,204,205,206,207,208,193,194,195,196,197,198,199,200,201,202,203,204,205,206,207,208,193,194,195,196,197,198,199,200,201,202,203,204,205,206,207,208,193,194,195,196,197,198,199,200,201,202,203,204,205,206,207,208,193,194,195,196,197,198,199,200,201,202,203,204,205,206,207,208,193,194,195,196,197,198,199,200,201,202,203,204,205,206,207,208,193,194,195,196,197,198,199,200,201,202,203,204,205,206,207,208,193,194,195,196,197,198,199,200,201,202,203,204,205,206,207,208,193,194,195,196,197,198,199,200,201,202,203,204,205,206,207,208,193,194,195,196,197,198,199,200,201,202,203,204,205,206,207,208,209,210,211,212,213,214,215,216,217,218,219,220,221,222,223,224,209,210,211,212,213,214,215,216,217,218,219,220,221,222,223,224,209,210,211,212,213,214,215,216,217,218,219,220,221,222,223,224,209,210,211,212,213,214,215,216,217,218,219,220,221,222,223,224,209,210,211,212,213,214,215,216,217,218,219,220,221,222,223,224,209,210,211,212,213,214,215,216,217,218,219,220,221,222,223,224,209,210,211,212,213,214,215,216,217,218,219,220,221,222,223,224,209,210,211,212,213,214,215,216,217,218,219,220,221,222,223,224,209,210,211,212,213,214,215,216,217,218,219,220,221,222,223,224,209,210,211,212,213,214,215,216,217,218,219,220,221,222,223,224,209,210,211,212,213,214,215,216,217,218,219,220,221,222,223,224,209,210,211,212,213,214,215,216,217,218,219,220,221,222,223,224,209,210,211,212,213,214,215,216,217,218,219,220,221,222,223,224,209,210,211,212,213,214,215,216,217,218,219,220,221,222,223,224,209,210,211,212,213,214,215,216,217,218,219,220,221,222,223,224,209,210,211,212,213,214,215,216,217,218,219,220,221,222,223,224,225,226,227,228,229,230,231,232,233,234,235,236,237,238,239,240,225,226,227,228,229,230,231,232,233,234,235,236,237,238,239,240,225,226,227,228,229,230,231,232,233,234,235,236,237,238,239,240,225,226,227,228,229,230,231,232,233,234,235,236,237,238,239,240,225,226,227,228,229,230,231,232,233,234,235,236,237,238,239,240,225,226,227,228,229,230,231,232,233,234,235,236,237,238,239,240,225,226,227,228,229,230,231,232,233,234,235,236,237,238,239,240,225,226,227,228,229,230,231,232,233,234,235,236,237,238,239,240,225,226,227,228,229,230,231,232,233,234,235,236,237,238,239,240,225,226,227,228,229,230,231,232,233,234,235,236,237,238,239,240,225,226,227,228,229,230,231,232,233,234,235,236,237,238,239,240,225,226,227,228,229,230,231,232,233,234,235,236,237,238,239,240,225,226,227,228,229,230,231,232,233,234,235,236,237,238,239,240,225,226,227,228,229,230,231,232,233,234,235,236,237,238,239,240,225,226,227,228,229,230,231,232,233,234,235,236,237,238,239,240,225,226,227,228,229,230,231,232,233,234,235,236,237,238,239,240,241,242,243,244,245,246,247,248,249,250,251,252,253,254,255,256,241,242,243,244,245,246,247,248,249,250,251,252,253,254,255,256,241,242,243,244,245,246,247,248,249,250,251,252,253,254,255,256,241,242,243,244,245,246,247,248,249,250,251,252,253,254,255,256,241,242,243,244,245,246,247,248,249,250,251,252,253,254,255,256,241,242,243,244,245,246,247,248,249,250,251,252,253,254,255,256,241,242,243,244,245,246,247,248,249,250,251,252,253,254,255,256,241,242,243,244,245,246,247,248,249,250,251,252,253,254,255,256,241,242,243,244,245,246,247,248,249,250,251,252,253,254,255,256,241,242,243,244,245,246,247,248,249,250,251,252,253,254,255,256,241,242,243,244,245,246,247,248,249,250,251,252,253,254,255,256,241,242,243,244,245,246,247,248,249,250,251,252,253,254,255,256,241,242,243,244,245,246,247,248,249,250,251,252,253,254,255,256,241,242,243,244,245,246,247,248,249,250,251,252,253,254,255,256,241,242,243,244,245,246,247,248,249,250,251,252,253,254,255,256,241,242,243,244,245,246,247,248,249,250,251,252,253,254,255,256,1,2,3,4,5,6,7,8,9,10,11,12,13,14,15,16,1,2,3,4,5,6,7,8,9,10,11,12,13,14,15,16,1,2,3,4,5,6,7,8,9,10,11,12,13,14,15,16,1,2,3,4,5,6,7,8,9,10,11,12,13,14,15,16,1,2,3,4,5,6,7,8,9,10,11,12,13,14,15,16,1,2,3,4,5,6,7,8,9,10,11,12,13,14,15,16,1,2,3,4,5,6,7,8,9,10,11,12,13,14,15,16,1,2,3,4,5,6,7,8,9,10,11,12,13,14,15,16,1,2,3,4,5,6,7,8,9,10,11,12,13,14,15,16,1,2,3,4,5,6,7,8,9,10,11,12,13,14,15,16,1,2,3,4,5,6,7,8,9,10,11,12,13,14,15,16,1,2,3,4,5,6,7,8,9,10,11,12,13,14,15,16,1,2,3,4,5,6,7,8,9,10,11,12,13,14,15,16,1,2,3,4,5,6,7,8,9,10,11,12,13,14,15,16,1,2,3,4,5,6,7,8,9,10,11,12,13,14,15,16,1,2,3,4,5,6,7,8,9,10,11,12,13,14,15,16,17,18,19,20,21,22,23,24,25,26,27,28,29,30,31,32,17,18,19,20,21,22,23,24,25,26,27,28,29,30,31,32,17,18,19,20,21,22,23,24,25,26,27,28,29,30,31,32,17,18,19,20,21,22,23,24,25,26,27,28,29,30,31,32,17,18,19,20,21,22,23,24,25,26,27,28,29,30,31,32,17,18,19,20,21,22,23,24,25,26,27,28,29,30,31,32,17,18,19,20,21,22,23,24,25,26,27,28,29,30,31,32,17,18,19,20,21,22,23,24,25,26,27,28,29,30,31,32,17,18,19,20,21,22,23,24,25,26,27,28,29,30,31,32,17,18,19,20,21,22,23,24,25,26,27,28,29,30,31,32,17,18,19,20,21,22,23,24,25,26,27,28,29,30,31,32,17,18,19,20,21,22,23,24,25,26,27,28,29,30,31,32,17,18,19,20,21,22,23,24,25,26,27,28,29,30,31,32,17,18,19,20,21,22,23,24,25,26,27,28,29,30,31,32,17,18,19,20,21,22,23,24,25,26,27,28,29,30,31,32,17,18,19,20,21,22,23,24,25,26,27,28,29,30,31,32,33,34,35,36,37,38,39,40,41,42,43,44,45,46,47,48,33,34,35,36,37,38,39,40,41,42,43,44,45,46,47,48,33,34,35,36,37,38,39,40,41,42,43,44,45,46,47,48,33,34,35,36,37,38,39,40,41,42,43,44,45,46,47,48,33,34,35,36,37,38,39,40,41,42,43,44,45,46,47,48,33,34,35,36,37,38,39,40,41,42,43,44,45,46,47,48,33,34,35,36,37,38,39,40,41,42,43,44,45,46,47,48,33,34,35,36,37,38,39,40,41,42,43,44,45,46,47,48,33,34,35,36,37,38,39,40,41,42,43,44,45,46,47,48,33,34,35,36,37,38,39,40,41,42,43,44,45,46,47,48,33,34,35,36,37,38,39,40,41,42,43,44,45,46,47,48,33,34,35,36,37,38,39,40,41,42,43,44,45,46,47,48,33,34,35,36,37,38,39,40,41,42,43,44,45,46,47,48,33,34,35,36,37,38,39,40,41,42,43,44,45,46,47,48,33,34,35,36,37,38,39,40,41,42,43,44,45,46,47,48,33,34,35,36,37,38,39,40,41,42,43,44,45,46,47,48,49,50,51,52,53,54,55,56,57,58,59,60,61,62,63,64,49,50,51,52,53,54,55,56,57,58,59,60,61,62,63,64,49,50,51,52,53,54,55,56,57,58,59,60,61,62,63,64,49,50,51,52,53,54,55,56,57,58,59,60,61,62,63,64,49,50,51,52,53,54,55,56,57,58,59,60,61,62,63,64,49,50,51,52,53,54,55,56,57,58,59,60,61,62,63,64,49,50,51,52,53,54,55,56,57,58,59,60,61,62,63,64,49,50,51,52,53,54,55,56,57,58,59,60,61,62,63,64,49,50,51,52,53,54,55,56,57,58,59,60,61,62,63,64,49,50,51,52,53,54,55,56,57,58,59,60,61,62,63,64,49,50,51,52,53,54,55,56,57,58,59,60,61,62,63,64,49,50,51,52,53,54,55,56,57,58,59,60,61,62,63,64,49,50,51,52,53,54,55,56,57,58,59,60,61,62,63,64,49,50,51,52,53,54,55,56,57,58,59,60,61,62,63,64,49,50,51,52,53,54,55,56,57,58,59,60,61,62,63,64,49,50,51,52,53,54,55,56,57,58,59,60,61,62,63,64,65,66,67,68,69,70,71,72,73,74,75,76,77,78,79,80,65,66,67,68,69,70,71,72,73,74,75,76,77,78,79,80,65,66,67,68,69,70,71,72,73,74,75,76,77,78,79,80,65,66,67,68,69,70,71,72,73,74,75,76,77,78,79,80,65,66,67,68,69,70,71,72,73,74,75,76,77,78,79,80,65,66,67,68,69,70,71,72,73,74,75,76,77,78,79,80,65,66,67,68,69,70,71,72,73,74,75,76,77,78,79,80,65,66,67,68,69,70,71,72,73,74,75,76,77,78,79,80,65,66,67,68,69,70,71,72,73,74,75,76,77,78,79,80,65,66,67,68,69,70,71,72,73,74,75,76,77,78,79,80,65,66,67,68,69,70,71,72,73,74,75,76,77,78,79,80,65,66,67,68,69,70,71,72,73,74,75,76,77,78,79,80,65,66,67,68,69,70,71,72,73,74,75,76,77,78,79,80,65,66,67,68,69,70,71,72,73,74,75,76,77,78,79,80,65,66,67,68,69,70,71,72,73,74,75,76,77,78,79,80,65,66,67,68,69,70,71,72,73,74,75,76,77,78,79,80,81,82,83,84,85,86,87,88,89,90,91,92,93,94,95,96,81,82,83,84,85,86,87,88,89,90,91,92,93,94,95,96,81,82,83,84,85,86,87,88,89,90,91,92,93,94,95,96,81,82,83,84,85,86,87,88,89,90,91,92,93,94,95,96,81,82,83,84,85,86,87,88,89,90,91,92,93,94,95,96,81,82,83,84,85,86,87,88,89,90,91,92,93,94,95,96,81,82,83,84,85,86,87,88,89,90,91,92,93,94,95,96,81,82,83,84,85,86,87,88,89,90,91,92,93,94,95,96,81,82,83,84,85,86,87,88,89,90,91,92,93,94,95,96,81,82,83,84,85,86,87,88,89,90,91,92,93,94,95,96,81,82,83,84,85,86,87,88,89,90,91,92,93,94,95,96,81,82,83,84,85,86,87,88,89,90,91,92,93,94,95,96,81,82,83,84,85,86,87,88,89,90,91,92,93,94,95,96,81,82,83,84,85,86,87,88,89,90,91,92,93,94,95,96,81,82,83,84,85,86,87,88,89,90,91,92,93,94,95,96,81,82,83,84,85,86,87,88,89,90,91,92,93,94,95,96,97,98,99,100,101,102,103,104,105,106,107,108,109,110,111,112,97,98,99,100,101,102,103,104,105,106,107,108,109,110,111,112,97,98,99,100,101,102,103,104,105,106,107,108,109,110,111,112,97,98,99,100,101,102,103,104,105,106,107,108,109,110,111,112,97,98,99,100,101,102,103,104,105,106,107,108,109,110,111,112,97,98,99,100,101,102,103,104,105,106,107,108,109,110,111,112,97,98,99,100,101,102,103,104,105,106,107,108,109,110,111,112,97,98,99,100,101,102,103,104,105,106,107,108,109,110,111,112,97,98,99,100,101,102,103,104,105,106,107,108,109,110,111,112,97,98,99,100,101,102,103,104,105,106,107,108,109,110,111,112,97,98,99,100,101,102,103,104,105,106,107,108,109,110,111,112,97,98,99,100,101,102,103,104,105,106,107,108,109,110,111,112,97,98,99,100,101,102,103,104,105,106,107,108,109,110,111,112,97,98,99,100,101,102,103,104,105,106,107,108,109,110,111,112,97,98,99,100,101,102,103,104,105,106,107,108,109,110,111,112,97,98,99,100,101,102,103,104,105,106,107,108,109,110,111,112,113,114,115,116,117,118,119,120,121,122,123,124,125,126,127,128,113,114,115,116,117,118,119,120,121,122,123,124,125,126,127,128,113,114,115,116,117,118,119,120,121,122,123,124,125,126,127,128,113,114,115,116,117,118,119,120,121,122,123,124,125,126,127,128,113,114,115,116,117,118,119,120,121,122,123,124,125,126,127,128,113,114,115,116,117,118,119,120,121,122,123,124,125,126,127,128,113,114,115,116,117,118,119,120,121,122,123,124,125,126,127,128,113,114,115,116,117,118,119,120,121,122,123,124,125,126,127,128,113,114,115,116,117,118,119,120,121,122,123,124,125,126,127,128,113,114,115,116,117,118,119,120,121,122,123,124,125,126,127,128,113,114,115,116,117,118,119,120,121,122,123,124,125,126,127,128,113,114,115,116,117,118,119,120,121,122,123,124,125,126,127,128,113,114,115,116,117,118,119,120,121,122,123,124,125,126,127,128,113,114,115,116,117,118,119,120,121,122,123,124,125,126,127,128,113,114,115,116,117,118,119,120,121,122,123,124,125,126,127,128,113,114,115,116,117,118,119,120,121,122,123,124,125,126,127,128,129,130,131,132,133,134,135,136,137,138,139,140,141,142,143,144,129,130,131,132,133,134,135,136,137,138,139,140,141,142,143,144,129,130,131,132,133,134,135,136,137,138,139,140,141,142,143,144,129,130,131,132,133,134,135,136,137,138,139,140,141,142,143,144,129,130,131,132,133,134,135,136,137,138,139,140,141,142,143,144,129,130,131,132,133,134,135,136,137,138,139,140,141,142,143,144,129,130,131,132,133,134,135,136,137,138,139,140,141,142,143,144,129,130,131,132,133,134,135,136,137,138,139,140,141,142,143,144,129,130,131,132,133,134,135,136,137,138,139,140,141,142,143,144,129,130,131,132,133,134,135,136,137,138,139,140,141,142,143,144,129,130,131,132,133,134,135,136,137,138,139,140,141,142,143,144,129,130,131,132,133,134,135,136,137,138,139,140,141,142,143,144,129,130,131,132,133,134,135,136,137,138,139,140,141,142,143,144,129,130,131,132,133,134,135,136,137,138,139,140,141,142,143,144,129,130,131,132,133,134,135,136,137,138,139,140,141,142,143,144,129,130,131,132,133,134,135,136,137,138,139,140,141,142,143,144,145,146,147,148,149,150,151,152,153,154,155,156,157,158,159,160,145,146,147,148,149,150,151,152,153,154,155,156,157,158,159,160,145,146,147,148,149,150,151,152,153,154,155,156,157,158,159,160,145,146,147,148,149,150,151,152,153,154,155,156,157,158,159,160,145,146,147,148,149,150,151,152,153,154,155,156,157,158,159,160,145,146,147,148,149,150,151,152,153,154,155,156,157,158,159,160,145,146,147,148,149,150,151,152,153,154,155,156,157,158,159,160,145,146,147,148,149,150,151,152,153,154,155,156,157,158,159,160,145,146,147,148,149,150,151,152,153,154,155,156,157,158,159,160,145,146,147,148,149,150,151,152,153,154,155,156,157,158,159,160,145,146,147,148,149,150,151,152,153,154,155,156,157,158,159,160,145,146,147,148,149,150,151,152,153,154,155,156,157,158,159,160,145,146,147,148,149,150,151,152,153,154,155,156,157,158,159,160,145,146,147,148,149,150,151,152,153,154,155,156,157,158,159,160,145,146,147,148,149,150,151,152,153,154,155,156,157,158,159,160,145,146,147,148,149,150,151,152,153,154,155,156,157,158,159,160,161,162,163,164,165,166,167,168,169,170,171,172,173,174,175,176,161,162,163,164,165,166,167,168,169,170,171,172,173,174,175,176,161,162,163,164,165,166,167,168,169,170,171,172,173,174,175,176,161,162,163,164,165,166,167,168,169,170,171,172,173,174,175,176,161,162,163,164,165,166,167,168,169,170,171,172,173,174,175,176,161,162,163,164,165,166,167,168,169,170,171,172,173,174,175,176,161,162,163,164,165,166,167,168,169,170,171,172,173,174,175,176,161,162,163,164,165,166,167,168,169,170,171,172,173,174,175,176,161,162,163,164,165,166,167,168,169,170,171,172,173,174,175,176,161,162,163,164,165,166,167,168,169,170,171,172,173,174,175,176,161,162,163,164,165,166,167,168,169,170,171,172,173,174,175,176,161,162,163,164,165,166,167,168,169,170,171,172,173,174,175,176,161,162,163,164,165,166,167,168,169,170,171,172,173,174,175,176,161,162,163,164,165,166,167,168,169,170,171,172,173,174,175,176,161,162,163,164,165,166,167,168,169,170,171,172,173,174,175,176,161,162,163,164,165,166,167,168,169,170,171,172,173,174,175,176,177,178,179,180,181,182,183,184,185,186,187,188,189,190,191,192,177,178,179,180,181,182,183,184,185,186,187,188,189,190,191,192,177,178,179,180,181,182,183,184,185,186,187,188,189,190,191,192,177,178,179,180,181,182,183,184,185,186,187,188,189,190,191,192,177,178,179,180,181,182,183,184,185,186,187,188,189,190,191,192,177,178,179,180,181,182,183,184,185,186,187,188,189,190,191,192,177,178,179,180,181,182,183,184,185,186,187,188,189,190,191,192,177,178,179,180,181,182,183,184,185,186,187,188,189,190,191,192,177,178,179,180,181,182,183,184,185,186,187,188,189,190,191,192,177,178,179,180,181,182,183,184,185,186,187,188,189,190,191,192,177,178,179,180,181,182,183,184,185,186,187,188,189,190,191,192,177,178,179,180,181,182,183,184,185,186,187,188,189,190,191,192,177,178,179,180,181,182,183,184,185,186,187,188,189,190,191,192,177,178,179,180,181,182,183,184,185,186,187,188,189,190,191,192,177,178,179,180,181,182,183,184,185,186,187,188,189,190,191,192,177,178,179,180,181,182,183,184,185,186,187,188,189,190,191,192,193,194,195,196,197,198,199,200,201,202,203,204,205,206,207,208,193,194,195,196,197,198,199,200,201,202,203,204,205,206,207,208,193,194,195,196,197,198,199,200,201,202,203,204,205,206,207,208,193,194,195,196,197,198,199,200,201,202,203,204,205,206,207,208,193,194,195,196,197,198,199,200,201,202,203,204,205,206,207,208,193,194,195,196,197,198,199,200,201,202,203,204,205,206,207,208,193,194,195,196,197,198,199,200,201,202,203,204,205,206,207,208,193,194,195,196,197,198,199,200,201,202,203,204,205,206,207,208,193,194,195,196,197,198,199,200,201,202,203,204,205,206,207,208,193,194,195,196,197,198,199,200,201,202,203,204,205,206,207,208,193,194,195,196,197,198,199,200,201,202,203,204,205,206,207,208,193,194,195,196,197,198,199,200,201,202,203,204,205,206,207,208,193,194,195,196,197,198,199,200,201,202,203,204,205,206,207,208,193,194,195,196,197,198,199,200,201,202,203,204,205,206,207,208,193,194,195,196,197,198,199,200,201,202,203,204,205,206,207,208,193,194,195,196,197,198,199,200,201,202,203,204,205,206,207,208,209,210,211,212,213,214,215,216,217,218,219,220,221,222,223,224,209,210,211,212,213,214,215,216,217,218,219,220,221,222,223,224,209,210,211,212,213,214,215,216,217,218,219,220,221,222,223,224,209,210,211,212,213,214,215,216,217,218,219,220,221,222,223,224,209,210,211,212,213,214,215,216,217,218,219,220,221,222,223,224,209,210,211,212,213,214,215,216,217,218,219,220,221,222,223,224,209,210,211,212,213,214,215,216,217,218,219,220,221,222,223,224,209,210,211,212,213,214,215,216,217,218,219,220,221,222,223,224,209,210,211,212,213,214,215,216,217,218,219,220,221,222,223,224,209,210,211,212,213,214,215,216,217,218,219,220,221,222,223,224,209,210,211,212,213,214,215,216,217,218,219,220,221,222,223,224,209,210,211,212,213,214,215,216,217,218,219,220,221,222,223,224,209,210,211,212,213,214,215,216,217,218,219,220,221,222,223,224,209,210,211,212,213,214,215,216,217,218,219,220,221,222,223,224,209,210,211,212,213,214,215,216,217,218,219,220,221,222,223,224,209,210,211,212,213,214,215,216,217,218,219,220,221,222,223,224,225,226,227,228,229,230,231,232,233,234,235,236,237,238,239,240,225,226,227,228,229,230,231,232,233,234,235,236,237,238,239,240,225,226,227,228,229,230,231,232,233,234,235,236,237,238,239,240,225,226,227,228,229,230,231,232,233,234,235,236,237,238,239,240,225,226,227,228,229,230,231,232,233,234,235,236,237,238,239,240,225,226,227,228,229,230,231,232,233,234,235,236,237,238,239,240,225,226,227,228,229,230,231,232,233,234,235,236,237,238,239,240,225,226,227,228,229,230,231,232,233,234,235,236,237,238,239,240,225,226,227,228,229,230,231,232,233,234,235,236,237,238,239,240,225,226,227,228,229,230,231,232,233,234,235,236,237,238,239,240,225,226,227,228,229,230,231,232,233,234,235,236,237,238,239,240,225,226,227,228,229,230,231,232,233,234,235,236,237,238,239,240,225,226,227,228,229,230,231,232,233,234,235,236,237,238,239,240,225,226,227,228,229,230,231,232,233,234,235,236,237,238,239,240,225,226,227,228,229,230,231,232,233,234,235,236,237,238,239,240,225,226,227,228,229,230,231,232,233,234,235,236,237,238,239,240,241,242,243,244,245,246,247,248,249,250,251,252,253,254,255,256,241,242,243,244,245,246,247,248,249,250,251,252,253,254,255,256,241,242,243,244,245,246,247,248,249,250,251,252,253,254,255,256,241,242,243,244,245,246,247,248,249,250,251,252,253,254,255,256,241,242,243,244,245,246,247,248,249,250,251,252,253,254,255,256,241,242,243,244,245,246,247,248,249,250,251,252,253,254,255,256,241,242,243,244,245,246,247,248,249,250,251,252,253,254,255,256,241,242,243,244,245,246,247,248,249,250,251,252,253,254,255,256,241,242,243,244,245,246,247,248,249,250,251,252,253,254,255,256,241,242,243,244,245,246,247,248,249,250,251,252,253,254,255,256,241,242,243,244,245,246,247,248,249,250,251,252,253,254,255,256,241,242,243,244,245,246,247,248,249,250,251,252,253,254,255,256,241,242,243,244,245,246,247,248,249,250,251,252,253,254,255,256,241,242,243,244,245,246,247,248,249,250,251,252,253,254,255,256,241,242,243,244,245,246,247,248,249,250,251,252,253,254,255,256,241,242,243,244,245,246,247,248,249,250,251,252,253,254,255,256,1,2,3,4,5,6,7,8,9,10,11,12,13,14,15,16,1,2,3,4,5,6,7,8,9,10,11,12,13,14,15,16,1,2,3,4,5,6,7,8,9,10,11,12,13,14,15,16,1,2,3,4,5,6,7,8,9,10,11,12,13,14,15,16,1,2,3,4,5,6,7,8,9,10,11,12,13,14,15,16,1,2,3,4,5,6,7,8,9,10,11,12,13,14,15,16,1,2,3,4,5,6,7,8,9,10,11,12,13,14,15,16,1,2,3,4,5,6,7,8,9,10,11,12,13,14,15,16,1,2,3,4,5,6,7,8,9,10,11,12,13,14,15,16,1,2,3,4,5,6,7,8,9,10,11,12,13,14,15,16,1,2,3,4,5,6,7,8,9,10,11,12,13,14,15,16,1,2,3,4,5,6,7,8,9,10,11,12,13,14,15,16,1,2,3,4,5,6,7,8,9,10,11,12,13,14,15,16,1,2,3,4,5,6,7,8,9,10,11,12,13,14,15,16,1,2,3,4,5,6,7,8,9,10,11,12,13,14,15,16,1,2,3,4,5,6,7,8,9,10,11,12,13,14,15,16,17,18,19,20,21,22,23,24,25,26,27,28,29,30,31,32,17,18,19,20,21,22,23,24,25,26,27,28,29,30,31,32,17,18,19,20,21,22,23,24,25,26,27,28,29,30,31,32,17,18,19,20,21,22,23,24,25,26,27,28,29,30,31,32,17,18,19,20,21,22,23,24,25,26,27,28,29,30,31,32,17,18,19,20,21,22,23,24,25,26,27,28,29,30,31,32,17,18,19,20,21,22,23,24,25,26,27,28,29,30,31,32,17,18,19,20,21,22,23,24,25,26,27,28,29,30,31,32,17,18,19,20,21,22,23,24,25,26,27,28,29,30,31,32,17,18,19,20,21,22,23,24,25,26,27,28,29,30,31,32,17,18,19,20,21,22,23,24,25,26,27,28,29,30,31,32,17,18,19,20,21,22,23,24,25,26,27,28,29,30,31,32,17,18,19,20,21,22,23,24,25,26,27,28,29,30,31,32,17,18,19,20,21,22,23,24,25,26,27,28,29,30,31,32,17,18,19,20,21,22,23,24,25,26,27,28,29,30,31,32,17,18,19,20,21,22,23,24,25,26,27,28,29,30,31,32,33,34,35,36,37,38,39,40,41,42,43,44,45,46,47,48,33,34,35,36,37,38,39,40,41,42,43,44,45,46,47,48,33,34,35,36,37,38,39,40,41,42,43,44,45,46,47,48,33,34,35,36,37,38,39,40,41,42,43,44,45,46,47,48,33,34,35,36,37,38,39,40,41,42,43,44,45,46,47,48,33,34,35,36,37,38,39,40,41,42,43,44,45,46,47,48,33,34,35,36,37,38,39,40,41,42,43,44,45,46,47,48,33,34,35,36,37,38,39,40,41,42,43,44,45,46,47,48,33,34,35,36,37,38,39,40,41,42,43,44,45,46,47,48,33,34,35,36,37,38,39,40,41,42,43,44,45,46,47,48,33,34,35,36,37,38,39,40,41,42,43,44,45,46,47,48,33,34,35,36,37,38,39,40,41,42,43,44,45,46,47,48,33,34,35,36,37,38,39,40,41,42,43,44,45,46,47,48,33,34,35,36,37,38,39,40,41,42,43,44,45,46,47,48,33,34,35,36,37,38,39,40,41,42,43,44,45,46,47,48,33,34,35,36,37,38,39,40,41,42,43,44,45,46,47,48,49,50,51,52,53,54,55,56,57,58,59,60,61,62,63,64,49,50,51,52,53,54,55,56,57,58,59,60,61,62,63,64,49,50,51,52,53,54,55,56,57,58,59,60,61,62,63,64,49,50,51,52,53,54,55,56,57,58,59,60,61,62,63,64,49,50,51,52,53,54,55,56,57,58,59,60,61,62,63,64,49,50,51,52,53,54,55,56,57,58,59,60,61,62,63,64,49,50,51,52,53,54,55,56,57,58,59,60,61,62,63,64,49,50,51,52,53,54,55,56,57,58,59,60,61,62,63,64,49,50,51,52,53,54,55,56,57,58,59,60,61,62,63,64,49,50,51,52,53,54,55,56,57,58,59,60,61,62,63,64,49,50,51,52,53,54,55,56,57,58,59,60,61,62,63,64,49,50,51,52,53,54,55,56,57,58,59,60,61,62,63,64,49,50,51,52,53,54,55,56,57,58,59,60,61,62,63,64,49,50,51,52,53,54,55,56,57,58,59,60,61,62,63,64,49,50,51,52,53,54,55,56,57,58,59,60,61,62,63,64,49,50,51,52,53,54,55,56,57,58,59,60,61,62,63,64,65,66,67,68,69,70,71,72,73,74,75,76,77,78,79,80,65,66,67,68,69,70,71,72,73,74,75,76,77,78,79,80,65,66,67,68,69,70,71,72,73,74,75,76,77,78,79,80,65,66,67,68,69,70,71,72,73,74,75,76,77,78,79,80,65,66,67,68,69,70,71,72,73,74,75,76,77,78,79,80,65,66,67,68,69,70,71,72,73,74,75,76,77,78,79,80,65,66,67,68,69,70,71,72,73,74,75,76,77,78,79,80,65,66,67,68,69,70,71,72,73,74,75,76,77,78,79,80,65,66,67,68,69,70,71,72,73,74,75,76,77,78,79,80,65,66,67,68,69,70,71,72,73,74,75,76,77,78,79,80,65,66,67,68,69,70,71,72,73,74,75,76,77,78,79,80,65,66,67,68,69,70,71,72,73,74,75,76,77,78,79,80,65,66,67,68,69,70,71,72,73,74,75,76,77,78,79,80,65,66,67,68,69,70,71,72,73,74,75,76,77,78,79,80,65,66,67,68,69,70,71,72,73,74,75,76,77,78,79,80,65,66,67,68,69,70,71,72,73,74,75,76,77,78,79,80,81,82,83,84,85,86,87,88,89,90,91,92,93,94,95,96,81,82,83,84,85,86,87,88,89,90,91,92,93,94,95,96,81,82,83,84,85,86,87,88,89,90,91,92,93,94,95,96,81,82,83,84,85,86,87,88,89,90,91,92,93,94,95,96,81,82,83,84,85,86,87,88,89,90,91,92,93,94,95,96,81,82,83,84,85,86,87,88,89,90,91,92,93,94,95,96,81,82,83,84,85,86,87,88,89,90,91,92,93,94,95,96,81,82,83,84,85,86,87,88,89,90,91,92,93,94,95,96,81,82,83,84,85,86,87,88,89,90,91,92,93,94,95,96,81,82,83,84,85,86,87,88,89,90,91,92,93,94,95,96,81,82,83,84,85,86,87,88,89,90,91,92,93,94,95,96,81,82,83,84,85,86,87,88,89,90,91,92,93,94,95,96,81,82,83,84,85,86,87,88,89,90,91,92,93,94,95,96,81,82,83,84,85,86,87,88,89,90,91,92,93,94,95,96,81,82,83,84,85,86,87,88,89,90,91,92,93,94,95,96,81,82,83,84,85,86,87,88,89,90,91,92,93,94,95,96,97,98,99,100,101,102,103,104,105,106,107,108,109,110,111,112,97,98,99,100,101,102,103,104,105,106,107,108,109,110,111,112,97,98,99,100,101,102,103,104,105,106,107,108,109,110,111,112,97,98,99,100,101,102,103,104,105,106,107,108,109,110,111,112,97,98,99,100,101,102,103,104,105,106,107,108,109,110,111,112,97,98,99,100,101,102,103,104,105,106,107,108,109,110,111,112,97,98,99,100,101,102,103,104,105,106,107,108,109,110,111,112,97,98,99,100,101,102,103,104,105,106,107,108,109,110,111,112,97,98,99,100,101,102,103,104,105,106,107,108,109,110,111,112,97,98,99,100,101,102,103,104,105,106,107,108,109,110,111,112,97,98,99,100,101,102,103,104,105,106,107,108,109,110,111,112,97,98,99,100,101,102,103,104,105,106,107,108,109,110,111,112,97,98,99,100,101,102,103,104,105,106,107,108,109,110,111,112,97,98,99,100,101,102,103,104,105,106,107,108,109,110,111,112,97,98,99,100,101,102,103,104,105,106,107,108,109,110,111,112,97,98,99,100,101,102,103,104,105,106,107,108,109,110,111,112,113,114,115,116,117,118,119,120,121,122,123,124,125,126,127,128,113,114,115,116,117,118,119,120,121,122,123,124,125,126,127,128,113,114,115,116,117,118,119,120,121,122,123,124,125,126,127,128,113,114,115,116,117,118,119,120,121,122,123,124,125,126,127,128,113,114,115,116,117,118,119,120,121,122,123,124,125,126,127,128,113,114,115,116,117,118,119,120,121,122,123,124,125,126,127,128,113,114,115,116,117,118,119,120,121,122,123,124,125,126,127,128,113,114,115,116,117,118,119,120,121,122,123,124,125,126,127,128,113,114,115,116,117,118,119,120,121,122,123,124,125,126,127,128,113,114,115,116,117,118,119,120,121,122,123,124,125,126,127,128,113,114,115,116,117,118,119,120,121,122,123,124,125,126,127,128,113,114,115,116,117,118,119,120,121,122,123,124,125,126,127,128,113,114,115,116,117,118,119,120,121,122,123,124,125,126,127,128,113,114,115,116,117,118,119,120,121,122,123,124,125,126,127,128,113,114,115,116,117,118,119,120,121,122,123,124,125,126,127,128,113,114,115,116,117,118,119,120,121,122,123,124,125,126,127,128,129,130,131,132,133,134,135,136,137,138,139,140,141,142,143,144,129,130,131,132,133,134,135,136,137,138,139,140,141,142,143,144,129,130,131,132,133,134,135,136,137,138,139,140,141,142,143,144,129,130,131,132,133,134,135,136,137,138,139,140,141,142,143,144,129,130,131,132,133,134,135,136,137,138,139,140,141,142,143,144,129,130,131,132,133,134,135,136,137,138,139,140,141,142,143,144,129,130,131,132,133,134,135,136,137,138,139,140,141,142,143,144,129,130,131,132,133,134,135,136,137,138,139,140,141,142,143,144,129,130,131,132,133,134,135,136,137,138,139,140,141,142,143,144,129,130,131,132,133,134,135,136,137,138,139,140,141,142,143,144,129,130,131,132,133,134,135,136,137,138,139,140,141,142,143,144,129,130,131,132,133,134,135,136,137,138,139,140,141,142,143,144,129,130,131,132,133,134,135,136,137,138,139,140,141,142,143,144,129,130,131,132,133,134,135,136,137,138,139,140,141,142,143,144,129,130,131,132,133,134,135,136,137,138,139,140,141,142,143,144,129,130,131,132,133,134,135,136,137,138,139,140,141,142,143,144,145,146,147,148,149,150,151,152,153,154,155,156,157,158,159,160,145,146,147,148,149,150,151,152,153,154,155,156,157,158,159,160,145,146,147,148,149,150,151,152,153,154,155,156,157,158,159,160,145,146,147,148,149,150,151,152,153,154,155,156,157,158,159,160,145,146,147,148,149,150,151,152,153,154,155,156,157,158,159,160,145,146,147,148,149,150,151,152,153,154,155,156,157,158,159,160,145,146,147,148,149,150,151,152,153,154,155,156,157,158,159,160,145,146,147,148,149,150,151,152,153,154,155,156,157,158,159,160,145,146,147,148,149,150,151,152,153,154,155,156,157,158,159,160,145,146,147,148,149,150,151,152,153,154,155,156,157,158,159,160,145,146,147,148,149,150,151,152,153,154,155,156,157,158,159,160,145,146,147,148,149,150,151,152,153,154,155,156,157,158,159,160,145,146,147,148,149,150,151,152,153,154,155,156,157,158,159,160,145,146,147,148,149,150,151,152,153,154,155,156,157,158,159,160,145,146,147,148,149,150,151,152,153,154,155,156,157,158,159,160,145,146,147,148,149,150,151,152,153,154,155,156,157,158,159,160,161,162,163,164,165,166,167,168,169,170,171,172,173,174,175,176,161,162,163,164,165,166,167,168,169,170,171,172,173,174,175,176,161,162,163,164,165,166,167,168,169,170,171,172,173,174,175,176,161,162,163,164,165,166,167,168,169,170,171,172,173,174,175,176,161,162,163,164,165,166,167,168,169,170,171,172,173,174,175,176,161,162,163,164,165,166,167,168,169,170,171,172,173,174,175,176,161,162,163,164,165,166,167,168,169,170,171,172,173,174,175,176,161,162,163,164,165,166,167,168,169,170,171,172,173,174,175,176,161,162,163,164,165,166,167,168,169,170,171,172,173,174,175,176,161,162,163,164,165,166,167,168,169,170,171,172,173,174,175,176,161,162,163,164,165,166,167,168,169,170,171,172,173,174,175,176,161,162,163,164,165,166,167,168,169,170,171,172,173,174,175,176,161,162,163,164,165,166,167,168,169,170,171,172,173,174,175,176,161,162,163,164,165,166,167,168,169,170,171,172,173,174,175,176,161,162,163,164,165,166,167,168,169,170,171,172,173,174,175,176,161,162,163,164,165,166,167,168,169,170,171,172,173,174,175,176,177,178,179,180,181,182,183,184,185,186,187,188,189,190,191,192,177,178,179,180,181,182,183,184,185,186,187,188,189,190,191,192,177,178,179,180,181,182,183,184,185,186,187,188,189,190,191,192,177,178,179,180,181,182,183,184,185,186,187,188,189,190,191,192,177,178,179,180,181,182,183,184,185,186,187,188,189,190,191,192,177,178,179,180,181,182,183,184,185,186,187,188,189,190,191,192,177,178,179,180,181,182,183,184,185,186,187,188,189,190,191,192,177,178,179,180,181,182,183,184,185,186,187,188,189,190,191,192,177,178,179,180,181,182,183,184,185,186,187,188,189,190,191,192,177,178,179,180,181,182,183,184,185,186,187,188,189,190,191,192,177,178,179,180,181,182,183,184,185,186,187,188,189,190,191,192,177,178,179,180,181,182,183,184,185,186,187,188,189,190,191,192,177,178,179,180,181,182,183,184,185,186,187,188,189,190,191,192,177,178,179,180,181,182,183,184,185,186,187,188,189,190,191,192,177,178,179,180,181,182,183,184,185,186,187,188,189,190,191,192,177,178,179,180,181,182,183,184,185,186,187,188,189,190,191,192,193,194,195,196,197,198,199,200,201,202,203,204,205,206,207,208,193,194,195,196,197,198,199,200,201,202,203,204,205,206,207,208,193,194,195,196,197,198,199,200,201,202,203,204,205,206,207,208,193,194,195,196,197,198,199,200,201,202,203,204,205,206,207,208,193,194,195,196,197,198,199,200,201,202,203,204,205,206,207,208,193,194,195,196,197,198,199,200,201,202,203,204,205,206,207,208,193,194,195,196,197,198,199,200,201,202,203,204,205,206,207,208,193,194,195,196,197,198,199,200,201,202,203,204,205,206,207,208,193,194,195,196,197,198,199,200,201,202,203,204,205,206,207,208,193,194,195,196,197,198,199,200,201,202,203,204,205,206,207,208,193,194,195,196,197,198,199,200,201,202,203,204,205,206,207,208,193,194,195,196,197,198,199,200,201,202,203,204,205,206,207,208,193,194,195,196,197,198,199,200,201,202,203,204,205,206,207,208,193,194,195,196,197,198,199,200,201,202,203,204,205,206,207,208,193,194,195,196,197,198,199,200,201,202,203,204,205,206,207,208,193,194,195,196,197,198,199,200,201,202,203,204,205,206,207,208,209,210,211,212,213,214,215,216,217,218,219,220,221,222,223,224,209,210,211,212,213,214,215,216,217,218,219,220,221,222,223,224,209,210,211,212,213,214,215,216,217,218,219,220,221,222,223,224,209,210,211,212,213,214,215,216,217,218,219,220,221,222,223,224,209,210,211,212,213,214,215,216,217,218,219,220,221,222,223,224,209,210,211,212,213,214,215,216,217,218,219,220,221,222,223,224,209,210,211,212,213,214,215,216,217,218,219,220,221,222,223,224,209,210,211,212,213,214,215,216,217,218,219,220,221,222,223,224,209,210,211,212,213,214,215,216,217,218,219,220,221,222,223,224,209,210,211,212,213,214,215,216,217,218,219,220,221,222,223,224,209,210,211,212,213,214,215,216,217,218,219,220,221,222,223,224,209,210,211,212,213,214,215,216,217,218,219,220,221,222,223,224,209,210,211,212,213,214,215,216,217,218,219,220,221,222,223,224,209,210,211,212,213,214,215,216,217,218,219,220,221,222,223,224,209,210,211,212,213,214,215,216,217,218,219,220,221,222,223,224,209,210,211,212,213,214,215,216,217,218,219,220,221,222,223,224,225,226,227,228,229,230,231,232,233,234,235,236,237,238,239,240,225,226,227,228,229,230,231,232,233,234,235,236,237,238,239,240,225,226,227,228,229,230,231,232,233,234,235,236,237,238,239,240,225,226,227,228,229,230,231,232,233,234,235,236,237,238,239,240,225,226,227,228,229,230,231,232,233,234,235,236,237,238,239,240,225,226,227,228,229,230,231,232,233,234,235,236,237,238,239,240,225,226,227,228,229,230,231,232,233,234,235,236,237,238,239,240,225,226,227,228,229,230,231,232,233,234,235,236,237,238,239,240,225,226,227,228,229,230,231,232,233,234,235,236,237,238,239,240,225,226,227,228,229,230,231,232,233,234,235,236,237,238,239,240,225,226,227,228,229,230,231,232,233,234,235,236,237,238,239,240,225,226,227,228,229,230,231,232,233,234,235,236,237,238,239,240,225,226,227,228,229,230,231,232,233,234,235,236,237,238,239,240,225,226,227,228,229,230,231,232,233,234,235,236,237,238,239,240,225,226,227,228,229,230,231,232,233,234,235,236,237,238,239,240,225,226,227,228,229,230,231,232,233,234,235,236,237,238,239,240,241,242,243,244,245,246,247,248,249,250,251,252,253,254,255,256,241,242,243,244,245,246,247,248,249,250,251,252,253,254,255,256,241,242,243,244,245,246,247,248,249,250,251,252,253,254,255,256,241,242,243,244,245,246,247,248,249,250,251,252,253,254,255,256,241,242,243,244,245,246,247,248,249,250,251,252,253,254,255,256,241,242,243,244,245,246,247,248,249,250,251,252,253,254,255,256,241,242,243,244,245,246,247,248,249,250,251,252,253,254,255,256,241,242,243,244,245,246,247,248,249,250,251,252,253,254,255,256,241,242,243,244,245,246,247,248,249,250,251,252,253,254,255,256,241,242,243,244,245,246,247,248,249,250,251,252,253,254,255,256,241,242,243,244,245,246,247,248,249,250,251,252,253,254,255,256,241,242,243,244,245,246,247,248,249,250,251,252,253,254,255,256,241,242,243,244,245,246,247,248,249,250,251,252,253,254,255,256,241,242,243,244,245,246,247,248,249,250,251,252,253,254,255,256,241,242,243,244,245,246,247,248,249,250,251,252,253,254,255,256,241,242,243,244,245,246,247,248,249,250,251,252,253,254,255,256]},{"id":2,"name":"falaises_bordures","type":"tilelayer","x":0,"y":0,"width":256,"height":192,"opacity":1,"visible":true,"data":[0,0,0,0,0,0,0,0,0,0,0,0,0,0,0,0,0,0,0,0,0,0,0,0,0,0,0,0,0,0,0,0,0,0,0,0,0,0,0,0,0,0,0,0,0,0,0,0,0,0,0,0,0,0,0,0,0,0,0,0,0,0,0,0,0,0,0,0,0,0,0,0,0,0,0,0,0,0,0,0,0,0,0,0,0,0,0,0,0,0,0,0,0,0,0,0,0,0,0,0,0,0,0,0,0,0,0,0,0,0,0,0,0,0,0,0,0,0,0,0,0,0,0,0,0,0,0,0,0,0,0,0,0,0,0,0,0,0,0,0,0,0,0,0,0,0,0,0,0,0,0,0,0,0,0,0,0,0,0,0,0,0,0,0,0,0,0,0,0,0,0,0,0,0,0,0,0,0,0,0,0,0,0,0,0,0,0,0,0,0,0,0,0,0,0,0,0,0,0,0,0,0,0,0,0,0,0,0,0,0,0,0,0,0,0,0,0,0,0,0,0,0,0,0,0,0,0,0,0,0,0,0,0,0,0,0,0,0,0,0,0,0,0,0,0,0,0,0,0,0,0,0,0,0,0,0,0,0,0,0,0,0,0,0,0,0,0,0,0,0,0,0,0,0,0,0,0,0,0,0,0,0,0,0,0,0,0,0,0,0,0,0,0,0,0,0,0,0,0,0,0,0,0,0,0,0,0,0,0,0,0,0,0,0,0,0,0,0,0,0,0,0,0,0,0,0,0,0,0,0,0,0,0,0,0,0,0,0,0,0,0,0,0,0,0,0,0,0,0,0,0,0,0,0,0,0,0,0,0,0,0,0,0,0,0,0,0,0,0,0,0,0,0,0,0,0,0,0,0,0,0,0,0,0,0,0,0,0,0,0,0,0,0,0,0,0,0,0,0,0,0,0,0,0,0,0,0,0,0,0,0,0,0,0,0,0,0,0,0,0,0,0,0,0,0,0,0,0,0,0,0,0,0,0,0,0,0,0,0,0,0,0,0,0,0,0,0,0,0,0,0,0,0,0,0,0,0,0,0,0,0,0,0,0,0,0,0,0,0,0,0,0,0,0,0,0,0,0,0,0,0,0,0,0,0,0,0,0,0,0,0,0,0,0,0,0,0,0,0,0,0,0,0,0,0,0,0,0,0,0,0,0,0,0,0,0,0,0,0,0,0,0,0,0,0,0,0,0,0,0,0,0,0,0,0,0,0,0,0,0,0,0,0,0,0,0,0,0,0,0,0,0,0,0,0,0,0,0,0,0,0,0,0,0,0,0,0,0,0,0,0,0,0,0,0,0,0,0,0,0,0,0,0,0,0,0,0,0,0,0,0,0,0,0,0,0,0,0,0,0,0,0,0,0,0,0,0,0,0,0,0,0,0,0,0,0,0,0,0,0,0,0,0,0,0,0,0,0,0,0,0,0,0,0,0,0,0,0,0,0,0,0,0,0,0,0,0,0,0,0,0,0,0,0,0,0,0,0,0,0,0,0,0,0,0,0,0,0,0,0,0,0,0,0,0,0,0,0,0,0,0,0,0,0,0,0,0,0,0,0,0,0,0,0,0,0,0,0,0,0,0,0,0,0,0,0,0,0,0,0,0,0,0,0,0,0,0,0,0,0,0,0,0,0,0,0,0,0,0,0,0,0,0,0,0,0,0,0,0,0,0,0,0,0,0,0,0,0,0,0,0,0,0,0,0,0,0,0,0,0,0,0,0,0,0,0,0,0,0,0,0,0,0,0,0,0,0,0,0,0,0,0,0,0,0,0,0,0,0,0,0,0,0,0,0,0,0,0,0,0,0,0,0,0,0,0,0,0,0,0,0,0,0,0,0,0,0,0,0,0,0,0,0,0,0,0,0,0,0,0,0,0,0,0,0,0,0,0,0,0,0,0,0,0,0,0,0,0,0,0,0,0,0,0,0,0,0,0,0,0,0,0,0,0,0,0,0,0,0,0,0,0,0,0,0,0,0,0,0,0,0,0,0,0,0,0,0,0,0,0,0,0,0,0,0,0,0,0,0,0,0,0,0,0,0,0,0,0,0,0,0,0,0,0,0,0,0,0,0,0,0,0,0,0,0,0,0,0,0,0,0,0,0,0,0,0,0,0,0,0,0,0,0,0,0,0,0,0,0,0,0,0,0,0,0,0,0,0,0,0,0,0,0,0,0,0,0,0,0,0,0,0,0,0,0,0,0,0,0,0,0,0,0,0,0,0,0,0,0,0,0,0,0,0,0,0,0,0,0,0,0,0,0,0,0,0,0,0,0,0,0,0,0,0,0,0,0,0,0,0,0,0,0,0,0,0,0,0,0,0,0,0,0,0,0,0,0,0,0,0,0,0,0,0,0,0,0,0,0,0,0,0,0,0,0,0,0,0,0,0,0,0,0,0,0,0,0,0,0,0,0,0,0,0,0,0,0,0,0,0,0,0,0,0,0,0,0,0,0,0,0,0,0,0,0,0,0,0,0,0,0,0,0,0,0,0,0,0,0,0,0,0,0,0,0,0,0,0,0,0,0,0,0,0,0,0,0,0,0,0,0,0,0,0,0,0,0,0,0,0,0,0,0,0,0,0,0,0,0,0,0,0,0,0,0,0,0,0,0,0,0,0,0,0,0,0,0,0,0,0,0,0,0,0,0,0,0,0,0,0,0,0,0,0,0,0,0,0,0,0,0,0,0,0,0,0,0,0,0,0,0,0,0,0,0,0,0,0,0,0,0,0,0,0,0,0,0,0,0,0,0,0,0,0,0,0,0,0,0,0,0,0,0,0,0,0,0,0,0,0,0,0,0,0,0,0,0,0,0,0,0,0,0,0,0,0,0,0,0,0,0,0,0,0,0,0,0,0,0,0,0,0,0,0,0,0,0,0,0,0,0,0,0,0,0,0,0,0,0,0,0,0,0,0,0,0,0,0,0,0,0,0,0,0,0,0,0,0,0,0,0,0,0,0,0,0,0,0,0,0,0,0,0,0,0,0,0,0,0,0,0,0,0,0,0,0,0,0,0,0,0,0,0,0,0,0,0,0,0,0,0,0,0,0,0,0,0,0,0,0,0,0,0,0,0,0,0,0,0,0,0,0,0,0,0,0,0,0,0,0,0,0,0,0,0,0,0,0,0,0,0,0,0,0,0,0,0,0,0,0,0,0,0,0,0,0,0,0,0,0,0,0,0,0,0,0,0,0,0,0,0,0,0,0,0,0,0,0,0,0,0,0,0,0,0,0,0,0,0,0,0,0,0,0,0,0,0,0,0,0,0,0,0,0,0,0,0,0,0,0,0,0,0,0,0,0,0,0,0,0,0,0,0,0,0,0,0,0,0,0,0,0,0,0,0,0,0,0,0,0,0,0,0,0,0,0,0,0,0,0,0,0,0,0,0,0,0,0,0,0,0,0,0,0,0,0,0,0,0,0,0,0,0,0,0,0,0,0,0,0,0,0,0,0,0,0,0,0,0,0,0,0,0,0,0,0,0,0,0,0,0,0,0,0,0,0,0,0,0,0,0,0,0,0,0,0,0,0,0,0,0,0,0,0,0,0,0,0,0,0,0,0,0,0,0,0,0,0,0,0,0,0,0,0,0,0,0,0,0,0,0,0,0,0,0,0,0,0,0,0,0,0,0,0,0,0,0,0,0,0,0,0,0,0,0,0,0,0,0,0,0,0,0,0,0,0,0,0,0,0,0,0,0,0,0,0,0,0,0,0,0,0,0,0,0,0,0,0,0,0,0,0,0,0,0,0,0,0,0,0,0,0,0,0,0,0,0,0,0,0,0,0,0,0,0,0,0,0,0,0,0,0,0,0,0,0,0,0,0,0,0,0,0,0,0,0,0,0,0,0,0,0,0,0,0,0,0,0,0,0,0,0,0,0,0,0,0,0,0,0,0,0,0,0,0,0,0,0,0,0,0,0,0,0,0,0,0,0,0,0,0,0,0,0,0,0,0,0,0,0,0,0,0,0,0,0,0,0,0,0,0,0,0,0,0,0,0,0,0,0,0,0,0,0,0,0,0,0,0,0,0,0,0,0,0,0,0,0,0,0,0,0,0,0,0,0,0,0,0,0,0,0,0,0,0,0,0,0,0,0,0,0,0,0,0,0,0,0,0,0,0,0,0,0,0,0,0,0,0,0,0,0,0,0,0,0,0,0,0,0,0,0,0,0,0,0,0,0,0,0,0,0,0,0,0,0,0,0,0,0,0,0,0,0,0,0,0,0,0,0,0,0,0,0,0,0,0,0,0,0,0,0,0,0,0,0,0,0,0,0,0,0,0,0,0,0,0,0,0,0,0,0,0,0,0,0,0,0,0,0,0,0,0,0,0,0,0,0,0,0,0,0,0,0,0,0,0,0,0,0,0,0,0,0,0,0,0,0,0,0,0,0,0,0,0,0,0,0,0,0,0,0,0,0,0,0,0,0,0,0,0,0,0,0,0,0,0,0,0,0,0,0,0,0,0,0,0,0,0,0,0,0,0,0,0,0,0,0,0,0,0,0,0,0,0,0,0,0,0,0,0,0,0,0,0,0,0,0,0,0,0,0,0,0,0,0,0,0,0,0,0,0,0,0,0,0,0,0,0,0,0,0,0,0,0,0,0,0,0,0,0,0,0,0,0,0,0,0,0,0,0,0,0,0,0,0,0,0,0,0,0,0,0,0,0,0,0,0,0,0,0,0,0,0,0,0,0,0,0,0,0,0,0,0,0,0,0,0,0,0,0,0,0,0,0,0,0,0,0,0,0,0,0,0,0,0,0,0,0,0,0,0,0,0,0,0,0,0,0,0,0,0,0,0,0,0,0,0,0,0,0,0,0,0,0,0,0,0,0,0,0,0,0,0,0,0,0,0,0,0,0,0,0,0,0,0,0,0,0,0,0,0,0,0,0,0,0,0,0,0,0,0,0,0,0,0,0,0,0,0,0,0,0,0,0,0,0,0,0,0,0,0,0,0,0,0,0,0,0,0,0,0,0,0,0,0,0,0,0,0,0,0,0,0,0,0,0,0,0,0,0,0,0,0,0,0,0,0,0,0,0,0,0,0,0,0,0,0,0,0,0,0,0,0,0,0,0,0,0,0,0,0,0,0,0,0,0,0,0,0,0,0,0,0,0,0,0,0,0,0,0,0,0,0,0,0,0,0,0,0,0,0,0,0,0,0,0,0,0,0,0,0,0,0,0,0,0,0,0,0,0,0,0,0,0,0,0,0,0,0,0,0,0,0,0,0,0,0,0,0,0,0,0,0,0,0,0,0,0,0,0,0,0,0,0,0,0,0,0,0,0,0,0,0,0,0,0,0,0,0,0,0,0,0,0,0,0,0,0,0,0,0,0,0,0,0,0,0,0,0,0,0,0,0,0,0,0,0,0,0,0,0,0,0,0,0,0,0,0,0,0,0,0,0,0,0,0,0,0,0,0,0,0,0,0,0,0,0,0,0,0,0,0,0,0,0,0,0,0,0,0,0,0,0,0,0,0,0,0,0,0,0,0,0,0,0,0,0,0,0,0,0,0,0,0,0,0,0,0,0,0,0,0,0,0,0,0,0,0,0,0,0,0,0,0,0,0,0,0,0,0,0,0,0,0,0,0,0,0,0,0,0,0,0,0,0,0,0,0,0,0,0,0,0,0,0,0,0,0,0,0,0,0,0,0,0,0,0,0,0,0,0,0,0,0,0,0,0,0,0,0,0,0,0,0,0,0,0,0,0,0,0,0,0,0,0,0,0,0,0,0,0,0,0,0,0,0,0,0,0,0,0,0,0,0,0,0,0,0,0,0,0,0,0,0,0,0,0,0,0,0,0,0,0,0,0,0,0,0,0,0,0,0,0,0,0,0,0,0,0,0,0,0,0,0,0,0,0,0,0,0,0,0,0,0,0,0,0,0,0,0,0,0,0,0,0,0,0,0,0,0,0,0,0,0,0,0,0,0,0,0,0,0,0,0,0,0,0,0,0,0,0,0,0,0,0,0,0,0,0,0,0,0,0,0,0,0,0,0,0,0,0,0,0,0,0,0,0,0,0,0,0,0,0,0,0,0,0,0,0,0,0,0,0,0,0,0,0,0,0,0,0,0,0,0,0,0,0,0,0,0,0,0,0,0,0,0,0,0,0,0,0,0,0,0,0,0,0,0,0,0,0,0,0,0,0,0,0,0,0,0,0,0,0,0,0,0,0,0,0,0,0,0,0,0,0,0,0,0,0,0,0,0,0,0,0,0,0,0,0,0,0,0,0,0,0,0,0,0,0,0,0,0,0,0,0,0,0,0,0,0,0,0,0,0,0,0,0,0,0,0,0,0,0,0,0,0,0,0,0,0,0,0,0,0,0,0,0,0,0,0,0,0,0,0,0,0,0,0,0,0,0,0,0,0,0,0,0,0,0,0,0,0,0,0,0,0,0,0,0,0,0,0,0,0,0,0,0,0,0,0,0,0,0,0,0,0,0,0,0,0,0,0,0,0,0,0,0,0,0,0,0,0,0,0,0,0,0,0,0,0,0,0,0,0,0,0,0,0,0,0,0,0,0,0,0,0,0,0,0,0,0,0,0,0,0,0,0,0,0,0,0,0,0,0,0,0,0,0,0,0,0,0,0,0,0,0,0,0,0,0,0,0,0,0,0,0,0,0,0,0,0,0,0,0,0,0,0,0,0,0,0,0,0,0,0,0,0,0,0,0,0,0,0,0,0,0,0,0,0,0,0,0,0,0,0,0,0,0,0,0,0,0,0,0,0,0,0,0,0,0,0,0,0,0,0,0,0,0,0,0,0,0,0,0,0,0,0,0,0,0,0,0,0,0,0,0,0,0,0,0,0,0,0,0,0,0,0,0,0,0,0,0,0,0,0,0,0,0,0,0,0,0,0,0,0,0,0,0,0,0,0,0,0,0,0,0,0,0,0,0,0,0,0,0,0,0,0,0,0,0,0,0,0,0,0,0,0,0,0,0,0,0,0,0,0,0,0,0,0,0,0,0,0,0,0,0,0,0,0,0,0,0,0,0,0,0,0,0,0,0,0,0,0,0,0,0,0,0,0,0,0,0,0,0,0,0,0,0,0,0,0,0,0,0,0,0,0,0,0,0,0,0,0,0,0,0,0,0,0,0,0,0,0,0,0,0,0,0,0,0,0,0,0,0,0,0,0,0,0,0,0,0,0,0,0,0,0,0,0,0,0,0,0,0,0,0,0,0,0,0,0,0,0,0,0,0,0,0,0,0,0,0,0,0,0,0,0,0,0,0,0,0,0,0,0,0,0,0,0,0,0,0,0,0,0,0,0,0,0,0,0,0,0,0,0,0,0,0,0,0,0,0,0,0,0,0,0,0,0,0,0,0,0,0,0,0,0,0,0,0,0,0,0,0,0,0,0,0,0,0,0,0,0,0,0,0,0,0,0,0,0,0,0,0,0,0,0,0,0,0,0,0,0,0,0,0,0,0,0,0,0,0,0,0,0,0,0,0,0,0,0,0,0,0,0,0,0,0,0,0,0,0,0,0,0,0,0,0,0,0,0,0,0,0,0,0,0,0,0,0,0,0,0,0,0,0,0,0,0,0,0,0,0,0,0,0,0,0,0,0,0,0,0,0,0,0,0,0,0,0,0,0,0,0,0,0,0,0,0,0,0,0,0,0,0,0,0,0,0,0,0,0,0,0,0,0,0,0,0,0,0,0,0,0,0,0,0,0,0,0,0,0,0,0,0,0,0,0,0,0,0,0,0,0,0,0,0,0,0,0,0,0,0,0,0,0,0,0,0,0,0,0,0,0,0,0,0,0,0,0,0,0,0,0,0,0,0,0,0,0,0,0,0,0,0,0,0,0,0,0,0,0,0,0,0,0,0,0,0,0,0,0,0,0,0,0,0,0,0,0,0,0,0,0,0,0,0,0,0,0,0,0,0,0,0,0,0,0,0,0,0,0,0,0,0,0,0,0,0,0,0,0,0,0,0,0,0,0,0,0,0,0,0,0,0,0,0,0,0,0,0,0,0,0,0,0,0,0,0,0,0,0,0,0,0,0,0,0,0,0,0,0,0,0,0,0,0,0,0,0,0,0,0,0,0,0,0,0,0,0,0,0,0,0,0,0,0,0,0,0,0,0,0,0,0,0,0,0,0,0,0,0,0,0,0,0,0,0,0,0,0,0,0,0,0,0,0,0,0,0,0,0,0,0,0,0,0,0,0,0,0,0,0,0,0,0,0,0,0,0,0,0,0,0,0,0,0,0,0,0,0,0,0,0,0,0,0,0,0,0,0,0,0,0,0,0,0,0,0,0,0,0,0,0,0,0,0,0,0,0,0,0,0,0,0,0,0,0,0,0,0,0,0,0,0,0,0,0,0,0,0,0,0,0,0,0,0,0,0,0,0,0,0,0,0,0,0,0,0,0,0,0,0,0,0,0,0,0,0,0,0,0,0,0,0,0,0,0,0,0,0,0,0,0,0,0,0,0,0,0,0,0,0,0,0,0,0,0,0,0,0,0,0,0,0,0,0,0,0,0,0,0,0,0,0,0,0,0,0,0,0,0,0,0,0,0,0,0,0,0,0,0,0,0,0,0,0,0,0,0,0,0,0,0,0,0,0,0,0,0,0,0,0,0,0,0,0,0,0,0,0,0,0,0,0,0,0,0,0,0,0,0,0,0,0,0,0,0,0,0,0,0,0,0,0,0,0,0,0,0,0,0,0,0,0,0,0,0,0,0,0,0,0,0,0,0,0,0,0,0,0,0,0,0,0,0,0,0,0,0,0,0,0,0,0,0,0,0,0,0,0,0,0,0,0,0,0,0,0,0,0,0,0,0,0,0,0,0,0,0,0,0,0,0,0,0,0,0,0,0,0,0,0,0,0,0,0,0,0,0,0,0,0,0,0,0,0,0,0,0,0,0,0,0,0,0,0,0,0,0,0,0,0,0,0,0,0,0,0,0,0,0,0,0,0,0,0,0,0,0,0,0,0,0,0,0,0,0,0,0,0,0,0,0,0,0,0,0,0,0,0,0,0,0,0,0,0,0,0,0,0,0,0,0,0,0,0,0,0,0,0,0,0,0,0,0,0,0,0,0,0,0,0,0,0,0,0,0,0,0,0,0,0,0,0,0,0,0,0,0,0,0,0,0,0,0,0,0,0,0,0,0,0,0,0,0,0,0,0,0,0,0,0,0,0,0,0,0,0,0,0,0,0,0,0,0,0,0,0,0,0,0,0,0,0,0,0,0,0,0,0,0,0,0,0,0,0,0,0,0,0,0,0,0,0,0,0,0,0,0,0,0,0,0,0,0,0,0,0,0,0,0,0,0,0,0,0,0,0,0,0,0,0,0,0,0,0,0,0,0,0,0,0,0,0,0,0,0,0,0,0,0,0,0,0,0,0,0,0,0,0,0,0,0,0,0,0,0,0,0,0,0,0,0,0,0,0,0,0,0,0,0,0,0,0,0,0,0,0,0,0,0,0,0,0,0,0,0,0,0,0,0,0,0,0,0,0,0,0,0,0,0,0,0,0,0,0,0,0,0,0,0,0,0,0,0,0,0,0,0,0,0,0,0,0,0,0,0,0,0,0,0,0,0,0,0,0,0,0,0,0,0,0,0,0,0,0,0,0,0,0,0,0,0,0,0,0,0,0,0,0,0,0,0,0,0,0,0,0,0,0,0,0,0,0,0,0,0,0,0,0,0,0,0,0,0,0,0,0,0,0,0,0,0,0,0,0,0,0,0,0,0,0,0,0,0,0,0,0,0,0,0,0,0,0,0,0,0,0,0,0,0,0,0,0,0,0,0,0,0,0,0,0,0,0,0,0,0,0,0,0,0,0,0,0,0,0,0,0,0,0,0,0,0,0,0,0,0,0,0,0,0,0,0,0,0,0,0,0,0,0,0,0,0,0,0,0,0,0,0,0,0,0,0,0,0,0,0,0,0,0,0,0,0,0,0,0,0,0,0,0,0,0,0,0,0,0,0,0,0,0,0,0,0,0,0,0,0,0,0,0,0,0,0,0,0,0,0,0,0,0,0,0,0,0,0,0,0,0,0,0,0,0,0,0,0,0,0,0,0,0,0,0,0,0,0,0,0,0,0,0,0,0,0,0,0,0,0,0,0,0,0,0,0,0,0,0,0,0,0,0,0,0,0,0,0,0,0,0,0,0,0,0,0,0,0,0,0,0,0,0,0,0,0,0,0,0,0,0,0,0,0,0,0,0,0,0,0,0,0,0,0,0,0,0,0,0,0,0,0,0,0,0,0,0,0,0,0,0,0,0,0,0,0,0,0,0,0,0,0,0,0,0,0,0,0,0,0,0,0,0,0,0,0,0,0,0,0,0,0,0,0,0,0,0,0,0,0,0,0,0,0,0,0,0,0,0,0,0,0,0,0,0,0,0,0,0,0,0,0,0,0,0,0,0,0,0,0,0,0,0,0,0,0,0,0,0,0,0,0,0,0,0,0,0,0,0,0,0,0,0,0,0,0,0,0,0,0,0,0,0,0,0,0,0,0,0,0,0,0,0,0,0,0,0,0,0,0,0,0,0,0,0,0,0,0,0,0,0,0,0,0,0,0,0,0,0,0,0,0,0,0,0,0,0,0,0,0,0,0,0,0,0,0,0,0,0,0,0,0,0,0,0,0,0,0,0,0,0,0,0,0,0,0,0,0,0,0,0,0,0,0,0,0,0,0,0,0,0,0,0,0,0,0,0,0,0,0,0,0,0,0,0,0,0,0,0,0,0,0,0,0,0,0,0,0,0,0,0,0,0,0,0,0,0,0,0,0,0,0,0,0,0,0,0,0,0,0,0,0,0,0,0,0,0,0,0,0,0,0,0,0,0,0,0,0,0,0,0,0,0,0,0,0,0,0,0,0,0,0,0,0,0,0,0,0,0,0,0,0,0,0,0,0,0,0,0,0,0,0,0,0,0,0,0,0,0,0,0,0,0,0,0,0,0,0,0,0,0,0,0,0,0,0,0,0,0,0,0,0,0,0,0,0,0,0,0,0,0,0,0,0,0,0,0,0,0,0,0,0,0,0,0,0,0,0,0,0,0,0,0,0,0,0,0,0,0,0,0,0,0,0,0,0,0,0,0,0,0,0,0,0,0,0,0,0,0,0,0,0,0,0,0,0,0,0,0,0,0,0,0,0,0,0,0,0,0,0,0,0,0,0,0,0,0,0,0,0,0,0,0,0,0,0,0,0,0,0,0,0,0,0,0,0,0,0,0,0,0,0,0,0,0,0,0,0,0,0,0,0,0,0,0,0,0,0,0,0,0,0,0,0,0,0,0,0,0,0,0,0,0,0,0,0,0,0,0,0,0,0,0,0,0,0,0,0,0,0,0,0,0,0,0,0,0,0,0,0,0,0,0,0,0,0,0,0,0,0,0,0,0,0,0,0,0,0,0,0,0,0,0,0,0,0,0,0,0,0,0,0,0,0,0,0,0,0,0,0,0,0,0,0,0,0,0,0,0,0,0,0,0,0,0,0,0,0,0,0,0,0,0,0,0,0,0,0,0,0,0,0,0,0,0,0,0,0,0,0,0,0,0,0,0,0,0,0,0,0,0,0,0,0,0,0,0,0,0,0,0,0,0,0,0,0,0,0,0,0,0,0,0,0,0,0,0,0,0,0,0,0,0,0,0,0,0,0,0,0,0,0,0,0,0,0,0,0,0,0,0,0,0,0,0,0,0,0,0,0,0,0,0,0,0,0,0,0,0,0,0,0,0,0,0,0,0,0,0,0,0,0,0,0,0,0,0,0,0,0,0,0,0,0,0,0,0,0,0,0,0,0,0,0,0,0,0,0,0,0,0,0,0,0,0,0,0,0,0,0,0,0,0,0,0,0,0,0,0,0,0,0,0,0,0,0,0,0,0,0,0,0,0,0,0,0,0,0,0,0,0,0,0,0,0,0,0,0,0,0,0,0,0,0,0,0,0,0,0,0,0,0,0,0,0,0,0,0,0,0,0,0,0,0,0,0,0,0,0,0,0,0,0,0,0,0,0,0,0,0,0,0,0,0,0,0,0,0,0,0,0,0,0,0,0,0,0,0,0,0,0,0,0,0,0,0,0,0,0,0,0,0,0,0,0,0,0,0,0,0,0,0,0,0,0,0,0,0,0,0,0,0,0,0,0,0,0,0,0,0,0,0,0,0,0,0,0,0,0,0,0,0,0,0,0,0,0,0,0,0,0,0,0,0,0,0,0,0,0,0,0,0,0,0,0,0,0,0,0,0,0,0,0,0,0,0,0,0,0,0,0,0,0,0,0,0,0,0,0,0,0,0,0,0,0,0,0,0,0,0,0,0,0,0,0,0,0,0,0,0,0,0,0,0,0,0,0,0,0,0,0,0,0,0,0,0,0,0,0,0,0,0,0,0,0,0,0,0,0,0,0,0,0,0,0,0,0,0,0,0,0,0,0,0,0,0,0,0,0,0,0,0,0,0,0,0,0,0,0,0,0,0,0,0,0,0,0,0,0,0,0,0,0,0,0,0,0,0,0,0,0,0,0,0,0,0,0,0,0,0,0,0,0,0,0,0,0,0,0,0,0,0,0,0,0,0,0,0,0,0,0,0,0,0,0,0,0,0,0,0,0,0,0,0,0,0,0,0,0,0,0,0,0,0,0,0,0,0,0,0,0,0,0,0,0,0,0,0,0,0,0,0,0,0,0,0,0,0,0,0,0,0,0,0,0,0,0,0,0,0,0,0,0,0,0,0,0,0,0,0,0,0,0,0,0,0,0,0,0,0,0,0,0,0,0,0,0,0,0,0,0,0,0,0,0,0,0,0,0,0,0,0,0,0,0,0,0,0,0,0,0,0,0,0,0,0,0,0,0,0,0,0,0,0,0,0,0,0,0,0,0,0,0,0,0,0,0,0,0,0,0,0,0,0,0,0,0,0,0,0,0,0,0,0,0,0,0,0,0,0,0,0,0,0,0,0,0,0,0,0,0,0,0,0,0,0,0,0,0,0,0,0,0,0,0,0,0,0,0,0,0,0,0,0,0,0,0,0,0,0,0,0,0,0,0,0,0,0,0,0,0,0,0,0,0,0,0,0,0,0,0,0,0,0,0,0,0,0,0,0,0,0,0,0,0,0,0,0,0,0,0,0,0,0,0,0,0,0,0,0,0,0,0,0,0,0,0,0,0,0,0,0,0,0,0,0,0,0,0,0,0,0,0,0,0,0,0,0,0,0,0,0,0,0,0,0,0,0,0,0,0,0,0,0,0,0,0,0,0,0,0,0,0,0,0,0,0,0,0,0,0,0,0,0,0,0,0,0,0,0,0,0,0,0,0,0,0,0,0,0,0,0,0,0,0,0,0,0,0,0,0,0,0,0,0,0,0,0,0,0,0,0,0,0,0,0,0,0,0,0,0,0,0,0,0,0,0,0,0,0,0,0,0,0,0,0,0,0,0,0,0,0,0,0,0,0,0,0,0,0,0,0,0,0,0,0,0,0,0,0,0,0,0,0,0,0,0,0,0,0,0,0,0,0,0,0,0,0,0,0,0,0,0,0,0,0,0,0,0,0,0,0,0,0,0,0,0,0,0,0,0,0,0,0,0,0,0,0,0,0,0,0,0,0,0,0,0,0,0,0,0,0,0,0,0,0,0,0,0,0,0,0,0,0,0,0,0,0,0,0,0,0,0,0,0,0,0,0,0,0,0,0,0,0,0,0,0,0,0,0,0,0,0,0,0,0,0,0,0,0,0,0,0,0,0,0,0,0,0,0,0,0,0,0,0,0,0,0,0,0,0,0,0,0,0,0,0,0,0,0,0,0,0,0,0,0,0,0,0,0,0,0,0,0,0,0,0,0,0,0,0,0,0,0,0,0,0,0,0,0,0,0,0,0,0,0,0,0,0,0,0,0,0,0,0,0,0,0,0,0,0,0,0,0,0,0,0,0,0,0,0,0,0,0,0,0,0,0,0,0,0,0,0,0,0,0,0,0,0,0,0,0,0,0,0,0,0,0,0,0,0,0,0,0,0,0,0,0,0,0,0,0,0,0,0,0,0,0,0,0,0,0,0,0,0,0,0,0,0,0,0,0,0,0,0,0,0,0,0,0,0,0,0,0,0,0,0,0,0,0,0,0,0,0,0,0,0,0,0,0,0,0,0,0,0,0,0,0,0,0,0,0,0,0,0,0,0,0,0,0,0,0,0,0,0,0,0,0,0,0,0,0,0,0,0,0,0,0,0,0,0,0,0,0,0,0,0,0,0,0,0,0,0,0,0,0,0,0,0,0,0,0,0,0,0,0,0,0,0,0,0,0,0,0,0,0,0,0,0,0,0,0,0,0,0,0,0,0,0,0,0,0,0,0,0,0,0,0,0,0,0,0,0,0,0,0,0,0,0,0,0,0,0,0,0,0,0,0,0,0,0,0,0,0,0,0,0,0,0,0,0,0,0,0,0,0,0,0,0,0,0,0,0,0,0,0,0,0,0,0,0,0,0,0,0,0,0,0,0,0,0,0,0,0,0,0,0,0,0,0,0,0,0,0,0,0,0,0,0,0,0,0,0,0,0,0,0,0,0,0,0,0,0,0,0,0,0,0,0,0,0,0,0,0,0,0,0,0,0,0,0,0,0,0,0,0,0,0,0,0,0,0,0,0,0,0,0,0,0,0,0,0,0,0,0,0,0,0,0,0,0,0,0,0,0,0,0,0,0,0,0,0,0,0,0,0,0,0,0,0,0,0,0,0,0,0,0,0,0,0,0,0,0,0,0,0,0,0,0,0,0,0,0,0,0,0,0,0,0,0,0,0,0,0,0,0,0,0,0,0,0,0,0,0,0,0,0,0,0,0,0,0,0,0,0,0,0,0,0,0,0,0,0,0,0,0,0,0,0,0,0,0,0,0,0,0,0,0,0,0,0,0,0,0,0,0,0,0,0,0,0,0,0,0,0,0,0,0,0,0,0,0,0,0,0,0,0,0,0,0,0,0,0,0,0,0,0,0,0,0,0,0,0,0,0,0,0,0,0,0,0,0,0,0,0,0,0,0,0,0,0,0,0,0,0,0,0,0,0,0,0,0,0,0,0,0,0,0,0,0,0,0,0,0,0,0,0,0,0,0,0,0,0,0,0,0,0,0,0,0,0,0,0,0,0,0,0,0,0,0,0,0,0,0,0,0,0,0,0,0,0,0,0,0,0,0,0,0,0,0,0,0,0,0,0,0,0,0,0,0,0,0,0,0,0,0,0,0,0,0,0,0,0,0,0,0,0,0,0,0,0,0,0,0,0,0,0,0,0,0,0,0,0,0,0,0,0,0,0,0,0,0,0,0,0,0,0,0,0,0,0,0,0,0,0,0,0,0,0,0,0,0,0,0,0,0,0,0,0,0,0,0,0,0,0,0,0,0,0,0,0,0,0,0,0,0,0,0,0,0,0,0,0,0,0,0,0,0,0,0,0,0,0,0,0,0,0,0,0,0,0,0,0,0,0,0,0,0,0,0,0,0,0,0,0,0,0,0,0,0,0,0,0,0,0,0,0,0,0,0,0,0,0,0,0,0,0,0,0,0,0,0,0,0,0,0,0,0,0,0,0,0,0,0,0,0,0,0,0,0,0,0,0,0,0,0,0,0,0,0,0,0,0,0,0,0,0,0,0,0,0,0,0,0,0,0,0,0,0,0,0,0,0,0,0,0,0,0,0,0,0,0,0,0,0,0,0,0,0,0,0,0,0,0,0,0,0,0,0,0,0,0,0,0,0,0,0,0,0,0,0,0,0,0,0,0,0,0,0,0,0,0,0,0,0,0,0,0,0,0,0,0,0,0,0,0,0,0,0,0,0,0,0,0,0,0,0,0,0,0,0,0,0,0,0,0,0,0,0,0,0,0,0,0,0,0,0,0,0,0,0,0,0,0,0,0,0,0,0,0,0,0,0,0,0,0,0,0,0,0,0,0,0,0,0,0,0,0,0,0,0,0,0,0,0,0,0,0,0,0,0,0,0,0,0,0,0,0,0,0,0,0,0,0,0,0,0,0,0,0,0,0,0,0,0,0,0,0,0,0,0,0,0,0,0,0,0,0,0,0,0,0,0,0,0,0,0,0,0,0,0,0,0,0,0,0,0,0,0,0,0,0,0,0,0,0,0,0,0,0,0,0,0,0,0,0,0,0,0,0,0,0,0,0,0,0,0,0,0,0,0,0,0,0,0,0,0,0,0,0,0,0,0,0,0,0,0,0,0,0,0,0,0,0,0,0,0,0,0,0,0,0,0,0,0,0,0,0,0,0,0,0,0,0,0,0,0,0,0,0,0,0,0,0,0,0,0,0,0,0,0,0,0,0,0,0,0,0,0,0,0,0,0,0,0,0,0,0,0,0,0,0,0,0,0,0,0,0,0,0,0,0,0,0,0,0,0,0,0,0,0,0,0,0,0,0,0,0,0,0,0,0,0,0,0,0,0,0,0,0,0,0,0,0,0,0,0,0,0,0,0,0,0,0,0,0,0,0,0,0,0,0,0,0,0,0,0,0,0,0,0,0,0,0,0,0,0,0,0,0,0,0,0,0,0,0,0,0,0,0,0,0,0,0,0,0,0,0,0,0,0,0,0,0,0,0,0,0,0,0,0,0,0,0,0,0,0,0,0,0,0,0,0,0,0,0,0,0,0,0,0,0,0,0,0,0,0,0,0,0,0,0,0,0,0,0,0,0,0,0,0,0,0,0,0,0,0,0,0,0,0,0,0,0,0,0,0,0,0,0,0,0,0,0,0,0,0,0,0,0,0,0,0,0,0,0,0,0,0,0,0,0,0,0,0,0,0,0,0,0,0,0,0,0,0,0,0,0,0,0,0,0,0,0,0,0,0,0,0,0,0,0,0,0,0,0,0,0,0,0,0,0,0,0,0,0,0,0,0,0,0,0,0,0,0,0,0,0,0,0,0,0,0,0,0,0,0,0,0,0,0,0,0,0,0,0,0,0,0,0,0,0,0,0,0,0,0,0,0,0,0,0,0,0,0,0,0,0,0,0,0,0,0,0,0,0,0,0,0,0,0,0,0,0,0,0,0,0,0,0,0,0,0,0,0,0,0,0,0,0,0,0,0,0,0,0,0,0,0,0,0,0,0,0,0,0,0,0,0,0,0,0,0,0,0,0,0,0,0,0,0,0,0,0,0,0,0,0,0,0,0,0,0,0,0,0,0,0,0,0,0,0,0,0,0,0,0,0,0,0,0,0,0,0,0,0,0,0,0,0,0,0,0,0,0,0,0,0,0,0,0,0,0,0,0,0,0,0,0,0,0,0,0,0,0,0,0,0,0,0,0,0,0,0,0,0,0,0,0,0,0,0,0,0,0,0,0,0,0,0,0,0,0,0,0,0,0,0,0,0,0,0,0,0,0,0,0,0,0,0,0,0,0,0,0,0,0,0,0,0,0,0,0,0,0,0,0,0,0,0,0,0,0,0,0,0,0,0,0,0,0,0,0,0,0,0,0,0,0,0,0,0,0,0,0,0,0,0,0,0,0,0,0,0,0,0,0,0,0,0,0,0,0,0,0,0,0,0,0,0,0,0,0,0,0,0,0,0,0,0,0,0,0,0,0,0,0,0,0,0,0,0,0,0,0,0,0,0,0,0,0,0,0,0,0,0,0,0,0,0,0,0,0,0,0,0,0,0,0,0,0,0,0,0,0,0,0,0,0,0,0,0,0,0,0,0,0,0,0,0,0,0,0,0,0,0,0,0,0,0,0,0,0,0,0,0,0,0,0,0,0,0,0,0,0,0,0,0,0,0,0,0,0,0,0,0,0,0,0,0,0,0,0,0,0,0,0,0,0,0,0,0,0,0,0,0,0,0,0,0,0,0,0,0,0,0,0,0,0,0,0,0,0,0,0,0,0,0,0,0,0,0,0,0,0,0,0,0,0,0,0,0,0,0,0,0,0,0,0,0,0,0,0,0,0,0,0,0,0,0,0,0,0,0,0,0,0,0,0,0,0,0,0,0,0,0,0,0,0,0,0,0,0,0,0,0,0,0,0,0,0,0,0,0,0,0,0,0,0,0,0,0,0,0,0,0,0,0,0,0,0,0,0,0,0,0,0,0,0,0,0,0,0,0,0,0,0,0,0,0,0,0,0,0,0,0,0,0,0,0,0,0,0,0,0,0,0,0,0,0,0,0,0,0,0,0,0,0,0,0,0,0,0,0,0,0,0,0,0,0,0,0,0,0,0,0,0,0,0,0,0,0,0,0,0,0,0,0,0,0,0,0,0,0,0,0,0,0,0,0,0,0,0,0,0,0,0,0,0,0,0,0,0,0,0,0,0,0,0,0,0,0,0,0,0,0,0,0,0,0,0,0,0,0,0,0,0,0,0,0,0,0,0,0,0,0,0,0,0,0,0,0,0,0,0,0,0,0,0,0,0,0,0,0,0,0,0,0,0,0,0,0,0,0,0,0,0,0,0,0,0,0,0,0,0,0,0,0,0,0,0,0,0,0,0,0,0,0,0,0,0,0,0,0,0,0,0,0,0,0,0,0,0,0,0,0,0,0,0,0,0,0,0,0,0,0,0,0,0,0,0,0,0,0,0,0,0,0,0,0,0,0,0,0,0,0,0,0,0,0,0,0,0,0,0,0,0,0,0,0,0,0,0,0,0,0,0,0,0,0,0,0,0,0,0,0,0,0,0,0,0,0,0,0,0,0,0,0,0,0,0,0,0,0,0,0,0,0,0,0,0,0,0,0,0,0,0,0,0,0,0,0,0,0,0,0,0,0,0,0,0,0,0,0,0,0,0,0,0,0,0,0,0,0,0,0,0,0,0,0,0,0,0,0,0,0,0,0,0,0,0,0,0,0,0,0,0,0,0,0,0,0,0,0,0,0,0,0,0,0,0,0,0,0,0,0,0,0,0,0,0,0,0,0,0,0,0,0,0,0,0,0,0,0,0,0,0,0,0,0,0,0,0,0,0,0,0,0,0,0,0,0,0,0,0,0,0,0,0,0,0,0,0,0,0,0,0,0,0,0,0,0,0,0,0,0,0,0,0,0,0,0,0,0,0,0,0,0,0,0,0,0,0,0,0,0,0,0,0,0,0,0,0,0,0,0,0,0,0,0,0,0,0,0,0,0,0,0,0,0,0,0,0,0,0,0,0,0,0,0,0,0,0,0,0,0,0,0,0,0,0,0,0,0,0,0,0,0,0,0,0,0,0,0,0,0,0,0,0,0,0,0,0,0,0,0,0,0,0,0,0,0,0,0,0,0,0,0,0,0,0,0,0,0,0,0,0,0,0,0,0,0,0,0,0,0,0,0,0,0,0,0,0,0,0,0,0,0,0,0,0,0,0,0,0,0,0,0,0,0,0,0,0,0,0,0,0,0,0,0,0,0,0,0,0,0,0,0,0,0,0,0,0,0,0,0,0,0,0,0,0,0,0,0,0,0,0,0,0,0,0,0,0,0,0,0,0,0,0,0,0,0,0,0,0,0,0,0,0,0,0,0,0,0,0,0,0,0,0,0,0,0,0,0,0,0,0,0,0,0,0,0,0,0,0,0,0,0,0,0,0,0,0,0,0,0,0,0,0,0,0,0,0,0,0,0,0,0,0,0,0,0,0,0,0,0,0,0,0,0,0,0,0,0,0,0,0,0,0,0,0,0,0,0,0,0,0,0,0,0,0,0,0,0,0,0,0,0,0,0,0,0,0,0,0,0,0,0,0,0,0,0,0,0,0,0,0,0,0,0,0,0,0,0,0,0,0,0,0,0,0,0,0,0,0,0,0,0,0,0,0,0,0,0,0,0,0,0,0,0,0,0,0,0,0,0,0,0,0,0,0,0,0,0,0,0,0,0,0,0,0,0,0,0,0,0,0,0,0,0,0,0,0,0,0,0,0,0,0,0,0,0,0,0,0,0,0,0,0,0,0,0,0,0,0,0,0,0,0,0,0,0,0,0,0,0,0,0,0,0,0,0,0,0,0,0,0,0,0,0,0,0,0,0,0,0,0,0,0,0,0,0,0,0,0,0,0,0,0,0,0,0,0,0,0,0,0,0,0,0,0,0,0,0,0,0,0,0,0,0,0,0,0,0,0,0,0,0,0,0,0,0,0,0,0,0,0,0,0,0,0,0,0,0,0,0,0,0,0,0,0,0,0,0,0,0,0,0,0,0,0,0,0,0,0,0,0,0,0,0,0,0,0,0,0,0,0,0,0,0,0,0,0,0,0,0,0,0,0,0,0,0,0,0,0,0,0,0,0,0,0,0,0,0,0,0,0,0,0,0,0,0,0,0,0,0,0,0,0,0,0,0,0,0,0,0,0,0,0,0,0,0,0,0,0,0,0,0,0,0,0,0,0,0,0,0,0,0,0,0,0,0,0,0,0,0,0,0,0,0,0,0,0,0,0,0,0,0,0,0,0,0,0,0,0,0,0,0,0,0,0,0,0,0,0,0,0,0,0,0,0,0,0,0,0,0,0,0,0,0,0,0,0,0,0,0,0,0,0,0,0,0,0,0,0,0,0,0,0,0,0,0,0,0,0,0,0,0,0,0,0,0,0,0,0,0,0,0,0,0,0,0,0,0,0,0,0,0,0,0,0,0,0,0,0,0,0,0,0,0,0,0,0,0,0,0,0,0,0,0,0,0,0,0,0,0,0,0,0,0,0,0,0,0,0,0,0,0,0,0,0,0,0,0,0,0,0,0,0,0,0,0,0,0,0,0,0,0,0,0,0,0,0,0,0,0,0,0,0,0,0,0,0,0,0,0,0,0,0,0,0,0,0,0,0,0,0,0,0,0,0,0,0,0,0,0,0,0,0,0,0,0,0,0,0,0,0,0,0,0,0,0,0,0,0,0,0,0,0,0,0,0,0,0,0,0,0,0,0,0,0,0,0,0,0,0,0,0,0,0,0,0,0,0,0,0,0,0,0,0,0,0,0,0,0,0,0,0,0,0,0,0,0,0,0,0,0,0,0,0,0,0,0,0,0,0,0,0,0,0,0,0,0,0,0,0,0,0,0,0,0,0,0,0,0,0,0,0,0,0,0,0,0,0,0,0,0,0,0,0,0,0,0,0,0,0,0,0,0,0,0,0,0,0,0,0,0,0,0,0,0,0,0,0,0,0,0,0,0,0,0,0,0,0,0,0,0,0,0,0,0,0,0,0,0,0,0,0,0,0,0,0,0,0,0,0,0,0,0,0,0,0,0,0,0,0,0,0,0,0,0,0,0,0,0,0,0,0,0,0,0,0,0,0,0,0,0,0,0,0,0,0,0,0,0,0,0,0,0,0,0,0,0,0,0,0,0,0,0,0,0,0,0,0,0,0,0,0,0,0,0,0,0,0,0,0,0,0,0,0,0,0,0,0,0,0,0,0,0,0,0,0,0,0,0,0,0,0,0,0,0,0,0,0,0,0,0,0,0,0,0,0,0,0,0,0,0,0,0,0,0,0,0,0,0,0,0,0,0,0,0,0,0,0,0,0,0,0,0,0,0,0,0,0,0,0,0,0,0,0,0,0,0,0,0,0,0,0,0,0,0,0,0,0,0,0,0,0,0,0,0,0,0,0,0,0,0,0,0,0,0,0,0,0,0,0,0,0,0,0,0,0,0,0,0,0,0,0,0,0,0,0,0,0,0,0,0,0,0,0,0,0,0,0,0,0,0,0,0,0,0,0,0,0,0,0,0,0,0,0,0,0,0,0,0,0,0,0,0,0,0,0,0,0,0,0,0,0,0,0,0,0,0,0,0,0,0,0,0,0,0,0,0,0,0,0,0,0,0,0,0,0,0,0,0,0,0,0,0,0,0,0,0,0,0,0,0,0,0,0,0,0,0,0,0,0,0,0,0,0,0,0,0,0,0,0,0,0,0,0,0,0,0,0,0,0,0,0,0,0,0,0,0,0,0,0,0,0,0,0,0,0,0,0,0,0,0,0,0,0,0,0,0,0,0,0,0,0,0,0,0,0,0,0,0,0,0,0,0,0,0,0,0,0,0,0,0,0,0,0,0,0,0,0,0,0,0,0,0,0,0,0,0,0,0,0,0,0,0,0,0,0,0,0,0,0,0,0,0,0,0,0,0,0,0,0,0,0,0,0,0,0,0,0,0,0,0,0,0,0,0,0,0,0,0,0,0,0,0,0,0,0,0,0,0,0,0,0,0,0,0,0,0,0,0,0,0,0,0,0,0,0,0,0,0,0,0,0,0,0,0,0,0,0,0,0,0,0,0,0,0,0,0,0,0,0,0,0,0,0,0,0,0,0,0,0,0,0,0,0,0,0,0,0,0,0,0,0,0,0,0,0,0,0,0,0,0,0,0,0,0,0,0,0,0,0,0,0,0,0,0,0,0,0,0,0,0,0,0,0,0,0,0,0,0,0,0,0,0,0,0,0,0,0,0,0,0,0,0,0,0,0,0,0,0,0,0,0,0,0,0,0,0,0,0,0,0,0,0,0,0,0,0,0,0,0,0,0,0,0,0,0,0,0,0,0,0,0,0,0,0,0,0,0,0,0,0,0,0,0,0,0,0,0,0,0,0,0,0,0,0,0,0,0,0,0,0,0,0,0,0,0,0,0,0,0,0,0,0,0,0,0,0,0,0,0,0,0,0,0,0,0,0,0,0,0,0,0,0,0,0,0,0,0,0,0,0,0,0,0,0,0,0,0,0,0,0,0,0,0,0,0,0,0,0,0,0,0,0,0,0,0,0,0,0,0,0,0,0,0,0,0,0,0,0,0,0,0,0,0,0,0,0,0,0,0,0,0,0,0,0,0,0,0,0,0,0,0,0,0,0,0,0,0,0,0,0,0,0,0,0,0,0,0,0,0,0,0,0,0,0,0,0,0,0,0,0,0,0,0,0,0,0,0,0,0,0,0,0,0,0,0,0,0,0,0,0,0,0,0,0,0,0,0,0,0,0,0,0,0,0,0,0,0,0,0,0,0,0,0,0,0,0,0,0,0,0,0,0,0,0,0,0,0,0,0,0,0,0,0,0,0,0,0,0,0,0,0,0,0,0,0,0,0,0,0,0,0,0,0,0,0,0,0,0,0,0,0,0,0,0,0,0,0,0,0,0,0,0,0,0,0,0,0,0,0,0,0,0,0,0,0,0,0,0,0,0,0,0,0,0,0,0,0,0,0,0,0,0,0,0,0,0,0,0,0,0,0,0,0,0,0,0,0,0,0,0,0,0,0,0,0,0,0,0,0,0,0,0,0,0,0,0,0,0,0,0,0,0,0,0,0,0,0,0,0,0,0,0,0,0,0,0,0,0,0,0,0,0,0,0,0,0,0,0,0,0,0,0,0,0,0,0,0,0,0,0,0,0,0,0,0,0,0,0,0,0,0,0,0,0,0,0,0,0,0,0,0,0,0,0,0,0,0,0,0,0,0,0,0,0,0,0,0,0,0,0,0,0,0,0,0,0,0,0,0,0,0,0,0,0,0,0,0,0,0,0,0,0,0,0,0,0,0,0,0,0,0,0,0,0,0,0,0,0,0,0,0,0,0,0,0,0,0,0,0,0,0,0,0,0,0,0,0,0,0,0,0,0,0,0,0,0,0,0,0,0,0,0,0,0,0,0,0,0,0,0,0,0,0,0,0,0,0,0,0,0,0,0,0,0,0,0,0,0,0,0,0,0,0,0,0,0,0,0,0,0,0,0,0,0,0,0,0,0,0,0,0,0,0,0,0,0,0,0,0,0,0,0,0,0,0,0,0,0,0,0,0,0,0,0,0,0,0,0,0,0,0,0,0,0,0,0,0,0,0,0,0,0,0,0,0,0,0,0,0,0,0,0,0,0,0,0,0,0,0,0,0,0,0,0,0,0,0,0,0,0,0,0,0,0,0,0,0,0,0,0,0,0,0,0,0,0,0,0,0,0,0,0,0,0,0,0,0,0,0,0,0,0,0,0,0,0,0,0,0,0,0,0,0,0,0,0,0,0,0,0,0,0,0,0,0,0,0,0,0,0,0,0,0,0,0,0,0,0,0,0,0,0,0,0,0,0,0,0,0,0,0,0,0,0,0,0,0,0,0,0,0,0,0,0,0,0,0,0,0,0,0,0,0,0,0,0,0,0,0,0,0,0,0,0,0,0,0,0,0,0,0,0,0,0,0,0,0,0,0,0,0,0,0,0,0,0,0,0,0,0,0,0,0,0,0,0,0,0,0,0,0,0,0,0,0,0,0,0,0,0,0,0,0,0,0,0,0,0,0,0,0,0,0,0,0,0,0,0,0,0,0,0,0,0,0,0,0,0,0,0,0,0,0,0,0,0,0,0,0,0,0,0,0,0,0,0,0,0,0,0,0,0,0,0,0,0,0,0,0,0,0,0,0,0,0,0,0,0,0,0,0,0,0,0,0,0,0,0,0,0,0,0,0,0,0,0,0,0,0,0,0,0,0,0,0,0,0,0,0,0,0,0,0,0,0,0,0,0,0,0,0,0,0,0,0,0,0,0,0,0,0,0,0,0,0,0,0,0,0,0,0,0,0,0,0,0,0,0,0,0,0,0,0,0,0,0,0,0,0,0,0,0,0,0,0,0,0,0,0,0,0,0,0,0,0,0,0,0,0,0,0,0,0,0,0,0,0,0,0,0,0,0,0,0,0,0,0,0,0,0,0,0,0,0,0,0,0,0,0,0,0,0,0,0,0,0,0,0,0,0,0,0,0,0,0,0,0,0,0,0,0,0,0,0,0,0,0,0,0,0,0,0,0,0,0,0,0,0,0,0,0,0,0,0,0,0,0,0,0,0,0,0,0,0,0,0,0,0,0,0,0,0,0,0,0,0,0,0,0,0,0,0,0,0,0,0,0,0,0,0,0,0,0,0,0,0,0,0,0,0,0,0,0,0,0,0,0,0,0,0,0,0,0,0,0,0,0,0,0,0,0,0,0,0,0,0,0,0,0,0,0,0,0,0,0,0,0,0,0,0,0,0,0,0,0,0,0,0,0,0,0,0,0,0,0,0,0,0,0,0,0,0,0,0,0,0,0,0,0,0,0,0,0,0,0,0,0,0,0,0,0,0,0,0,0,0,0,0,0,0,0,0,0,0,0,0,0,0,0,0,0,0,0,0,0,0,0,0,0,0,0,0,0,0,0,0,0,0,0,0,0,0,0,0,0,0,0,0,0,0,0,0,0,0,0,0,0,0,0,0,0,0,0,0,0,0,0,0,0,0,0,0,0,0,0,0,0,0,0,0,0,0,0,0,0,0,0,0,0,0,0,0,0,0,0,0,0,0,0,0,0,0,0,0,0,0,0,0,0,0,0,0,0,0,0,0,0,0,0,0,0,0,0,0,0,0,0,0,0,0,0,0,0,0,0,0,0,0,0,0,0,0,0,0,0,0,0,0,0,0,0,0,0,0,0,0,0,0,0,0,0,0,0,0,0,0,0,0,0,0,0,0,0,0,0,0,0,0,0,0,0,0,0,0,0,0,0,0,0,0,0,0,0,0,0,0,0,0,0,0,0,0,0,0,0,0,0,0,0,0,0,0,0,0,0,0,0,0,0,0,0,0,0,0,0,0,0,0,0,0,0,0,0,0,0,0,0,0,0,0,0,0,0,0,0,0,0,0,0,0,0,0,0,0,0,0,0,0,0,0,0,0,0,0,0,0,0,0,0,0,0,0,0,0,0,0,0,0,0,0,0,0,0,0,0,0,0,0,0,0,0,0,0,0,0,0,0,0,0,0,0,0,0,0,0,0,0,0,0,0,0,0,0,0,0,0,0,0,0,0,0,0,0,0,0,0,0,0,0,0,0,0,0,0,0,0,0,0,0,0,0,0,0,0,0,0,0,0,0,0,0,0,0,0,0,0,0,0,0,0,0,0,0,0,0,0,0,0,0,0,0,0,0,0,0,0,0,0,0,0,0,0,0,0,0,0,0,0,0,0,0,0,0,0,0,0,0,0,0,0,0,0,0,0,0,0,0,0,0,0,0,0,0,0,0,0,0,0,0,0,0,0,0,0,0,0,0,0,0,0,0,0,0,0,0,0,0,0,0,0,0,0,0,0,0,0,0,0,0,0,0,0,0,0,0,0,0,0,0,0,0,0,0,0,0,0,0,0,0,0,0,0,0,0,0,0,0,0,0,0,0,0,0,0,0,0,0,0,0,0,0,0,0,0,0,0,0,0,0,0,0,0,0,0,0,0,0,0,0,0,0,0,0,0,0,0,0,0,0,0,0,0,0,0,0,0,0,0,0,0,0,0,0,0,0,0,0,0,0,0,0,0,0,0,0,0,0,0,0,0,0,0,0,0,0,0,0,0,0,0,0,0,0,0,0,0,0,0,0,0,0,0,0,0,0,0,0,0,0,0,0,0,0,0,0,0,0,0,0,0,0,0,0,0,0,0,0,0,0,0,0,0,0,0,0,0,0,0,0,0,0,0,0,0,0,0,0,0,0,0,0,0,0,0,0,0,0,0,0,0,0,0,0,0,0,0,0,0,0,0,0,0,0,0,0,0,0,0,0,0,0,0,0,0,0,0,0,0,0,0,0,0,0,0,0,0,0,0,0,0,0,0,0,0,0,0,0,0,0,0,0,0,0,0,0,0,0,0,0,0,0,0,0,0,0,0,0,0,0,0,0,0,0,0,0,0,0,0,0,0,0,0,0,0,0,0,0,0,0,0,0,0,0,0,0,0,0,0,0,0,0,0,0,0,0,0,0,0,0,0,0,0,0,0,0,0,0,0,0,0,0,0,0,0,0,0,0,0,0,0,0,0,0,0,0,0,0,0,0,0,0,0,0,0,0,0,0,0,0,0,0,0,0,0,0,0,0,0,0,0,0,0,0,0,0,0,0,0,0,0,0,0,0,0,0,0,0,0,0,0,0,0,0,0,0,0,0,0,0,0,0,0,0,0,0,0,0,0,0,0,0,0,0,0,0,0,0,0,0,0,0,0,0,0,0,0,0,0,0,0,0,0,0,0,0,0,0,0,0,0,0,0,0,0,0,0,0,0,0,0,0,0,0,0,0,0,0,0,0,0,0,0,0,0,0,0,0,0,0,0,0,0,0,0,0,0,0,0,0,0,0,0,0,0,0,0,0,0,0,0,0,0,0,0,0,0,0,0,0,0,0,0,0,0,0,0,0,0,0,0,0,0,0,0,0,0,0,0,0,0,0,0,0,0,0,0,0,0,0,0,0,0,0,0,0,0,0,0,0,0,0,0,0,0,0,0,0,0,0,0,0,0,0,0,0,0,0,0,0,0,0,0,0,0,0,0,0,0,0,0,0,0,0,0,0,0,0,0,0,0,0,0,0,0,0,0,0,0,0,0,0,0,0,0,0,0,0,0,0,0,0,0,0,0,0,0,0,0,0,0,0,0,0,0,0,0,0,0,0,0,0,0,0,0,0,0,0,0,0,0,0,0,0,0,0,0,0,0,0,0,0,0,0,0,0,0,0,0,0,0,0,0,0,0,0,0,0,0,0,0,0,0,0,0,0,0,0,0,0,0,0,0,0,0,0,0,0,0,0,0,0,0,0,0,0,0,0,0,0,0,0,0,0,0,0,0,0,0,0,0,0,0,0,0,0,0,0,0,0,0,0,0,0,0,0,0,0,0,0,0,0,0,0,0,0,0,0,0,0,0,0,0,0,0,0,0,0,0,0,0,0,0,0,0,0,0,0,0,0,0,0,0,0,0,0,0,0,0,0,0,0,0,0,0,0,0,0,0,0,0,0,0,0,0,0,0,0,0,0,0,0,0,0,0,0,0,0,0,0,0,0,0,0,0,0,0,0,0,0,0,0,0,0,0,0,0,0,0,0,0,0,0,0,0,0,0,0,0,0,0,0,0,0,0,0,0,0,0,0,0,0,0,0,0,0,0,0,0,0,0,0,0,0,0,0,0,0,0,0,0,0,0,0,0,0,0,0,0,0,0,0,0,0,0,0,0,0,0,0,0,0,0,0,0,0,0,0,0,0,0,0,0,0,0,0,0,0,0,0,0,0,0,0,0,0,0,0,0,0,0,0,0,0,0,0,0,0,0,0,0,0,0,0,0,0,0,0,0,0,0,0,0,0,0,0,0,0,0,0,0,0,0,0,0,0,0,0,0,0,0,0,0,0,0,0,0,0,0,0,0,0,0,0,0,0,0,0,0,0,0,0,0,0,0,0,0,0,0,0,0,0,0,0,0,0,0,0,0,0,0,0,0,0,0,0,0,0,0,0,0,0,0,0,0,0,0,0,0,0,0,0,0,0,0,0,0,0,0,0,0,0,0,0,0,0,0,0,0,0,0,0,0,0,0,0,0,0,0,0,0,0,0,0,0,0,0,0,0,0,0,0,0,0,0,0,0,0,0,0,0,0,0,0,0,0,0,0,0,0,0,0,0,0,0,0,0,0,0,0,0,0,0,0,0,0,0,0,0,0,0,0,0,0,0,0,0,0,0,0,0,0,0,0,0,0,0,0,0,0,0,0,0,0,0,0,0,0,0,0,0,0,0,0,0,0,0,0,0,0,0,0,0,0,0,0,0,0,0,0,0,0,0,0,0,0,0,0,0,0,0,0,0,0,0,0,0,0,0,0,0,0,0,0,0,0,0,0,0,0,0,0,0,0,0,0,0,0,0,0,0,0,0,0,0,0,0,0,0,0,0,0,0,0,0,0,0,0,0,0,0,0,0,0,0,0,0,0,0,0,0,0,0,0,0,0,0,0,0,0,0,0,0,0,0,0,0,0,0,0,0,0,0,0,0,0,0,0,0,0,0,0,0,0,0,0,0,0,0,0,0,0,0,0,0,0,0,0,0,0,0,0,0,0,0,0,0,0,0,0,0,0,0,0,0,0,0,0,0,0,0,0,0,0,0,0,0,0,0,0,0,0,0,0,0,0,0,0,0,0,0,0,0,0,0,0,0,0,0,0,0,0,0,0,0,0,0,0,0,0,0,0,0,0,0,0,0,0,0,0,0,0,0,0,0,0,0,0,0,0,0,0,0,0,0,0,0,0,0,0,0,0,0,0,0,0,0,0,0,0,0,0,0,0,0,0,0,0,0,0,0,0,0,0,0,0,0,0,0,0,0,0,0,0,0,0,0,0,0,0,0,0,0,0,0,0,0,0,0,0,0,0,0,0,0,0,0,0,0,0,0,0,0,0,0,0,0,0,0,0,0,0,0,0,0,0,0,0,0,0,0,0,0,0,0,0,0,0,0,0,0,0,0,0,0,0,0,0,0,0,0,0,0,0,0,0,0,0,0,0,0,0,0,0,0,0,0,0,0,0,0,0,0,0,0,0,0,0,0,0,0,0,0,0,0,0,0,0,0,0,0,0,0,0,0,0,0,0,0,0,0,0,0,0,0,0,0,0,0,0,0,0,0,0,0,0,0,0,0,0,0,0,0,0,0,0,0,0,0,0,0,0,0,0,0,0,0,0,0,0,0,0,0,0,0,0,0,0,0,0,0,0,0,0,0,0,0,0,0,0,0,0,0,0,0,0,0,0,0,0,0,0,0,0,0,0,0,0,0,0,0,0,0,0,0,0,0,0,0,0,0,0,0,0,0,0,0,0,0,0,0,0,0,0,0,0,0,0,0,0,0,0,0,0,0,0,0,0,0,0,0,0,0,0,0,0,0,0,0,0,0,0,0,0,0,0,0,0,0,0,0,0,0,0,0,0,0,0,0,0,0,0,0,0,0,0,0,0,0,0,0,0,0,0,0,0,0,0,0,0,0,0,0,0,0,0,0,0,0,0,0,0,0,0,0,0,0,0,0,0,0,0,0,0,0,0,0,0,0,0,0,0,0,0,0,0,0,0,0,0,0,0,0,0,0,0,0,0,0,0,0,0,0,0,0,0,0,0,0,0,0,0,0,0,0,0,0,0,0,0,0,0,0,0,0,0,0,0,0,0,0,0,0,0,0,0,0,0,0,0,0,0,0,0,0,0,0,0,0,0,0,0,0,0,0,0,0,0,0,0,0,0,0,0,0,0,0,0,0,0,0,0,0,0,0,0,0,0,0,0,0,0,0,0,0,0,0,0,0,0,0,0,0,0,0,0,0,0,0,0,0,0,0,0,0,0,0,0,0,0,0,0,0,0,0,0,0,0,0,0,0,0,0,0,0,0,0,0,0,0,0,0,0,0,0,0,0,0,0,0,0,0,0,0,0,0,0,0,0,0,0,0,0,0,0,0,0,0,0,0,0,0,0,0,0,0,0,0,0,0,0,0,0,0,0,0,0,0,0,0,0,0,0,0,0,0,0,0,0,0,0,0,0,0,0,0,0,0,0,0,0,0,0,0,0,0,0,0,0,0,0,0,0,0,0,0,0,0,0,0,0,0,0,0,0,0,0,0,0,0,0,0,0,0,0,0,0,0,0,0,0,0,0,0,0,0,0,0,0,0,0,0,0,0,0,0,0,0,0,0,0,0,0,0,0,0,0,0,0,0,0,0,0,0,0,0,0,0,0,0,0,0,0,0,0,0,0,0,0,0,0,0,0,0,0,0,0,0,0,0,0,0,0,0,0,0,0,0,0,0,0,0,0,0,0,0,0,0,0,0,0,0,0,0,0,0,0,0,0,0,0,0,0,0,0,0,0,0,0,0,0,0,0,0,0,0,0,0,0,0,0,0,0,0,0,0,0,0,0,0,0,0,0,0,0,0,0,0,0,0,0,0,0,0,0,0,0,0,0,0,0,0,0,0,0,0,0,0,0,0,0,0,0,0,0,0,0,0,0,0,0,0,0,0,0,0,0,0,0,0,0,0,0,0,0,0,0,0,0,0,0,0,0,0,0,0,0,0,0,0,0,0,0,0,0,0,0,0,0,0,0,0,0,0,0,0,0,0,0,0,0,0,0,0,0,0,0,0,0,0,0,0,0,0,0,0,0,0,0,0,0,0,0,0,0,0,0,0,0,0,0,0,0,0,0,0,0,0,0,0,0,0,0,0,0,0,0,0,0,0,0,0,0,0,0,0,0,0,0,0,0,0,0,0,0,0,0,0,0,0,0,0,0,0,0,0,0,0,0,0,0,0,0,0,0,0,0,0,0,0,0,0,0,0,0,0,0,0,0,0,0,0,0,0,0,0,0,0,0,0,0,0,0,0,0,0,0,0,0,0,0,0,0,0,0,0,0,0,0,0,0,0,0,0,0,0,0,0,0,0,0,0,0,0,0,0,0,0,0,0,0,0,0,0,0,0,0,0,0,0,0,0,0,0,0,0,0,0,0,0,0,0,0,0,0,0,0,0,0,0,0,0,0,0,0,0,0,0,0,0,0,0,0,0,0,0,0,0,0,0,0,0,0,0,0,0,0,0,0,0,0,0,0,0,0,0,0,0,0,0,0,0,0,0,0,0,0,0,0,0,0,0,0,0,0,0,0,0,0,0,0,0,0,0,0,0,0,0,0,0,0,0,0,0,0,0,0,0,0,0,0,0,0,0,0,0,0,0,0,0,0,0,0,0,0,0,0,0,0,0,0,0,0,0,0,0,0,0,0,0,0,0,0,0,0,0,0,0,0,0,0,0,0,0,0,0,0,0,0,0,0,0,0,0,0,0,0,0,0,0,0,0,0,0,0,0,0,0,0,0,0,0,0,0,0,0,0,0,0,0,0,0,0,0,0,0,0,0,0,0,0,0,0,0,0,0,0,0,0,0,0,0,0,0,0,0,0,0,0,0,0,0,0,0,0,0,0,0,0,0,0,0,0,0,0,0,0,0,0,0,0,0,0,0,0,0,0,0,0,0,0,0,0,0,0,0,0,0,0,0,0,0,0,0,0,0,0,0,0,0,0,0,0,0,0,0,0,0,0,0,0,0,0,0,0,0,0,0,0,0,0,0,0,0,0,0,0,0,0,0,0,0,0,0,0,0,0,0,0,0,0,0,0,0,0,0,0,0,0,0,0,0,0,0,0,0,0,0,0,0,0,0,0,0,0,0,0,0,0,0,0,0,0,0,0,0,0,0,0,0,0,0,0,0,0,0,0,0,0,0,0,0,0,0,0,0,0,0,0,0,0,0,0,0,0,0,0,0,0,0,0,0,0,0,0,0,0,0,0,0,0,0,0,0,0,0,0,0,0,0,0,0,0,0,0,0,0,0,0,0,0,0,0,0,0,0,0,0,0,0,0,0,0,0,0,0,0,0,0,0,0,0,0,0,0,0,0,0,0,0,0,0,0,0,0,0,0,0,0,0,0,0,0,0,0,0,0,0,0,0,0,0,0,0,0,0,0,0,0,0,0,0,0,0,0,0,0,0,0,0,0,0,0,0,0,0,0,0,0,0,0,0,0,0,0,0,0,0,0,0,0,0,0,0,0,0,0,0,0,0,0,0,0,0,0,0,0,0,0,0,0,0,0,0,0,0,0,0,0,0,0,0,0,0,0,0,0,0,0,0,0,0,0,0,0,0,0,0,0,0,0,0,0,0,0,0,0,0,0,0,0,0,0,0,0,0,0,0,0,0,0,0,0,0,0,0,0,0,0,0,0,0,0,0,0,0,0,0,0,0,0,0,0,0,0,0,0,0,0,0,0,0,0,0,0,0,0,0,0,0,0,0,0,0,0,0,0,0,0,0,0,0,0,0,0,0,0,0,0,0,0,0,0,0,0,0,0,0,0,0,0,0,0,0,0,0,0,0,0,0,0,0,0,0,0,0,0,0,0,0,0,0,0,0,0,0,0,0,0,0,0,0,0,0,0,0,0,0,0,0,0,0,0,0,0,0,0,0,0,0,0,0,0,0,0,0,0,0,0,0,0,0,0,0,0,0,0,0,0,0,0,0,0,0,0,0,0,0,0,0,0,0,0,0,0,0,0,0,0,0,0,0,0,0,0,0,0,0,0,0,0,0,0,0,0,0,0,0,0,0,0,0,0,0,0,0,0,0,0,0,0,0,0,0,0,0,0,0,0,0,0,0,0,0,0,0,0,0,0,0,0,0,0,0,0,0,0,0,0,0,0,0,0,0,0,0,0,0,0,0,0,0,0,0,0,0,0,0,0,0,0,0,0,0,0,0,0,0,0,0,0,0,0,0,0,0,0,0,0,0,0,0,0,0,0,0,0,0,0,0,0,0,0,0,0,0,0,0,0,0,0,0,0,0,0,0,0,0,0,0,0,0,0,0,0,0,0,0,0,0,0,0,0,0,0,0,0,0,0,0,0,0,0,0,0,0,0,0,0,0,0,0,0,0,0,0,0,0,0,0,0,0,0,0,0,0,0,0,0,0,0,0,0,0,0,0,0,0,0,0,0,0,0,0,0,0,0,0,0,0,0,0,0,0,0,0,0,0,0,0,0,0,0,0,0,0,0,0,0,0,0,0,0,0,0,0,0,0,0,0,0,0,0,0,0,0,0,0,0,0,0,0,0,0,0,0,0,0,0,0,0,0,0,0,0,0,0,0,0,0,0,0,0,257,271,285,299,313,327,341,355,369,387,405,423,0,0,0,0,0,0,0,0,0,0,0,0,0,0,0,0,0,0,0,0,0,0,0,0,0,0,0,0,0,0,0,0,0,0,0,0,0,0,0,0,0,0,0,0,0,0,0,0,0,0,0,0,0,0,0,0,0,0,0,0,0,0,0,0,0,0,0,0,0,0,0,0,0,0,0,0,0,0,0,0,0,0,0,0,0,0,0,0,0,0,0,0,0,0,0,0,0,0,0,0,0,0,0,0,0,0,0,0,0,0,0,0,0,0,0,0,0,0,0,0,0,0,0,0,0,0,0,0,0,0,0,0,0,0,0,0,0,0,0,0,0,0,0,0,0,0,0,0,0,0,0,0,0,0,0,0,0,0,0,0,0,0,0,0,0,0,0,0,0,0,0,0,0,0,0,0,0,0,0,0,0,0,0,0,0,0,0,0,0,0,0,0,0,0,0,0,0,0,0,0,0,0,0,0,0,0,0,0,0,0,0,0,0,0,0,0,0,0,0,0,0,0,0,0,0,0,0,0,0,0,0,0,0,0,0,0,0,0,0,0,0,0,0,0,258,272,286,300,314,328,342,356,370,388,406,424,0,0,0,0,0,0,0,0,0,0,0,0,0,0,0,0,0,0,0,0,0,0,0,0,0,0,0,0,0,0,0,0,0,0,0,0,0,0,0,0,0,0,0,0,0,0,0,0,0,0,0,0,0,0,0,0,0,0,0,0,0,0,0,0,0,0,0,0,0,0,0,0,0,0,0,0,0,0,0,0,0,0,0,0,0,0,0,0,0,0,0,0,0,0,0,0,0,0,0,0,0,0,0,0,0,0,0,0,0,0,0,0,0,0,0,0,0,0,0,0,0,0,0,0,0,0,0,0,0,0,0,0,0,0,0,0,0,0,0,0,0,0,0,0,0,0,0,0,0,0,0,0,0,0,0,0,0,0,0,0,0,0,0,0,0,0,0,0,0,0,0,0,0,0,0,0,0,0,0,0,0,0,0,0,0,0,0,0,0,0,0,0,0,0,0,0,0,0,0,0,0,0,0,0,0,0,0,0,0,0,0,0,0,0,0,0,0,0,0,0,0,0,0,0,0,0,0,0,0,0,0,0,0,0,0,0,0,0,0,0,0,0,0,0,259,273,287,301,315,329,343,357,371,389,407,425,0,0,0,0,0,0,0,0,0,0,0,0,0,0,0,0,0,0,0,0,0,0,0,0,0,0,0,0,0,0,0,0,0,0,0,0,0,0,0,0,0,0,0,0,0,0,0,0,0,0,0,0,0,0,0,0,0,0,0,0,0,0,0,0,0,0,0,0,0,0,0,0,0,0,0,0,0,0,0,0,0,0,0,0,0,0,0,0,0,0,0,0,0,0,0,0,0,0,0,0,0,0,0,0,0,0,0,0,0,0,0,0,0,0,0,0,0,0,0,0,0,0,0,0,0,0,0,0,0,0,0,0,0,0,0,0,0,0,0,0,0,0,0,0,0,0,0,0,0,0,0,0,0,0,0,0,0,0,0,0,0,0,0,0,0,0,0,0,0,0,0,0,0,0,0,0,0,0,0,0,0,0,0,0,0,0,0,0,0,0,0,0,0,0,0,0,0,0,0,0,0,0,0,0,0,0,0,0,0,0,0,0,0,0,0,0,0,0,0,0,0,0,0,0,0,0,0,0,0,0,0,0,0,0,0,0,0,0,0,0,0,0,0,0,260,274,288,302,316,330,344,358,372,390,408,426,0,0,0,0,0,0,0,0,0,0,0,0,0,0,0,0,0,0,0,0,0,0,0,0,0,0,0,0,0,0,0,0,0,0,0,0,0,0,0,0,0,0,0,0,0,0,0,0,0,0,0,0,0,0,0,0,0,0,0,0,0,0,0,0,0,0,0,0,0,0,0,0,0,0,0,0,0,0,0,0,0,0,0,0,0,0,0,0,0,0,0,0,0,0,0,0,0,0,0,0,0,0,0,0,0,0,0,0,0,0,0,0,0,0,0,0,0,0,0,0,0,0,0,0,0,0,0,0,0,0,0,0,0,0,0,0,0,0,0,0,0,0,0,0,0,0,0,0,0,0,0,0,0,0,0,0,0,0,0,0,0,0,0,0,0,0,0,0,0,0,0,0,0,0,0,0,0,0,0,0,0,0,0,0,0,0,0,0,0,0,0,0,0,0,0,0,0,0,0,0,0,0,0,0,0,0,0,0,0,0,0,0,0,0,0,0,0,0,0,0,0,0,0,0,0,0,0,0,0,0,0,0,0,0,0,0,0,0,0,0,0,0,0,0,261,275,289,303,317,331,345,359,373,391,409,427,441,459,477,495,0,0,0,0,0,0,0,0,0,0,0,0,0,0,0,0,0,0,0,0,0,0,0,0,0,0,0,0,0,0,0,0,0,0,0,0,0,0,0,0,0,0,0,0,0,0,0,0,0,0,0,0,0,0,0,0,0,0,0,0,0,0,0,0,0,0,0,0,0,0,0,0,0,0,0,0,0,0,0,0,0,0,0,0,0,0,0,0,0,0,0,0,0,0,0,0,0,0,0,0,0,0,0,0,0,0,0,0,0,0,0,0,0,0,0,0,0,0,0,0,0,0,0,0,0,0,0,0,0,0,0,0,0,0,0,0,0,0,0,0,0,0,0,0,0,0,0,0,0,0,0,0,0,0,0,0,0,0,0,0,0,0,0,0,0,0,0,0,0,0,0,0,0,0,0,0,0,0,0,0,0,0,0,0,0,0,0,0,0,0,0,0,0,0,0,0,0,0,0,0,0,0,0,0,0,0,0,0,0,0,0,0,0,0,0,0,0,0,0,0,0,0,0,0,0,0,0,0,0,0,0,0,0,0,0,0,0,0,0,0,262,276,290,304,318,332,346,360,374,392,410,428,442,460,478,496,0,0,0,0,0,0,0,0,0,0,0,0,0,0,0,0,0,0,0,0,0,0,0,0,0,0,0,0,0,0,0,0,0,0,0,0,0,0,0,0,0,0,0,0,0,0,0,0,0,0,0,0,0,0,0,0,0,0,0,0,0,0,0,0,0,0,0,0,0,0,0,0,0,0,0,0,0,0,0,0,0,0,0,0,0,0,0,0,0,0,0,0,0,0,0,0,0,0,0,0,0,0,0,0,0,0,0,0,0,0,0,0,0,0,0,0,0,0,0,0,0,0,0,0,0,0,0,0,0,0,0,0,0,0,0,0,0,0,0,0,0,0,0,0,0,0,0,0,0,0,0,0,0,0,0,0,0,0,0,0,0,0,0,0,0,0,0,0,0,0,0,0,0,0,0,0,0,0,0,0,0,0,0,0,0,0,0,0,0,0,0,0,0,0,0,0,0,0,0,0,0,0,0,0,0,0,0,0,0,0,0,0,0,0,0,0,0,0,0,0,0,0,0,0,0,0,0,0,0,0,0,0,0,0,0,0,0,0,0,0,263,277,291,305,319,333,347,361,375,393,411,429,443,461,479,497,0,0,0,0,0,0,0,0,0,0,0,0,0,0,0,0,0,0,0,0,0,0,0,0,0,0,0,0,0,0,0,0,0,0,0,0,0,0,0,0,0,0,0,0,0,0,0,0,0,0,0,0,0,0,0,0,0,0,0,0,0,0,0,0,0,0,0,0,0,0,0,0,0,0,0,0,0,0,0,0,0,0,0,0,0,0,0,0,0,0,0,0,0,0,0,0,0,0,0,0,0,0,0,0,0,0,0,0,0,0,0,0,0,0,0,0,0,0,0,0,0,0,0,0,0,0,0,0,0,0,0,0,0,0,0,0,0,0,0,0,0,0,0,0,0,0,0,0,0,0,0,0,0,0,0,0,0,0,0,0,0,0,0,0,0,0,0,0,0,0,0,0,0,0,0,0,0,0,0,0,0,0,0,0,0,0,0,0,0,0,0,0,0,0,0,0,0,0,0,0,0,0,0,0,0,0,0,0,0,0,0,0,0,0,0,0,0,0,0,0,0,0,0,0,0,0,0,0,0,0,0,0,0,0,0,0,0,0,0,0,264,278,292,306,320,334,348,362,376,394,412,430,444,462,480,498,0,0,0,0,0,0,0,0,0,0,0,0,0,0,0,0,0,0,0,0,0,0,0,0,0,0,0,0,0,0,0,0,0,0,0,0,0,0,0,0,0,0,0,0,0,0,0,0,0,0,0,0,0,0,0,0,0,0,0,0,0,0,0,0,0,0,0,0,0,0,0,0,0,0,0,0,0,0,0,0,0,0,0,0,0,0,0,0,0,0,0,0,0,0,0,0,0,0,0,0,0,0,0,0,0,0,0,0,0,0,0,0,0,0,0,0,0,0,0,0,0,0,0,0,0,0,0,0,0,0,0,0,0,0,0,0,0,0,0,0,0,0,0,0,0,0,0,0,0,0,0,0,0,0,0,0,0,0,0,0,0,0,0,0,0,0,0,0,0,0,0,0,0,0,0,0,0,0,0,0,0,0,0,0,0,0,0,0,0,0,0,0,0,0,0,0,0,0,0,0,0,0,0,0,0,0,0,0,0,0,0,0,0,0,0,0,0,0,0,0,0,0,0,0,0,0,0,0,0,0,0,0,0,0,0,0,0,0,0,0,265,279,293,307,321,335,349,363,377,395,413,431,445,463,481,499,513,535,557,579,0,0,0,0,0,0,0,0,0,0,0,0,0,0,0,0,0,0,0,0,0,0,0,0,0,0,0,0,0,0,0,0,0,0,0,0,0,0,0,0,0,0,0,0,0,0,0,0,0,0,0,0,0,0,0,0,0,0,0,0,0,0,0,0,0,0,0,0,0,0,0,0,0,0,0,0,0,0,0,0,0,0,0,0,0,0,0,0,0,0,0,0,0,0,0,0,0,0,0,0,0,0,0,0,0,0,0,0,0,0,0,0,0,0,0,0,0,0,0,0,0,0,0,0,0,0,0,0,0,0,0,0,0,0,0,0,0,0,0,0,0,0,0,0,0,0,0,0,0,0,0,0,0,0,0,0,0,0,0,0,0,0,0,0,0,0,0,0,0,0,0,0,0,0,0,0,0,0,0,0,0,0,0,0,0,0,0,0,0,0,0,0,0,0,0,0,0,0,0,0,0,0,0,0,0,0,0,0,0,0,0,0,0,0,0,0,0,0,0,0,0,0,0,0,0,0,0,0,0,0,0,0,0,0,0,0,262,276,290,304,318,332,346,360,378,396,414,432,446,464,482,500,514,536,558,580,0,0,0,0,0,0,0,0,0,0,0,0,0,0,0,0,0,0,0,0,0,0,0,0,0,0,0,0,0,0,0,0,0,0,0,0,0,0,0,0,0,0,0,0,0,0,0,0,0,0,0,0,0,0,0,0,0,0,0,0,0,0,0,0,0,0,0,0,0,0,0,0,0,0,0,0,0,0,0,0,0,0,0,0,0,0,0,0,0,0,0,0,0,0,0,0,0,0,0,0,0,0,0,0,0,0,0,0,0,0,0,0,0,0,0,0,0,0,0,0,0,0,0,0,0,0,0,0,0,0,0,0,0,0,0,0,0,0,0,0,0,0,0,0,0,0,0,0,0,0,0,0,0,0,0,0,0,0,0,0,0,0,0,0,0,0,0,0,0,0,0,0,0,0,0,0,0,0,0,0,0,0,0,0,0,0,0,0,0,0,0,0,0,0,0,0,0,0,0,0,0,0,0,0,0,0,0,0,0,0,0,0,0,0,0,0,0,0,0,0,0,0,0,0,0,0,0,0,0,0,0,0,0,0,0,0,263,277,291,305,319,333,347,361,379,397,415,433,447,465,483,501,515,537,559,581,0,0,0,0,0,0,0,0,0,0,0,0,0,0,0,0,0,0,0,0,0,0,0,0,0,0,0,0,0,0,0,0,0,0,0,0,0,0,0,0,0,0,0,0,0,0,0,0,0,0,0,0,0,0,0,0,0,0,0,0,0,0,0,0,0,0,0,0,0,0,0,0,0,0,0,0,0,0,0,0,0,0,0,0,0,0,0,0,0,0,0,0,0,0,0,0,0,0,0,0,0,0,0,0,0,0,0,0,0,0,0,0,0,0,0,0,0,0,0,0,0,0,0,0,0,0,0,0,0,0,0,0,0,0,0,0,0,0,0,0,0,0,0,0,0,0,0,0,0,0,0,0,0,0,0,0,0,0,0,0,0,0,0,0,0,0,0,0,0,0,0,0,0,0,0,0,0,0,0,0,0,0,0,0,0,0,0,0,0,0,0,0,0,0,0,0,0,0,0,0,0,0,0,0,0,0,0,0,0,0,0,0,0,0,0,0,0,0,0,0,0,0,0,0,0,0,0,0,0,0,0,0,0,0,0,0,264,278,292,306,320,334,348,362,380,398,416,434,448,466,484,502,516,538,560,582,0,0,0,0,0,0,0,0,0,0,0,0,0,0,0,0,0,0,0,0,0,0,0,0,0,0,0,0,0,0,0,0,0,0,0,0,0,0,0,0,0,0,0,0,0,0,0,0,0,0,0,0,0,0,0,0,0,0,0,0,0,0,0,0,0,0,0,0,0,0,0,0,0,0,0,0,0,0,0,0,0,0,0,0,0,0,0,0,0,0,0,0,0,0,0,0,0,0,0,0,0,0,0,0,0,0,0,0,0,0,0,0,0,0,0,0,0,0,0,0,0,0,0,0,0,0,0,0,0,0,0,0,0,0,0,0,0,0,0,0,0,0,0,0,0,0,0,0,0,0,0,0,0,0,0,0,0,0,0,0,0,0,0,0,0,0,0,0,0,0,0,0,0,0,0,0,0,0,0,0,0,0,0,0,0,0,0,0,0,0,0,0,0,0,0,0,0,0,0,0,0,0,0,0,0,0,0,0,0,0,0,0,0,0,0,0,0,0,0,0,0,0,0,0,0,0,0,0,0,0,0,0,0,0,0,0,265,279,293,307,321,335,349,363,381,399,417,435,449,467,485,503,517,539,561,583,0,0,0,0,0,0,0,0,0,0,0,0,0,0,0,0,0,0,0,0,0,0,0,0,0,0,0,0,0,0,0,0,0,0,0,0,0,0,0,0,0,0,0,0,0,0,0,0,0,0,0,0,0,0,0,0,0,0,0,0,0,0,0,0,0,0,0,0,0,0,0,0,0,0,0,0,0,0,0,0,0,0,0,0,0,0,0,0,0,0,0,0,0,0,0,0,0,0,0,0,0,0,0,0,0,0,0,0,0,0,0,0,0,0,0,0,0,0,0,0,0,0,0,0,0,0,0,0,0,0,0,0,0,0,0,0,0,0,0,0,0,0,0,0,0,0,0,0,0,0,0,0,0,0,0,0,0,0,0,0,0,0,0,0,0,0,0,0,0,0,0,0,0,0,0,0,0,0,0,0,0,0,0,0,0,0,0,0,0,0,0,0,0,0,0,0,0,0,0,0,0,0,0,0,0,0,0,0,0,0,0,0,0,0,0,0,0,0,0,0,0,0,0,0,0,0,0,1044,10465,10479,10493,10507,10521,10535,10549,10563,262,276,290,304,318,332,346,360,378,396,414,432,450,468,486,504,518,540,562,584,0,0,0,0,0,0,0,0,0,0,0,0,0,0,0,0,0,0,0,0,0,0,0,0,0,0,0,0,0,0,0,0,0,0,0,0,0,0,0,0,0,0,0,0,0,0,0,0,0,0,0,0,0,0,0,0,0,0,0,0,0,0,0,0,0,0,0,0,0,0,0,0,0,0,0,0,0,0,0,0,0,0,0,0,0,0,0,0,0,0,0,0,0,0,0,0,0,0,0,0,0,0,0,0,0,0,0,0,0,0,0,0,0,0,0,0,0,0,0,0,0,0,0,0,0,0,0,0,0,0,0,0,0,0,0,0,0,0,0,0,0,0,0,0,0,0,0,0,0,0,0,0,0,0,0,0,0,0,0,0,0,0,0,0,0,0,0,0,0,0,0,0,0,0,0,0,0,0,0,0,0,0,0,0,0,0,0,0,0,0,0,0,0,0,0,0,0,0,0,0,0,0,0,0,0,0,0,0,0,0,0,0,0,0,0,0,0,0,0,0,0,0,0,0,0,0,0,1045,10466,10480,10494,10508,10522,10536,10550,10564,263,277,291,305,319,333,347,361,379,397,415,433,451,469,487,505,519,541,563,585,0,0,0,0,0,0,0,0,0,0,0,0,0,0,0,0,0,0,0,0,0,0,0,0,0,0,0,0,0,0,0,0,0,0,0,0,0,0,0,0,0,0,0,0,0,0,0,0,0,0,0,0,0,0,0,0,0,0,0,0,0,0,0,0,0,0,0,0,0,0,0,0,0,0,0,0,0,0,0,0,0,0,0,0,0,0,0,0,0,0,0,0,0,0,0,0,0,0,0,0,0,0,0,0,0,0,0,0,0,0,0,0,0,0,0,0,0,0,0,0,0,0,0,0,0,0,0,0,0,0,0,0,0,0,0,0,0,0,0,0,0,0,0,0,0,0,0,0,0,0,0,0,0,0,0,0,0,0,0,0,0,0,0,0,0,0,0,0,0,0,0,0,0,0,0,0,0,0,0,0,0,0,0,0,0,0,0,0,0,0,0,0,0,0,0,0,0,0,0,0,0,0,0,0,0,0,0,0,0,0,0,0,0,0,0,0,0,0,0,0,0,0,0,0,0,1012,1028,1046,10467,10481,10495,10509,10523,10537,10551,10565,264,278,292,306,320,334,348,362,380,398,416,434,452,470,488,506,520,542,564,586,0,0,0,0,0,0,0,0,0,0,0,0,0,0,0,0,0,0,0,0,0,0,0,0,0,0,0,0,0,0,0,0,0,0,0,0,0,0,0,0,0,0,0,0,0,0,0,0,0,0,0,0,0,0,0,0,0,0,0,0,0,0,0,0,0,0,0,0,0,0,0,0,0,0,0,0,0,0,0,0,0,0,0,0,0,0,0,0,0,0,0,0,0,0,0,0,0,0,0,0,0,0,0,0,0,0,0,0,0,0,0,0,0,0,0,0,0,0,0,0,0,0,0,0,0,0,0,0,0,0,0,0,0,0,0,0,0,0,0,0,0,0,0,0,0,0,0,0,0,0,0,0,0,0,0,0,0,0,0,0,0,0,0,0,0,0,0,0,0,0,0,0,0,0,0,0,0,0,0,0,0,0,0,0,0,0,0,0,0,0,0,0,0,0,0,0,0,0,0,0,0,0,0,0,0,0,0,0,0,0,0,0,0,0,0,0,0,0,0,0,0,0,0,0,0,1013,1029,1047,10468,10482,10496,10510,10524,10538,10552,10566,265,279,293,307,321,335,349,363,381,399,417,435,453,471,489,507,521,543,565,587,601,623,645,667,0,0,0,0,0,0,0,0,0,0,0,0,0,0,0,0,0,0,0,0,0,0,0,0,0,0,0,0,0,0,0,0,0,0,0,0,0,0,0,0,0,0,0,0,0,0,0,0,0,0,0,0,0,0,0,0,0,0,0,0,0,0,0,0,0,0,0,0,0,0,0,0,0,0,0,0,0,0,0,0,0,0,0,0,0,0,0,0,0,0,0,0,0,0,0,0,0,0,0,0,0,0,0,0,0,0,0,0,0,0,0,0,0,0,0,0,0,0,0,0,0,0,0,0,0,0,0,0,0,0,0,0,0,0,0,0,0,0,0,0,0,0,0,0,0,0,0,0,0,0,0,0,0,0,0,0,0,0,0,0,0,0,0,0,0,0,0,0,0,0,0,0,0,0,0,0,0,0,0,0,0,0,0,0,0,0,0,0,0,0,0,0,0,0,0,0,0,0,0,0,0,0,0,0,0,0,0,0,0,0,0,0,0,0,0,0,0,940,962,984,998,1014,1030,1048,10469,10483,10497,10511,10525,10539,10553,10567,262,276,290,304,318,332,346,360,378,396,414,432,450,468,486,504,522,544,566,588,602,624,646,668,0,0,0,0,0,0,0,0,0,0,0,0,0,0,0,0,0,0,0,0,0,0,0,0,0,0,0,0,0,0,0,0,0,0,0,0,0,0,0,0,0,0,0,0,0,0,0,0,0,0,0,0,0,0,0,0,0,0,0,0,0,0,0,0,0,0,0,0,0,0,0,0,0,0,0,0,0,0,0,0,0,0,0,0,0,0,0,0,0,0,0,0,0,0,0,0,0,0,0,0,0,0,0,0,0,0,0,0,0,0,0,0,0,0,0,0,0,0,0,0,0,0,0,0,0,0,0,0,0,0,0,0,0,0,0,0,0,0,0,0,0,0,0,0,0,0,0,0,0,0,0,0,0,0,0,0,0,0,0,0,0,0,0,0,0,0,0,0,0,0,0,0,0,0,0,0,0,0,0,0,0,0,0,0,0,0,0,0,0,0,0,0,0,0,0,0,0,0,0,0,0,0,0,0,0,0,0,0,0,0,0,0,0,0,0,0,0,941,963,985,999,1015,1031,1049,10470,10484,10498,10512,10526,10540,10554,10568,263,277,291,305,319,333,347,361,379,397,415,433,451,469,487,505,523,545,567,589,603,625,647,669,0,0,0,0,0,0,0,0,0,0,0,0,0,0,0,0,0,0,0,0,0,0,0,0,0,0,0,0,0,0,0,0,0,0,0,0,0,0,0,0,0,0,0,0,0,0,0,0,0,0,0,0,0,0,0,0,0,0,0,0,0,0,0,0,0,0,0,0,0,0,0,0,0,0,0,0,0,0,0,0,0,0,0,0,0,0,0,0,0,0,0,0,0,0,0,0,0,0,0,0,0,0,0,0,0,0,0,0,0,0,0,0,0,0,0,0,0,0,0,0,0,0,0,0,0,0,0,0,0,0,0,0,0,0,0,0,0,0,0,0,0,0,0,0,0,0,0,0,0,0,0,0,0,0,0,0,0,0,0,0,0,0,0,0,0,0,0,0,0,0,0,0,0,0,0,0,0,0,0,0,0,0,0,0,0,0,0,0,0,0,0,0,0,0,0,0,0,0,0,0,0,0,0,0,0,0,0,0,0,0,0,0,0,0,0,900,920,942,964,986,1000,1016,1032,1050,10471,10485,10499,10513,10527,10541,10555,10569,264,278,292,306,320,334,348,362,380,398,416,434,452,470,488,506,524,546,568,590,604,626,648,670,0,0,0,0,0,0,0,0,0,0,0,0,0,0,0,0,0,0,0,0,0,0,0,0,0,0,0,0,0,0,0,0,0,0,0,0,0,0,0,0,0,0,0,0,0,0,0,0,0,0,0,0,0,0,0,0,0,0,0,0,0,0,0,0,0,0,0,0,0,0,0,0,0,0,0,0,0,0,0,0,0,0,0,0,0,0,0,0,0,0,0,0,0,0,0,0,0,0,0,0,0,0,0,0,0,0,0,0,0,0,0,0,0,0,0,0,0,0,0,0,0,0,0,0,0,0,0,0,0,0,0,0,0,0,0,0,0,0,0,0,0,0,0,0,0,0,0,0,0,0,0,0,0,0,0,0,0,0,0,0,0,0,0,0,0,0,0,0,0,0,0,0,0,0,0,0,0,0,0,0,0,0,0,0,0,0,0,0,0,0,0,0,0,0,0,0,0,0,0,0,0,0,0,0,0,0,0,0,0,0,0,0,0,0,0,901,921,943,965,987,1001,1017,1033,1051,10472,10486,10500,10514,10528,10542,10556,10570,265,279,293,307,321,335,349,363,381,399,417,435,453,471,489,507,525,547,569,591,605,627,649,671,0,0,0,0,0,0,0,0,0,0,0,0,0,0,0,0,0,0,0,0,0,0,0,0,0,0,0,0,0,0,0,0,0,0,0,0,0,0,0,0,0,0,0,0,0,0,0,0,0,0,0,0,0,0,0,0,0,0,0,0,0,0,0,0,0,0,0,0,0,0,0,0,0,0,0,0,0,0,0,0,0,0,0,0,0,0,0,0,0,0,0,0,0,0,0,0,0,0,0,0,0,0,0,0,0,0,0,0,0,0,0,0,0,0,0,0,0,0,0,0,0,0,0,0,0,0,0,0,0,0,0,0,0,0,0,0,0,0,0,0,0,0,0,0,0,0,0,0,0,0,0,0,0,0,0,0,0,0,0,0,0,0,0,0,0,0,0,0,0,0,0,0,0,0,0,0,0,0,0,0,0,0,0,0,0,0,0,0,0,0,0,0,0,0,0,0,0,0,0,0,0,0,0,0,0,0,0,0,0,0,0,0,0,0,0,902,922,944,966,988,1002,1018,1034,1052,10473,10487,10501,10515,10529,10543,10557,10571,262,276,290,304,318,332,346,360,378,396,414,432,450,468,486,504,526,548,570,592,606,628,650,672,0,0,0,0,0,0,0,0,0,0,0,0,0,0,0,0,0,0,0,0,0,0,0,0,0,0,0,0,0,0,0,0,0,0,0,0,0,0,0,0,0,0,0,0,0,0,0,0,0,0,0,0,0,0,0,0,0,0,0,0,0,0,0,0,0,0,0,0,0,0,0,0,0,0,0,0,0,0,0,0,0,0,0,0,0,0,0,0,0,0,0,0,0,0,0,0,0,0,0,0,0,0,0,0,0,0,0,0,0,0,0,0,0,0,0,0,0,0,0,0,0,0,0,0,0,0,0,0,0,0,0,0,0,0,0,0,0,0,0,0,0,0,0,0,0,0,0,0,0,0,0,0,0,0,0,0,0,0,0,0,0,0,0,0,0,0,0,0,0,0,0,0,0,0,0,0,0,0,0,0,0,0,0,0,0,0,0,0,0,0,0,0,0,0,0,0,0,0,0,0,0,0,0,0,0,0,0,0,0,0,0,0,0,0,0,903,923,945,967,989,1003,1019,1035,1049,10470,10484,10498,10512,10526,10540,10554,10568,263,277,291,305,319,333,347,361,379,397,415,433,451,469,487,505,527,549,571,593,607,629,651,673,0,0,0,0,0,0,0,0,0,0,0,0,0,0,0,0,0,0,0,0,0,0,0,0,0,0,0,0,0,0,0,0,0,0,0,0,0,0,0,0,0,0,0,0,0,0,0,0,0,0,0,0,0,0,0,0,0,0,0,0,0,0,0,0,0,0,0,0,0,0,0,0,0,0,0,0,0,0,0,0,0,0,0,0,0,0,0,0,0,0,0,0,0,0,0,0,0,0,0,0,0,0,0,0,0,0,0,0,0,0,0,0,0,0,0,0,0,0,0,0,0,0,0,0,0,0,0,0,0,0,0,0,0,0,0,0,0,0,0,0,0,0,0,0,0,0,0,0,0,0,0,0,0,0,0,0,0,0,0,0,0,0,0,0,0,0,0,0,0,0,0,0,0,0,0,0,0,0,0,0,0,0,0,0,0,0,0,0,0,0,0,0,0,0,0,0,0,0,0,0,0,0,0,0,0,0,0,0,0,0,0,0,0,0,0,904,924,946,968,990,1004,1020,1036,1050,10471,10485,10499,10513,10527,10541,10555,10569,264,278,292,306,320,334,348,362,380,398,416,434,452,470,488,506,528,550,572,594,608,630,652,674,0,0,0,731,0,0,0,0,0,0,0,0,0,0,0,0,0,0,0,0,0,0,0,0,0,0,0,0,0,0,0,0,0,0,0,0,0,0,0,0,0,0,0,0,0,0,0,0,0,0,0,0,0,0,0,0,0,0,0,0,0,0,0,0,0,0,0,0,0,0,0,0,0,0,0,0,0,0,0,0,0,0,0,0,0,0,0,0,0,0,0,0,0,0,0,0,0,0,0,0,0,0,0,0,0,0,0,0,0,0,0,0,0,0,0,0,0,0,0,0,0,0,0,0,0,0,0,0,0,0,0,0,0,0,0,0,0,0,0,0,0,0,0,0,0,0,0,0,0,0,0,0,0,0,0,0,0,0,0,0,0,0,0,0,0,0,0,0,0,0,0,0,0,0,0,0,0,0,0,0,0,0,0,0,0,0,0,0,0,0,0,0,0,0,0,0,0,0,0,0,0,0,0,0,0,0,0,0,0,0,0,0,0,0,0,905,925,947,969,991,1005,1021,1037,1051,10472,10486,10500,10514,10528,10542,10556,10570,265,279,293,307,321,335,349,363,381,399,417,435,453,471,489,507,529,551,573,595,609,631,653,675,689,703,717,732,746,760,774,788,802,816,830,844,746,760,774,788,802,816,830,844,746,760,774,788,802,816,830,844,746,760,774,788,802,816,830,844,746,760,774,788,802,816,830,844,0,0,0,0,0,0,0,0,746,760,774,788,802,816,830,844,746,760,774,788,802,816,830,844,746,760,774,788,802,816,830,844,0,0,0,0,0,0,0,0,746,760,774,788,802,816,830,844,746,760,774,788,802,816,830,844,746,760,774,788,802,816,830,844,746,760,774,788,802,816,830,844,746,760,774,788,802,816,830,844,746,760,774,788,802,816,830,844,0,0,0,0,0,0,0,0,746,760,774,788,802,816,830,844,746,760,774,788,802,816,830,844,746,760,774,788,802,816,830,844,746,760,774,788,802,816,830,844,0,0,0,0,0,0,0,0,746,760,774,788,802,816,830,844,746,760,774,788,802,816,830,844,746,760,774,788,802,816,830,844,746,760,774,788,802,816,830,844,858,872,886,906,926,948,970,992,1006,1022,1038,1052,10473,10487,10501,10515,10529,10543,10557,10571,266,280,294,308,322,336,350,364,378,396,414,432,450,468,486,504,526,548,570,592,610,632,654,676,690,704,718,733,747,761,775,789,803,817,831,845,747,761,775,789,803,817,831,845,747,761,775,789,803,817,831,845,747,761,775,789,803,817,831,845,747,761,775,789,803,817,831,845,0,0,0,0,0,0,0,0,747,761,775,789,803,817,831,845,747,761,775,789,803,817,831,845,747,761,775,789,803,817,831,845,0,0,0,0,0,0,0,0,747,761,775,789,803,817,831,845,747,761,775,789,803,817,831,845,747,761,775,789,803,817,831,845,747,761,775,789,803,817,831,845,747,761,775,789,803,817,831,845,747,761,775,789,803,817,831,845,0,0,0,0,0,0,0,0,747,761,775,789,803,817,831,845,747,761,775,789,803,817,831,845,747,761,775,789,803,817,831,845,747,761,775,789,803,817,831,845,0,0,0,0,0,0,0,0,747,761,775,789,803,817,831,845,747,761,775,789,803,817,831,845,747,761,775,789,803,817,831,845,747,761,775,789,803,817,831,845,859,873,887,907,927,949,971,989,1003,1019,1035,1049,10470,10484,10498,10512,10526,10540,10554,10568,267,281,295,309,323,337,351,365,379,397,415,433,451,469,487,505,527,549,571,593,611,633,655,677,691,705,719,734,748,762,776,790,804,818,832,846,748,762,776,790,804,818,832,846,748,762,776,790,804,818,832,846,748,762,776,790,804,818,832,846,748,762,776,790,804,818,832,846,611,633,655,677,691,705,719,734,748,762,776,790,804,818,832,846,748,762,776,790,804,818,832,846,748,762,776,790,804,818,832,846,611,633,655,677,691,705,719,734,748,762,776,790,804,818,832,846,748,762,776,790,804,818,832,846,748,762,776,790,804,818,832,846,748,762,776,790,804,818,832,846,748,762,776,790,804,818,832,846,748,762,776,790,804,818,832,846,611,633,655,677,691,705,719,734,748,762,776,790,804,818,832,846,748,762,776,790,804,818,832,846,748,762,776,790,804,818,832,846,748,762,776,790,804,818,832,846,611,633,655,677,691,705,719,734,748,762,776,790,804,818,832,846,748,762,776,790,804,818,832,846,748,762,776,790,804,818,832,846,748,762,776,790,804,818,832,846,860,874,888,908,928,950,972,990,1004,1020,1036,1050,10471,10485,10499,10513,10527,10541,10555,10569,268,282,296,310,324,338,352,366,380,398,416,434,452,470,488,506,528,550,572,594,612,634,656,678,692,706,720,735,749,763,777,791,805,819,833,847,749,763,777,791,805,819,833,847,749,763,777,791,805,819,833,847,749,763,777,791,805,819,833,847,749,763,777,791,805,819,833,847,612,634,656,678,692,706,720,735,749,763,777,791,805,819,833,847,749,763,777,791,805,819,833,847,749,763,777,791,805,819,833,847,612,634,656,678,692,706,720,735,749,763,777,791,805,819,833,847,749,763,777,791,805,819,833,847,749,763,777,791,805,819,833,847,749,763,777,791,805,819,833,847,749,763,777,791,805,819,833,847,749,763,777,791,805,819,833,847,612,634,656,678,692,706,720,735,749,763,777,791,805,819,833,847,749,763,777,791,805,819,833,847,749,763,777,791,805,819,833,847,749,763,777,791,805,819,833,847,612,634,656,678,692,706,720,735,749,763,777,791,805,819,833,847,749,763,777,791,805,819,833,847,749,763,777,791,805,819,833,847,749,763,777,791,805,819,833,847,861,875,889,909,929,951,973,991,1005,1021,1037,1051,10472,10486,10500,10514,10528,10542,10556,10570,269,283,297,311,325,339,353,367,381,399,417,435,453,471,489,507,529,551,573,595,613,635,657,679,693,707,721,736,750,764,778,792,806,820,834,848,750,764,778,792,806,820,834,848,750,764,778,792,806,820,834,848,750,764,778,792,806,820,834,848,750,764,778,792,806,820,834,848,613,635,657,679,693,707,721,736,750,764,778,792,806,820,834,848,750,764,778,792,806,820,834,848,750,764,778,792,806,820,834,848,613,635,657,679,693,707,721,736,750,764,778,792,806,820,834,848,750,764,778,792,806,820,834,848,750,764,778,792,806,820,834,848,750,764,778,792,806,820,834,848,750,764,778,792,806,820,834,848,750,764,778,792,806,820,834,848,613,635,657,679,693,707,721,736,750,764,778,792,806,820,834,848,750,764,778,792,806,820,834,848,750,764,778,792,806,820,834,848,750,764,778,792,806,820,834,848,613,635,657,679,693,707,721,736,750,764,778,792,806,820,834,848,750,764,778,792,806,820,834,848,750,764,778,792,806,820,834,848,750,764,778,792,806,820,834,848,862,876,890,910,930,952,974,992,1006,1022,1038,1052,10473,10487,10501,10515,10529,10543,10557,10571,270,284,298,312,326,340,354,368,382,400,418,436,450,468,486,504,526,548,570,592,614,636,658,680,694,708,722,737,751,765,779,793,807,821,835,849,751,765,779,793,807,821,835,849,751,765,779,793,807,821,835,849,751,765,779,793,807,821,835,849,751,765,779,793,807,821,835,849,614,636,658,680,694,708,722,737,751,765,779,793,807,821,835,849,751,765,779,793,807,821,835,849,751,765,779,793,807,821,835,849,614,636,658,680,694,708,722,737,751,765,779,793,807,821,835,849,751,765,779,793,807,821,835,849,751,765,779,793,807,821,835,849,751,765,779,793,807,821,835,849,751,765,779,793,807,821,835,849,751,765,779,793,807,821,835,849,614,636,658,680,694,708,722,737,751,765,779,793,807,821,835,849,751,765,779,793,807,821,835,849,751,765,779,793,807,821,835,849,751,765,779,793,807,821,835,849,614,636,658,680,694,708,722,737,751,765,779,793,807,821,835,849,751,765,779,793,807,821,835,849,751,765,779,793,807,821,835,849,751,765,779,793,807,821,835,849,863,877,891,911,931,953,975,989,1003,1019,1035,1049,10470,10484,10498,10512,10526,10540,10554,10568,0,0,0,0,0,0,0,0,383,401,419,437,451,469,487,505,527,549,571,593,615,637,659,681,695,709,723,738,752,766,780,794,808,822,836,850,752,766,780,794,808,822,836,850,752,766,780,794,808,822,836,850,752,766,780,794,808,822,836,850,752,766,780,794,808,822,836,850,615,637,659,681,695,709,723,738,752,766,780,794,808,822,836,850,752,766,780,794,808,822,836,850,752,766,780,794,808,822,836,850,615,637,659,681,695,709,723,738,752,766,780,794,808,822,836,850,752,766,780,794,808,822,836,850,752,766,780,794,808,822,836,850,752,766,780,794,808,822,836,850,752,766,780,794,808,822,836,850,752,766,780,794,808,822,836,850,615,637,659,681,695,709,723,738,752,766,780,794,808,822,836,850,752,766,780,794,808,822,836,850,752,766,780,794,808,822,836,850,752,766,780,794,808,822,836,850,615,637,659,681,695,709,723,738,752,766,780,794,808,822,836,850,752,766,780,794,808,822,836,850,752,766,780,794,808,822,836,850,752,766,780,794,808,822,836,850,864,878,892,912,932,954,976,990,1004,1020,1036,1050,10471,10485,10499,10513,10527,10541,10555,10569,0,0,0,0,0,0,0,0,384,402,420,438,452,470,488,506,528,550,572,594,616,638,660,682,696,710,724,739,753,767,781,795,809,823,837,851,753,767,781,795,809,823,837,851,753,767,781,795,809,823,837,851,753,767,781,795,809,823,837,851,753,767,781,795,809,823,837,851,616,638,660,682,696,710,724,739,753,767,781,795,809,823,837,851,753,767,781,795,809,823,837,851,753,767,781,795,809,823,837,851,616,638,660,682,696,710,724,739,753,767,781,795,809,823,837,851,753,767,781,795,809,823,837,851,753,767,781,795,809,823,837,851,753,767,781,795,809,823,837,851,753,767,781,795,809,823,837,851,753,767,781,795,809,823,837,851,616,638,660,682,696,710,724,739,753,767,781,795,809,823,837,851,753,767,781,795,809,823,837,851,753,767,781,795,809,823,837,851,753,767,781,795,809,823,837,851,616,638,660,682,696,710,724,739,753,767,781,795,809,823,837,851,753,767,781,795,809,823,837,851,753,767,781,795,809,823,837,851,753,767,781,795,809,823,837,851,865,879,893,913,933,955,977,991,1005,1021,1037,1051,10472,10486,10500,10514,10528,10542,10556,10570,0,0,0,0,0,0,0,0,385,403,421,439,453,471,489,507,529,551,573,595,617,639,661,683,697,711,725,740,754,768,782,796,810,824,838,852,754,768,782,796,810,824,838,852,754,768,782,796,810,824,838,852,754,768,782,796,810,824,838,852,754,768,782,796,810,824,838,852,617,639,661,683,697,711,725,740,754,768,782,796,810,824,838,852,754,768,782,796,810,824,838,852,754,768,782,796,810,824,838,852,617,639,661,683,697,711,725,740,754,768,782,796,810,824,838,852,754,768,782,796,810,824,838,852,754,768,782,796,810,824,838,852,754,768,782,796,810,824,838,852,754,768,782,796,810,824,838,852,754,768,782,796,810,824,838,852,617,639,661,683,697,711,725,740,754,768,782,796,810,824,838,852,754,768,782,796,810,824,838,852,754,768,782,796,810,824,838,852,754,768,782,796,810,824,838,852,617,639,661,683,697,711,725,740,754,768,782,796,810,824,838,852,754,768,782,796,810,824,838,852,754,768,782,796,810,824,838,852,754,768,782,796,810,824,838,852,866,880,894,914,934,956,978,992,1006,1022,1038,1052,10473,10487,10501,10515,10529,10543,10557,10571,0,0,0,0,0,0,0,0,386,404,422,440,454,472,490,508,526,548,570,592,614,636,658,680,694,708,722,737,751,765,779,793,807,821,835,849,751,765,779,793,807,821,835,849,751,765,779,793,807,821,835,849,751,765,779,793,807,821,835,849,751,765,779,793,807,821,835,849,614,636,658,680,694,708,722,737,751,765,779,793,807,821,835,849,751,765,779,793,807,821,835,849,751,765,779,793,807,821,835,849,614,636,658,680,694,708,722,737,751,765,779,793,807,821,835,849,751,765,779,793,807,821,835,849,751,765,779,793,807,821,835,849,751,765,779,793,807,821,835,849,751,765,779,793,807,821,835,849,751,765,779,793,807,821,835,849,614,636,658,680,694,708,722,737,751,765,779,793,807,821,835,849,751,765,779,793,807,821,835,849,751,765,779,793,807,821,835,849,751,765,779,793,807,821,835,849,614,636,658,680,694,708,722,737,751,765,779,793,807,821,835,849,751,765,779,793,807,821,835,849,751,765,779,793,807,821,835,849,751,765,779,793,807,821,835,849,863,877,891,911,931,953,975,989,1003,1019,1035,1049,10470,10484,10498,10512,10526,10540,10554,10568,0,0,0,0,0,0,0,0,0,0,0,0,455,473,491,509,527,549,571,593,615,637,659,681,695,709,723,738,752,766,780,794,808,822,836,850,752,766,780,794,808,822,836,850,752,766,780,794,808,822,836,850,752,766,780,794,808,822,836,850,752,766,780,794,808,822,836,850,615,637,659,681,695,709,723,738,752,766,780,794,808,822,836,850,752,766,780,794,808,822,836,850,752,766,780,794,808,822,836,850,615,637,659,681,695,709,723,738,752,766,780,794,808,822,836,850,752,766,780,794,808,822,836,850,752,766,780,794,808,822,836,850,752,766,780,794,808,822,836,850,752,766,780,794,808,822,836,850,752,766,780,794,808,822,836,850,615,637,659,681,695,709,723,738,752,766,780,794,808,822,836,850,752,766,780,794,808,822,836,850,752,766,780,794,808,822,836,850,752,766,780,794,808,822,836,850,615,637,659,681,695,709,723,738,752,766,780,794,808,822,836,850,752,766,780,794,808,822,836,850,752,766,780,794,808,822,836,850,752,766,780,794,808,822,836,850,864,878,892,912,932,954,976,990,1004,1020,1036,1050,10471,10485,10499,10513,10527,10541,10555,10569,0,0,0,0,0,0,0,0,0,0,0,0,456,474,492,510,528,550,572,594,616,638,660,682,696,710,724,739,753,767,781,795,809,823,837,851,753,767,781,795,809,823,837,851,753,767,781,795,809,823,837,851,753,767,781,795,809,823,837,851,753,767,781,795,809,823,837,851,616,638,660,682,696,710,724,739,753,767,781,795,809,823,837,851,753,767,781,795,809,823,837,851,753,767,781,795,809,823,837,851,616,638,660,682,696,710,724,739,753,767,781,795,809,823,837,851,753,767,781,795,809,823,837,851,753,767,781,795,809,823,837,851,753,767,781,795,809,823,837,851,753,767,781,795,809,823,837,851,753,767,781,795,809,823,837,851,616,638,660,682,696,710,724,739,753,767,781,795,809,823,837,851,753,767,781,795,809,823,837,851,753,767,781,795,809,823,837,851,753,767,781,795,809,823,837,851,616,638,660,682,696,710,724,739,753,767,781,795,809,823,837,851,753,767,781,795,809,823,837,851,753,767,781,795,809,823,837,851,753,767,781,795,809,823,837,851,865,879,893,913,933,955,977,991,1005,1021,1037,1051,10472,10486,10500,10514,10528,10542,10556,10570,0,0,0,0,0,0,0,0,0,0,0,0,457,475,493,511,529,551,573,595,617,639,661,683,697,711,725,740,754,768,782,796,810,824,838,852,754,768,782,796,810,824,838,852,754,768,782,796,810,824,838,852,754,768,782,796,810,824,838,852,754,768,782,796,810,824,838,852,617,639,661,683,697,711,725,740,754,768,782,796,810,824,838,852,754,768,782,796,810,824,838,852,754,768,782,796,810,824,838,852,617,639,661,683,697,711,725,740,754,768,782,796,810,824,838,852,754,768,782,796,810,824,838,852,754,768,782,796,810,824,838,852,754,768,782,796,810,824,838,852,754,768,782,796,810,824,838,852,754,768,782,796,810,824,838,852,617,639,661,683,697,711,725,740,754,768,782,796,810,824,838,852,754,768,782,796,810,824,838,852,754,768,782,796,810,824,838,852,754,768,782,796,810,824,838,852,617,639,661,683,697,711,725,740,754,768,782,796,810,824,838,852,754,768,782,796,810,824,838,852,754,768,782,796,810,824,838,852,754,768,782,796,810,824,838,852,866,880,894,914,934,956,978,992,1006,1022,1038,1052,10473,10487,10501,10515,10529,10543,10557,10571,0,0,0,0,0,0,0,0,0,0,0,0,458,476,494,512,526,548,570,592,614,636,658,680,694,708,722,737,751,765,779,793,807,821,835,849,751,765,779,793,807,821,835,849,751,765,779,793,807,821,835,849,751,765,779,793,807,821,835,849,751,765,779,793,807,821,835,849,614,636,658,680,694,708,722,737,751,765,779,793,807,821,835,849,751,765,779,793,807,821,835,849,751,765,779,793,807,821,835,849,614,636,658,680,694,708,722,737,751,765,779,793,807,821,835,849,751,765,779,793,807,821,835,849,751,765,779,793,807,821,835,849,751,765,779,793,807,821,835,849,751,765,779,793,807,821,835,849,751,765,779,793,807,821,835,849,614,636,658,680,694,708,722,737,751,765,779,793,807,821,835,849,751,765,779,793,807,821,835,849,751,765,779,793,807,821,835,849,751,765,779,793,807,821,835,849,614,636,658,680,694,708,722,737,751,765,779,793,807,821,835,849,751,765,779,793,807,821,835,849,751,765,779,793,807,821,835,849,751,765,779,793,807,821,835,849,863,877,891,911,931,953,975,989,1003,1019,1035,1053,10474,10488,10502,10516,10530,10544,10558,10572,0,0,0,0,0,0,0,0,0,0,0,0,0,0,0,0,527,549,571,593,615,637,659,681,695,709,723,738,752,766,780,794,808,822,836,850,752,766,780,794,808,822,836,850,752,766,780,794,808,822,836,850,752,766,780,794,808,822,836,850,752,766,780,794,808,822,836,850,615,637,659,681,695,709,723,738,752,766,780,794,808,822,836,850,752,766,780,794,808,822,836,850,752,766,780,794,808,822,836,850,615,637,659,681,695,709,723,738,752,766,780,794,808,822,836,850,752,766,780,794,808,822,836,850,752,766,780,794,808,822,836,850,752,766,780,794,808,822,836,850,752,766,780,794,808,822,836,850,752,766,780,794,808,822,836,850,615,637,659,681,695,709,723,738,752,766,780,794,808,822,836,850,752,766,780,794,808,822,836,850,752,766,780,794,808,822,836,850,752,766,780,794,808,822,836,850,615,637,659,681,695,709,723,738,752,766,780,794,808,822,836,850,752,766,780,794,808,822,836,850,752,766,780,794,808,822,836,850,752,766,780,794,808,822,836,850,864,878,892,912,932,954,976,990,1004,1020,1036,1054,10475,10489,10503,10517,10531,10545,10559,10573,0,0,0,0,0,0,0,0,0,0,0,0,0,0,0,0,528,550,572,594,616,638,660,682,696,710,724,739,753,767,781,795,809,823,837,851,753,767,781,795,809,823,837,851,753,767,781,795,809,823,837,851,753,767,781,795,809,823,837,851,753,767,781,795,809,823,837,851,616,638,660,682,696,710,724,739,753,767,781,795,809,823,837,851,753,767,781,795,809,823,837,851,753,767,781,795,809,823,837,851,616,638,660,682,696,710,724,739,753,767,781,795,809,823,837,851,753,767,781,795,809,823,837,851,753,767,781,795,809,823,837,851,753,767,781,795,809,823,837,851,753,767,781,795,809,823,837,851,753,767,781,795,809,823,837,851,616,638,660,682,696,710,724,739,753,767,781,795,809,823,837,851,753,767,781,795,809,823,837,851,753,767,781,795,809,823,837,851,753,767,781,795,809,823,837,851,616,638,660,682,696,710,724,739,753,767,781,795,809,823,837,851,753,767,781,795,809,823,837,851,753,767,781,795,809,823,837,851,753,767,781,795,809,823,837,851,865,879,893,913,933,955,977,991,1005,1021,1037,1055,10476,10490,10504,10518,10532,10546,10560,10574,0,0,0,0,0,0,0,0,0,0,0,0,0,0,0,0,529,551,573,595,617,639,661,683,697,711,725,740,754,768,782,796,810,824,838,852,754,768,782,796,810,824,838,852,754,768,782,796,810,824,838,852,754,768,782,796,810,824,838,852,754,768,782,796,810,824,838,852,617,639,661,683,697,711,725,740,754,768,782,796,810,824,838,852,754,768,782,796,810,824,838,852,754,768,782,796,810,824,838,852,617,639,661,683,697,711,725,740,754,768,782,796,810,824,838,852,754,768,782,796,810,824,838,852,754,768,782,796,810,824,838,852,754,768,782,796,810,824,838,852,754,768,782,796,810,824,838,852,754,768,782,796,810,824,838,852,617,639,661,683,697,711,725,740,754,768,782,796,810,824,838,852,754,768,782,796,810,824,838,852,754,768,782,796,810,824,838,852,754,768,782,796,810,824,838,852,617,639,661,683,697,711,725,740,754,768,782,796,810,824,838,852,754,768,782,796,810,824,838,852,754,768,782,796,810,824,838,852,754,768,782,796,810,824,838,852,866,880,894,914,934,956,978,992,1006,1022,1038,1056,10477,10491,10505,10519,10533,10547,10561,10575,0,0,0,0,0,0,0,0,0,0,0,0,0,0,0,0,530,552,574,596,614,636,658,680,694,708,722,737,751,765,779,793,807,821,835,849,751,765,779,793,807,821,835,849,751,765,779,793,807,821,835,849,751,765,779,793,807,821,835,849,751,765,779,793,807,821,835,849,614,636,658,680,694,708,722,737,751,765,779,793,807,821,835,849,751,765,779,793,807,821,835,849,751,765,779,793,807,821,835,849,614,636,658,680,694,708,722,737,751,765,779,793,807,821,835,849,751,765,779,793,807,821,835,849,751,765,779,793,807,821,835,849,751,765,779,793,807,821,835,849,751,765,779,793,807,821,835,849,751,765,779,793,807,821,835,849,614,636,658,680,694,708,722,737,751,765,779,793,807,821,835,849,751,765,779,793,807,821,835,849,751,765,779,793,807,821,835,849,751,765,779,793,807,821,835,849,614,636,658,680,694,708,722,737,751,765,779,793,807,821,835,849,751,765,779,793,807,821,835,849,751,765,779,793,807,821,835,849,751,765,779,793,807,821,835,849,863,877,891,911,931,953,975,993,1007,1023,1039,1057,10478,10492,10506,10520,10534,10548,10562,10576,0,0,0,0,0,0,0,0,0,0,0,0,0,0,0,0,531,553,575,597,615,637,659,681,695,709,723,738,752,766,780,794,808,822,836,850,752,766,780,794,808,822,836,850,752,766,780,794,808,822,836,850,752,766,780,794,808,822,836,850,752,766,780,794,808,822,836,850,615,637,659,681,695,709,723,738,752,766,780,794,808,822,836,850,752,766,780,794,808,822,836,850,752,766,780,794,808,822,836,850,615,637,659,681,695,709,723,738,752,766,780,794,808,822,836,850,752,766,780,794,808,822,836,850,752,766,780,794,808,822,836,850,752,766,780,794,808,822,836,850,752,766,780,794,808,822,836,850,752,766,780,794,808,822,836,850,615,637,659,681,695,709,723,738,752,766,780,794,808,822,836,850,752,766,780,794,808,822,836,850,752,766,780,794,808,822,836,850,752,766,780,794,808,822,836,850,615,637,659,681,695,709,723,738,752,766,780,794,808,822,836,850,752,766,780,794,808,822,836,850,752,766,780,794,808,822,836,850,752,766,780,794,808,822,836,850,864,878,892,912,932,954,976,994,1008,1024,1040,0,0,0,0,0,0,0,0,0,0,0,0,0,0,0,0,0,0,0,0,0,0,0,0,0,532,554,576,598,616,638,660,682,696,710,724,739,753,767,781,795,809,823,837,851,753,767,781,795,809,823,837,851,753,767,781,795,809,823,837,851,753,767,781,795,809,823,837,851,753,767,781,795,809,823,837,851,616,638,660,682,696,710,724,739,753,767,781,795,809,823,837,851,753,767,781,795,809,823,837,851,753,767,781,795,809,823,837,851,616,638,660,682,696,710,724,739,753,767,781,795,809,823,837,851,753,767,781,795,809,823,837,851,753,767,781,795,809,823,837,851,753,767,781,795,809,823,837,851,753,767,781,795,809,823,837,851,753,767,781,795,809,823,837,851,616,638,660,682,696,710,724,739,753,767,781,795,809,823,837,851,753,767,781,795,809,823,837,851,753,767,781,795,809,823,837,851,753,767,781,795,809,823,837,851,616,638,660,682,696,710,724,739,753,767,781,795,809,823,837,851,753,767,781,795,809,823,837,851,753,767,781,795,809,823,837,851,753,767,781,795,809,823,837,851,865,879,893,913,933,955,977,995,1009,1025,1041,0,0,0,0,0,0,0,0,0,0,0,0,0,0,0,0,0,0,0,0,0,0,0,0,0,533,555,577,599,617,639,661,683,697,711,725,740,754,768,782,796,810,824,838,852,754,768,782,796,810,824,838,852,754,768,782,796,810,824,838,852,754,768,782,796,810,824,838,852,754,768,782,796,810,824,838,852,617,639,661,683,697,711,725,740,754,768,782,796,810,824,838,852,754,768,782,796,810,824,838,852,754,768,782,796,810,824,838,852,617,639,661,683,697,711,725,740,754,768,782,796,810,824,838,852,754,768,782,796,810,824,838,852,754,768,782,796,810,824,838,852,754,768,782,796,810,824,838,852,754,768,782,796,810,824,838,852,754,768,782,796,810,824,838,852,617,639,661,683,697,711,725,740,754,768,782,796,810,824,838,852,754,768,782,796,810,824,838,852,754,768,782,796,810,824,838,852,754,768,782,796,810,824,838,852,617,639,661,683,697,711,725,740,754,768,782,796,810,824,838,852,754,768,782,796,810,824,838,852,754,768,782,796,810,824,838,852,754,768,782,796,810,824,838,852,866,880,894,914,934,956,978,996,1010,1026,1042,0,0,0,0,0,0,0,0,0,0,0,0,0,0,0,0,0,0,0,0,0,0,0,0,0,534,556,578,600,614,636,658,680,694,708,722,737,751,765,779,793,807,821,835,849,751,765,779,793,807,821,835,849,751,765,779,793,807,821,835,849,751,765,779,793,807,821,835,849,751,765,779,793,807,821,835,849,614,636,658,680,694,708,722,737,751,765,779,793,807,821,835,849,751,765,779,793,807,821,835,849,751,765,779,793,807,821,835,849,614,636,658,680,694,708,722,737,751,765,779,793,807,821,835,849,751,765,779,793,807,821,835,849,751,765,779,793,807,821,835,849,751,765,779,793,807,821,835,849,751,765,779,793,807,821,835,849,751,765,779,793,807,821,835,849,614,636,658,680,694,708,722,737,751,765,779,793,807,821,835,849,751,765,779,793,807,821,835,849,751,765,779,793,807,821,835,849,751,765,779,793,807,821,835,849,614,636,658,680,694,708,722,737,751,765,779,793,807,821,835,849,751,765,779,793,807,821,835,849,751,765,779,793,807,821,835,849,751,765,779,793,807,821,835,849,863,877,891,911,931,953,975,997,1011,1027,1043,0,0,0,0,0,0,0,0,0,0,0,0,0,0,0,0,0,0,0,0,0,0,0,0,0,0,0,0,0,615,637,659,681,695,709,723,738,752,766,780,794,808,822,836,850,752,766,780,794,808,822,836,850,752,766,780,794,808,822,836,850,752,766,780,794,808,822,836,850,752,766,780,794,808,822,836,850,615,637,659,681,695,709,723,738,752,766,780,794,808,822,836,850,752,766,780,794,808,822,836,850,752,766,780,794,808,822,836,850,615,637,659,681,695,709,723,738,752,766,780,794,808,822,836,850,752,766,780,794,808,822,836,850,752,766,780,794,808,822,836,850,752,766,780,794,808,822,836,850,752,766,780,794,808,822,836,850,752,766,780,794,808,822,836,850,615,637,659,681,695,709,723,738,752,766,780,794,808,822,836,850,752,766,780,794,808,822,836,850,752,766,780,794,808,822,836,850,752,766,780,794,808,822,836,850,615,637,659,681,695,709,723,738,752,766,780,794,808,822,836,850,752,766,780,794,808,822,836,850,752,766,780,794,808,822,836,850,752,766,780,794,808,822,836,850,864,878,892,912,932,954,976,0,0,0,0,0,0,0,0,0,0,0,0,0,0,0,0,0,0,0,0,0,0,0,0,0,0,0,0,0,0,0,0,0,616,638,660,682,696,710,724,739,753,767,781,795,809,823,837,851,753,767,781,795,809,823,837,851,753,767,781,795,809,823,837,851,753,767,781,795,809,823,837,851,753,767,781,795,809,823,837,851,616,638,660,682,696,710,724,739,753,767,781,795,809,823,837,851,753,767,781,795,809,823,837,851,753,767,781,795,809,823,837,851,616,638,660,682,696,710,724,739,753,767,781,795,809,823,837,851,753,767,781,795,809,823,837,851,753,767,781,795,809,823,837,851,753,767,781,795,809,823,837,851,753,767,781,795,809,823,837,851,753,767,781,795,809,823,837,851,616,638,660,682,696,710,724,739,753,767,781,795,809,823,837,851,753,767,781,795,809,823,837,851,753,767,781,795,809,823,837,851,753,767,781,795,809,823,837,851,616,638,660,682,696,710,724,739,753,767,781,795,809,823,837,851,753,767,781,795,809,823,837,851,753,767,781,795,809,823,837,851,753,767,781,795,809,823,837,851,865,879,893,913,933,955,977,0,0,0,0,0,0,0,0,0,0,0,0,0,0,0,0,0,0,0,0,0,0,0,0,0,0,0,0,0,0,0,0,0,617,639,661,683,697,711,725,740,754,768,782,796,810,824,838,852,754,768,782,796,810,824,838,852,754,768,782,796,810,824,838,852,754,768,782,796,810,824,838,852,754,768,782,796,810,824,838,852,617,639,661,683,697,711,725,740,754,768,782,796,810,824,838,852,754,768,782,796,810,824,838,852,754,768,782,796,810,824,838,852,617,639,661,683,697,711,725,740,754,768,782,796,810,824,838,852,754,768,782,796,810,824,838,852,754,768,782,796,810,824,838,852,754,768,782,796,810,824,838,852,754,768,782,796,810,824,838,852,754,768,782,796,810,824,838,852,617,639,661,683,697,711,725,740,754,768,782,796,810,824,838,852,754,768,782,796,810,824,838,852,754,768,782,796,810,824,838,852,754,768,782,796,810,824,838,852,617,639,661,683,697,711,725,740,754,768,782,796,810,824,838,852,754,768,782,796,810,824,838,852,754,768,782,796,810,824,838,852,754,768,782,796,810,824,838,852,866,880,894,914,934,956,978,0,0,0,0,0,0,0,0,0,0,0,0,0,0,0,0,0,0,0,0,0,0,0,0,0,0,0,0,0,0,0,0,0,618,640,662,684,698,712,726,741,755,769,783,797,811,825,839,853,755,769,783,797,811,825,839,853,755,769,783,797,811,825,839,853,755,769,783,797,811,825,839,853,755,769,783,797,811,825,839,853,618,640,662,684,698,712,726,741,755,769,783,797,811,825,839,853,755,769,783,797,811,825,839,853,755,769,783,797,811,825,839,853,618,640,662,684,698,712,726,741,755,769,783,797,811,825,839,853,755,769,783,797,811,825,839,853,755,769,783,797,811,825,839,853,755,769,783,797,811,825,839,853,755,769,783,797,811,825,839,853,755,769,783,797,811,825,839,853,618,640,662,684,698,712,726,741,755,769,783,797,811,825,839,853,755,769,783,797,811,825,839,853,755,769,783,797,811,825,839,853,755,769,783,797,811,825,839,853,618,640,662,684,698,712,726,741,755,769,783,797,811,825,839,853,755,769,783,797,811,825,839,853,755,769,783,797,811,825,839,853,755,769,783,797,811,825,839,853,867,881,895,915,935,957,979,0,0,0,0,0,0,0,0,0,0,0,0,0,0,0,0,0,0,0,0,0,0,0,0,0,0,0,0,0,0,0,0,0,619,641,663,685,699,713,727,742,756,770,784,798,812,826,840,854,756,770,784,798,812,826,840,854,756,770,784,798,812,826,840,854,756,770,784,798,812,826,840,854,756,770,784,798,812,826,840,854,619,641,663,685,699,713,727,742,756,770,784,798,812,826,840,854,756,770,784,798,812,826,840,854,756,770,784,798,812,826,840,854,619,641,663,685,699,713,727,742,756,770,784,798,812,826,840,854,756,770,784,798,812,826,840,854,756,770,784,798,812,826,840,854,756,770,784,798,812,826,840,854,756,770,784,798,812,826,840,854,756,770,784,798,812,826,840,854,619,641,663,685,699,713,727,742,756,770,784,798,812,826,840,854,756,770,784,798,812,826,840,854,756,770,784,798,812,826,840,854,756,770,784,798,812,826,840,854,619,641,663,685,699,713,727,742,756,770,784,798,812,826,840,854,756,770,784,798,812,826,840,854,756,770,784,798,812,826,840,854,756,770,784,798,812,826,840,854,868,882,896,916,936,958,980,0,0,0,0,0,0,0,0,0,0,0,0,0,0,0,0,0,0,0,0,0,0,0,0,0,0,0,0,0,0,0,0,0,620,642,664,686,700,714,728,743,757,771,785,799,813,827,841,855,757,771,785,799,813,827,841,855,757,771,785,799,813,827,841,855,757,771,785,799,813,827,841,855,757,771,785,799,813,827,841,855,620,642,664,686,700,714,728,743,757,771,785,799,813,827,841,855,757,771,785,799,813,827,841,855,757,771,785,799,813,827,841,855,620,642,664,686,700,714,728,743,757,771,785,799,813,827,841,855,757,771,785,799,813,827,841,855,757,771,785,799,813,827,841,855,757,771,785,799,813,827,841,855,757,771,785,799,813,827,841,855,757,771,785,799,813,827,841,855,620,642,664,686,700,714,728,743,757,771,785,799,813,827,841,855,757,771,785,799,813,827,841,855,757,771,785,799,813,827,841,855,757,771,785,799,813,827,841,855,620,642,664,686,700,714,728,743,757,771,785,799,813,827,841,855,757,771,785,799,813,827,841,855,757,771,785,799,813,827,841,855,757,771,785,799,813,827,841,855,869,883,897,917,937,959,981,0,0,0,0,0,0,0,0,0,0,0,0,0,441,459,477,495,0,0,0,0,0,0,0,0,0,0,0,0,0,0,0,0,621,643,665,687,701,715,729,744,758,772,786,800,814,828,842,856,758,772,786,800,814,828,842,856,758,772,786,800,814,828,842,856,758,772,786,800,814,828,842,856,758,772,786,800,814,828,842,856,621,643,665,687,701,715,729,744,758,772,786,800,814,828,842,856,758,772,786,800,814,828,842,856,758,772,786,800,814,828,842,856,621,643,665,687,701,715,729,744,758,772,786,800,814,828,842,856,758,772,786,800,814,828,842,856,758,772,786,800,814,828,842,856,758,772,786,800,814,828,842,856,758,772,786,800,814,828,842,856,758,772,786,800,814,828,842,856,621,643,665,687,701,715,729,744,758,772,786,800,814,828,842,856,758,772,786,800,814,828,842,856,758,772,786,800,814,828,842,856,758,772,786,800,814,828,842,856,621,643,665,687,701,715,729,744,758,772,786,800,814,828,842,856,758,772,786,800,814,828,842,856,758,772,786,800,814,828,842,856,758,772,786,800,814,828,842,856,870,884,898,918,938,960,982,0,0,0,0,0,0,0,0,0,0,0,0,0,442,460,478,496,0,0,0,0,0,0,0,0,0,0,0,0,0,0,0,0,622,644,666,688,702,716,730,745,759,773,787,801,815,829,843,857,759,773,787,801,815,829,843,857,759,773,787,801,815,829,843,857,759,773,787,801,815,829,843,857,759,773,787,801,815,829,843,857,622,644,666,688,702,716,730,745,759,773,787,801,815,829,843,857,759,773,787,801,815,829,843,857,759,773,787,801,815,829,843,857,622,644,666,688,702,716,730,745,759,773,787,801,815,829,843,857,759,773,787,801,815,829,843,857,759,773,787,801,815,829,843,857,759,773,787,801,815,829,843,857,759,773,787,801,815,829,843,857,759,773,787,801,815,829,843,857,622,644,666,688,702,716,730,745,759,773,787,801,815,829,843,857,759,773,787,801,815,829,843,857,759,773,787,801,815,829,843,857,759,773,787,801,815,829,843,857,622,644,666,688,702,716,730,745,759,773,787,801,815,829,843,857,759,773,787,801,815,829,843,857,759,773,787,801,815,829,843,857,759,773,787,801,815,829,843,857,871,885,899,919,939,961,983,0,0,0,0,0,0,0,0,0,0,0,0,0,443,461,479,497,0,0,0,0,0,0,0,0,0,0,0,0,0,0,0,0,0,0,0,0,0,0,0,0,0,0,0,0,0,0,0,0,0,0,0,0,0,0,0,0,0,0,0,0,0,0,0,0,0,0,0,0,0,0,0,0,0,0,0,0,0,0,0,0,0,0,0,0,0,0,0,0,0,0,0,0,0,0,0,0,0,0,0,0,0,0,0,0,0,0,0,0,0,0,0,0,0,0,0,0,0,0,0,0,0,0,0,0,0,0,0,0,0,0,0,0,0,0,0,0,0,0,0,0,0,0,0,0,0,0,0,0,0,0,0,0,0,0,0,0,0,0,0,0,0,0,0,0,0,0,0,0,0,0,0,0,0,0,0,0,0,0,0,0,0,0,0,0,0,0,0,0,0,0,0,0,0,0,0,0,0,0,0,0,0,0,0,0,0,0,0,0,0,0,0,0,0,0,0,0,0,0,0,0,0,0,0,0,0,0,0,0,0,0,0,0,0,0,0,0,0,0,0,0,0,0,0,0,0,0,0,0,0,0,0,0,0,0,0,0,0,0,0,0,0,0,0,0,0,0,0,0,444,462,480,498,0,0,0,0,0,0,0,0,0,0,0,0,0,0,0,0,0,0,0,0,0,0,0,0,0,0,0,0,0,0,0,0,0,0,0,0,0,0,0,0,0,0,0,0,0,0,0,0,0,0,0,0,0,0,0,0,0,0,0,0,0,0,0,0,0,0,0,0,0,0,0,0,0,0,0,0,0,0,0,0,0,0,0,0,0,0,0,0,0,0,0,0,0,0,0,0,0,0,0,0,0,0,0,0,0,0,0,0,0,0,0,0,0,0,0,0,0,0,0,0,0,0,0,0,0,0,0,0,0,0,0,0,0,0,0,0,0,0,0,0,0,0,0,0,0,0,0,0,0,0,0,0,0,0,0,0,0,0,0,0,0,0,0,0,0,0,0,0,0,0,0,0,0,0,0,0,0,0,0,0,0,0,0,0,0,0,0,0,0,0,0,0,0,0,0,0,0,0,0,0,0,0,0,0,0,0,0,0,0,0,0,0,0,0,0,0,0,0,0,0,0,0,0,0,0,0,0,0,0,0,0,0,0,0,0,0,0,0,0,0,0,0,0,0,0,0,0,0,0,0,0,0,445,463,481,499,513,535,557,579,0,0,0,0,0,0,0,0,0,0,0,0,0,0,0,0,0,0,0,0,0,0,0,0,0,0,0,0,0,0,0,0,0,0,0,0,0,0,0,0,0,0,0,0,0,0,0,0,0,0,0,0,0,0,0,0,0,0,0,0,0,0,0,0,0,0,0,0,0,0,0,0,0,0,0,0,0,0,0,0,0,0,0,0,0,0,0,0,0,0,0,0,0,0,0,0,0,0,0,0,0,0,0,0,0,0,0,0,0,0,0,0,0,0,0,0,0,0,0,0,0,0,0,0,0,0,0,0,0,0,0,0,0,0,0,0,0,0,0,0,0,0,0,0,0,0,0,0,0,0,0,0,0,0,0,0,0,0,0,0,0,0,0,0,0,0,0,0,0,0,0,0,0,0,0,0,0,0,0,0,0,0,0,0,0,0,0,0,0,0,0,0,0,0,0,0,0,0,0,0,0,0,0,0,0,0,0,0,0,0,0,0,0,0,0,0,0,0,0,0,0,0,0,0,0,0,0,0,0,0,0,0,0,0,0,0,0,0,0,0,0,0,0,0,0,0,0,10623,446,464,482,500,514,536,558,580,0,0,0,0,0,0,0,0,0,0,0,0,0,0,0,0,0,0,0,0,0,0,0,0,0,0,0,0,0,0,0,0,0,0,0,0,0,0,0,0,0,0,0,0,0,0,0,0,0,0,0,0,0,0,0,0,0,0,0,0,0,0,0,0,0,0,0,0,0,0,0,0,0,0,0,0,0,0,0,0,0,0,0,0,0,0,0,0,0,0,0,0,0,0,0,0,0,0,0,0,0,0,0,0,0,0,0,0,0,0,0,0,0,0,0,0,0,0,0,0,0,0,0,0,0,0,0,0,0,0,0,0,0,0,0,0,0,0,0,0,0,0,0,0,0,0,0,0,0,0,0,0,0,0,0,0,0,0,0,0,0,0,0,0,0,0,0,0,0,0,0,0,0,0,0,0,0,0,0,0,0,0,0,0,0,0,0,0,0,0,0,0,0,0,0,0,0,0,0,0,0,0,0,0,0,0,0,0,0,0,0,0,0,0,0,0,0,0,0,0,0,0,0,0,0,0,0,0,0,0,0,0,0,0,0,0,0,0,0,0,0,0,0,0,0,0,0,10624,447,465,483,501,515,537,559,581,0,0,0,0,0,0,0,0,0,0,0,0,0,0,0,0,0,0,0,0,0,0,0,0,0,0,0,0,0,0,0,0,0,0,0,0,0,0,0,0,0,0,0,0,0,0,0,0,0,0,0,0,0,0,0,0,0,0,0,0,0,0,0,0,0,0,0,0,0,0,0,0,0,0,0,0,0,0,0,0,0,0,0,0,0,0,0,0,0,0,0,0,0,0,0,0,0,0,0,0,0,0,0,0,0,0,0,0,0,0,0,0,0,0,0,0,0,0,0,0,0,0,0,0,0,0,0,0,0,0,0,0,0,0,0,0,0,0,0,0,0,0,0,0,0,0,0,0,0,0,0,0,0,0,0,0,0,0,0,0,0,0,0,0,0,0,0,0,0,0,0,0,0,0,0,0,0,0,0,0,0,0,0,0,0,0,0,0,0,0,0,0,0,0,0,0,0,0,0,0,0,0,0,0,0,0,0,0,0,0,0,0,0,0,0,0,0,0,0,0,0,0,0,0,0,0,0,0,0,0,0,0,0,0,0,0,0,0,0,0,0,0,0,0,0,10591,10607,10625,448,466,484,502,516,538,560,582,0,0,0,0,0,0,0,0,0,0,0,0,0,0,0,0,0,0,0,0,0,0,0,0,0,0,0,0,0,0,0,0,0,0,0,0,0,0,0,0,0,0,0,0,0,0,0,0,0,0,0,0,0,0,0,0,0,0,0,0,0,0,0,0,0,0,0,0,0,0,0,0,0,0,0,0,0,0,0,0,0,0,0,0,0,0,0,0,0,0,0,0,0,0,0,0,0,0,0,0,0,0,0,0,0,0,0,0,0,0,0,0,0,0,0,0,0,0,0,0,0,0,0,0,0,0,0,0,0,0,0,0,0,0,0,0,0,0,0,0,0,0,0,0,0,0,0,0,0,0,0,0,0,0,0,0,0,0,0,0,0,0,0,0,0,0,0,0,0,0,0,0,0,0,0,0,0,0,0,0,0,0,0,0,0,0,0,0,0,0,0,0,0,0,0,0,0,0,0,0,0,0,0,0,0,0,0,0,0,0,0,0,0,0,0,0,0,0,0,0,0,0,0,0,0,0,0,0,0,0,0,0,0,0,0,0,0,0,0,0,0,0,0,0,0,10592,10608,10626,449,467,485,503,517,539,561,583,0,0,0,0,0,0,0,0,0,0,0,0,0,0,0,0,0,0,0,0,0,0,0,0,0,0,0,0,0,0,0,0,0,0,0,0,0,0,0,0,0,0,0,0,0,0,0,0,0,0,0,0,0,0,0,0,0,0,0,0,0,0,0,0,0,0,0,0,0,0,0,0,0,0,0,0,0,0,0,0,0,0,0,0,0,0,0,0,0,0,0,0,0,0,0,0,0,0,0,0,0,0,0,0,0,0,0,0,0,0,0,0,0,0,0,0,0,0,0,0,0,0,0,0,0,0,0,0,0,0,0,0,0,0,0,0,0,0,0,0,0,0,0,0,0,0,0,0,0,0,0,0,0,0,0,0,0,0,0,0,0,0,0,0,0,0,0,0,0,0,0,0,0,0,0,0,0,0,0,0,0,0,0,0,0,0,0,0,0,0,0,0,0,0,0,0,0,0,0,0,0,0,0,0,0,0,0,0,0,0,0,0,0,0,0,0,0,0,0,0,0,0,0,0,0,0,0,0,0,0,0,0,0,0,0,1044,10465,10479,10493,10507,10521,10535,10549,10563,10577,10593,10609,10627,450,468,486,504,518,540,562,584,0,0,0,0,0,0,0,0,0,0,0,0,0,0,0,0,0,0,0,0,0,0,0,0,0,0,0,0,0,0,0,0,0,0,0,0,0,0,0,0,0,0,0,0,0,0,0,0,0,0,0,0,0,0,0,0,0,0,0,0,0,0,0,0,0,0,0,0,0,0,0,0,0,0,0,0,0,0,0,0,0,0,0,0,0,0,0,0,0,0,0,0,0,0,0,0,0,0,0,0,0,0,0,0,0,0,0,0,0,0,0,0,0,0,0,0,0,0,0,0,0,0,0,0,0,0,0,0,0,0,0,0,0,0,0,0,0,0,0,0,0,0,0,0,0,0,0,0,0,0,0,0,0,0,0,0,0,0,0,0,0,0,0,0,0,0,0,0,0,0,0,0,0,0,0,0,0,0,0,0,0,0,0,0,0,0,0,0,0,0,0,0,0,0,0,0,0,0,0,0,0,0,0,0,0,0,0,0,0,0,0,0,0,0,0,0,0,0,0,0,0,0,0,0,0,0,0,0,0,0,0,0,0,0,0,1045,10466,10480,10494,10508,10522,10536,10550,10564,10578,10594,10610,10628,451,469,487,505,519,541,563,585,0,0,0,0,0,0,0,0,0,0,0,0,0,0,0,0,0,0,0,0,0,0,0,0,0,0,0,0,0,0,0,0,0,0,0,0,0,0,0,0,0,0,0,0,0,0,0,0,0,0,0,0,0,0,0,0,0,0,0,0,0,0,0,0,0,0,0,0,0,0,0,0,0,0,0,0,0,0,0,0,0,0,0,0,0,0,0,0,0,0,0,0,0,0,0,0,0,0,0,0,0,0,0,0,0,0,0,0,0,0,0,0,0,0,0,0,0,0,0,0,0,0,0,0,0,0,0,0,0,0,0,0,0,0,0,0,0,0,0,0,0,0,0,0,0,0,0,0,0,0,0,0,0,0,0,0,0,0,0,0,0,0,0,0,0,0,0,0,0,0,0,0,0,0,0,0,0,0,0,0,0,0,0,0,0,0,0,0,0,0,0,0,0,0,0,0,0,0,0,0,0,0,0,0,0,0,0,0,0,0,0,0,0,0,0,0,0,0,0,0,0,0,0,0,0,0,0,0,0,0,0,0,0,1012,1028,1046,10467,10481,10495,10509,10523,10537,10551,10565,10579,10595,10611,10629,452,470,488,506,520,542,564,586,0,0,0,0,0,0,0,0,0,0,0,0,0,0,0,0,0,0,0,0,0,0,0,0,0,0,0,0,0,0,0,0,0,0,0,0,0,0,0,0,0,0,0,0,0,0,0,0,0,0,0,0,0,0,0,0,0,0,0,0,0,0,0,0,0,0,0,0,0,0,0,0,0,0,0,0,0,0,0,0,0,0,0,0,0,0,0,0,0,0,0,0,0,0,0,0,0,0,0,0,0,0,0,0,0,0,0,0,0,0,0,0,0,0,0,0,0,0,0,0,0,0,0,0,0,0,0,0,0,0,0,0,0,0,0,0,0,0,0,0,0,0,0,0,0,0,0,0,0,0,0,0,0,0,0,0,0,0,0,0,0,0,0,0,0,0,0,0,0,0,0,0,0,0,0,0,0,0,0,0,0,0,0,0,0,0,0,0,0,0,0,0,0,0,0,0,0,0,0,0,0,0,0,0,0,0,0,0,0,0,0,0,0,0,0,0,0,0,0,0,0,0,0,0,0,0,0,0,0,0,0,0,0,1013,1029,1047,10468,10482,10496,10510,10524,10538,10552,10566,10580,10596,10612,10630,453,471,489,507,521,543,565,587,601,623,645,667,0,0,0,0,0,0,0,0,0,0,0,0,0,0,0,0,0,0,0,0,0,0,0,0,0,0,0,0,0,0,0,0,0,0,0,0,0,0,0,0,0,0,0,0,0,0,0,0,0,0,0,0,0,0,0,0,0,0,0,0,0,0,0,0,0,0,0,0,0,0,0,0,0,0,0,0,0,0,0,0,0,0,0,0,0,0,0,0,0,0,0,0,0,0,0,0,0,0,0,0,0,0,0,0,0,0,0,0,0,0,0,0,0,0,0,0,0,0,0,0,0,0,0,0,0,0,0,0,0,0,0,0,0,0,0,0,0,0,0,0,0,0,0,0,0,0,0,0,0,0,0,0,0,0,0,0,0,0,0,0,0,0,0,0,0,0,0,0,0,0,0,0,0,0,0,0,0,0,0,0,0,0,0,0,0,0,0,0,0,0,0,0,0,0,0,0,0,0,0,0,0,0,0,0,0,0,0,0,0,0,0,0,0,0,0,0,0,0,0,0,0,0,0,0,0,940,962,984,998,1014,1030,1048,10469,10483,10497,10511,10525,10539,10553,10567,10581,10597,10613,10631,450,468,486,504,522,544,566,588,602,624,646,668,0,0,0,0,0,0,0,0,0,0,0,0,0,0,0,0,0,0,0,0,0,0,0,0,0,0,0,0,0,0,0,0,0,0,0,0,0,0,0,0,0,0,0,0,0,0,0,0,0,0,0,0,0,0,0,0,0,0,0,0,0,0,0,0,0,0,0,0,0,0,0,0,0,0,0,0,0,0,0,0,0,0,0,0,0,0,0,0,0,0,0,0,0,0,0,0,0,0,0,0,0,0,0,0,0,0,0,0,0,0,0,0,0,0,0,0,0,0,0,0,0,0,0,0,0,0,0,0,0,0,0,0,0,0,0,0,0,0,0,0,0,0,0,0,0,0,0,0,0,0,0,0,0,0,0,0,0,0,0,0,0,0,0,0,0,0,0,0,0,0,0,0,0,0,0,0,0,0,0,0,0,0,0,0,0,0,0,0,0,0,0,0,0,0,0,0,0,0,0,0,0,0,0,0,0,0,0,0,0,0,0,0,0,0,0,0,0,0,0,0,0,0,0,0,0,941,963,985,999,1015,1031,1049,10470,10484,10498,10512,10526,10540,10554,10568,10582,10598,10614,10628,451,469,487,505,523,545,567,589,603,625,647,669,0,0,0,0,0,0,0,0,0,0,0,0,0,0,0,0,0,0,0,0,0,0,0,0,0,0,0,0,0,0,0,0,0,0,0,0,0,0,0,0,0,0,0,0,0,0,0,0,0,0,0,0,0,0,0,0,0,0,0,0,0,0,0,0,0,0,0,0,0,0,0,0,0,0,0,0,0,0,0,0,0,0,0,0,0,0,0,0,0,0,0,0,0,0,0,0,0,0,0,0,0,0,0,0,0,0,0,0,0,0,0,0,0,0,0,0,0,0,0,0,0,0,0,0,0,0,0,0,0,0,0,0,0,0,0,0,0,0,0,0,0,0,0,0,0,0,0,0,0,0,0,0,0,0,0,0,0,0,0,0,0,0,0,0,0,0,0,0,0,0,0,0,0,0,0,0,0,0,0,0,0,0,0,0,0,0,0,0,0,0,0,0,0,0,0,0,0,0,0,0,0,0,0,0,0,0,0,0,0,0,0,0,0,0,0,0,0,0,0,0,0,0,0,900,920,942,964,986,1000,1016,1032,1050,10471,10485,10499,10513,10527,10541,10555,10569,10583,10599,10615,10629,452,470,488,506,524,546,568,590,604,626,648,670,0,0,0,0,0,0,0,0,0,0,0,0,0,0,0,0,0,0,0,0,0,0,0,0,0,0,0,0,0,0,0,0,0,0,0,0,0,0,0,0,0,0,0,0,0,0,0,0,0,0,0,0,0,0,0,0,0,0,0,0,0,0,0,0,0,0,0,0,0,0,0,0,0,0,0,0,0,0,0,0,0,0,0,0,0,0,0,0,0,0,0,0,0,0,0,0,0,0,0,0,0,0,0,0,0,0,0,0,0,0,0,0,0,0,0,0,0,0,0,0,0,0,0,0,0,0,0,0,0,0,0,0,0,0,0,0,0,0,0,0,0,0,0,0,0,0,0,0,0,0,0,0,0,0,0,0,0,0,0,0,0,0,0,0,0,0,0,0,0,0,0,0,0,0,0,0,0,0,0,0,0,0,0,0,0,0,0,0,0,0,0,0,0,0,0,0,0,0,0,0,0,0,0,0,0,0,0,0,0,0,0,0,0,0,0,0,0,0,0,0,0,0,0,901,921,943,965,987,1001,1017,1033,1051,10472,10486,10500,10514,10528,10542,10556,10570,10584,10600,10616,10630,453,471,489,507,525,547,569,591,605,627,649,671,0,0,0,0,0,0,0,0,0,0,0,0,0,0,0,0,0,0,0,0,0,0,0,0,0,0,0,0,0,0,0,0,0,0,0,0,0,0,0,0,0,0,0,0,0,0,0,0,0,0,0,0,0,0,0,0,0,0,0,0,0,0,0,0,0,0,0,0,0,0,0,0,0,0,0,0,0,0,0,0,0,0,0,0,0,0,0,0,0,0,0,0,0,0,0,0,0,0,0,0,0,0,0,0,0,0,0,0,0,0,0,0,0,0,0,0,0,0,0,0,0,0,0,0,0,0,0,0,0,0,0,0,0,0,0,0,0,0,0,0,0,0,0,0,0,0,0,0,0,0,0,0,0,0,0,0,0,0,0,0,0,0,0,0,0,0,0,0,0,0,0,0,0,0,0,0,0,0,0,0,0,0,0,0,0,0,0,0,0,0,0,0,0,0,0,0,0,0,0,0,0,0,0,0,0,0,0,0,0,0,0,0,0,0,0,0,0,0,0,0,0,0,0,902,922,944,966,988,1002,1018,1034,1052,10473,10487,10501,10515,10529,10543,10557,10571,10585,10601,10617,10631,450,468,486,504,526,548,570,592,606,628,650,672,0,0,0,0,0,0,0,0,0,0,0,0,0,0,0,0,0,0,0,0,0,0,0,0,0,0,0,0,0,0,0,0,0,0,0,0,0,0,0,0,0,0,0,0,0,0,0,0,0,0,0,0,0,0,0,0,0,0,0,0,0,0,0,0,0,0,0,0,0,0,0,0,0,0,0,0,0,0,0,0,0,0,0,0,0,0,0,0,0,0,0,0,0,0,0,0,0,0,0,0,0,0,0,0,0,0,0,0,0,0,0,0,0,0,0,0,0,0,0,0,0,0,0,0,0,0,0,0,0,0,0,0,0,0,0,0,0,0,0,0,0,0,0,0,0,0,0,0,0,0,0,0,0,0,0,0,0,0,0,0,0,0,0,0,0,0,0,0,0,0,0,0,0,0,0,0,0,0,0,0,0,0,0,0,0,0,0,0,0,0,0,0,0,0,0,0,0,0,0,0,0,0,0,0,0,0,0,0,0,0,0,0,0,0,0,0,0,0,0,0,0,0,0,903,923,945,967,989,1003,1019,1035,1049,10470,10484,10498,10512,10526,10540,10554,10568,10582,10598,10614,10628,451,469,487,505,527,549,571,593,607,629,651,673,0,0,0,0,0,0,0,0,0,0,0,0,0,0,0,0,0,0,0,0,0,0,0,0,0,0,0,0,0,0,0,0,0,0,0,0,0,0,0,0,0,0,0,0,0,0,0,0,0,0,0,0,0,0,0,0,0,0,0,0,0,0,0,0,0,0,0,0,0,0,0,0,0,0,0,0,0,0,0,0,0,0,0,0,0,0,0,0,0,0,0,0,0,0,0,0,0,0,0,0,0,0,0,0,0,0,0,0,0,0,0,0,0,0,0,0,0,0,0,0,0,0,0,0,0,0,0,0,0,0,0,0,0,0,0,0,0,0,0,0,0,0,0,0,0,0,0,0,0,0,0,0,0,0,0,0,0,0,0,0,0,0,0,0,0,0,0,0,0,0,0,0,0,0,0,0,0,0,0,0,0,0,0,0,0,0,0,0,0,0,0,0,0,0,0,0,0,0,0,0,0,0,0,0,0,0,0,0,0,0,0,0,0,0,0,0,0,0,0,0,0,0,0,904,924,946,968,990,1004,1020,1036,1050,10471,10485,10499,10513,10527,10541,10555,10569,10583,10599,10615,10629,452,470,488,506,528,550,572,594,608,630,652,674,0,0,0,731,0,0,0,0,0,0,0,0,0,0,0,0,0,0,0,0,0,0,0,0,0,0,0,0,0,0,0,0,0,0,0,0,0,0,0,0,0,0,0,0,0,0,0,0,0,0,0,0,0,0,0,0,0,0,0,0,0,0,0,0,0,0,0,0,0,0,0,0,0,0,0,0,0,0,0,0,0,0,0,0,0,0,0,0,0,0,0,0,0,0,0,0,0,0,0,0,0,0,0,0,0,0,0,0,0,0,0,0,0,0,0,0,0,0,0,0,0,0,0,0,0,0,0,0,0,0,0,0,0,0,0,0,0,0,0,0,0,0,0,0,0,0,0,0,0,0,0,0,0,0,0,0,0,0,0,0,0,0,0,0,0,0,0,0,0,0,0,0,0,0,0,0,0,0,0,0,0,0,0,0,0,0,0,0,0,0,0,0,0,0,0,0,0,0,0,0,0,0,0,0,0,0,0,0,0,0,0,0,0,0,0,0,0,0,0,0,0,0,0,905,925,947,969,991,1005,1021,1037,1051,10472,10486,10500,10514,10528,10542,10556,10570,10584,10600,10616,10630,453,471,489,507,529,551,573,595,609,631,653,675,689,703,717,732,746,760,774,788,802,816,830,844,746,760,774,788,802,816,830,844,746,760,774,788,802,816,830,844,746,760,774,788,802,816,830,844,746,760,774,788,802,816,830,844,0,0,0,0,0,0,0,0,746,760,774,788,802,816,830,844,746,760,774,788,802,816,830,844,746,760,774,788,802,816,830,844,0,0,0,0,0,0,0,0,746,760,774,788,802,816,830,844,746,760,774,788,802,816,830,844,746,760,774,788,802,816,830,844,746,760,774,788,802,816,830,844,746,760,774,788,802,816,830,844,746,760,774,788,802,816,830,844,0,0,0,0,0,0,0,0,746,760,774,788,802,816,830,844,746,760,774,788,802,816,830,844,746,760,774,788,802,816,830,844,746,760,774,788,802,816,830,844,0,0,0,0,0,0,0,0,746,760,774,788,802,816,830,844,746,760,774,788,802,816,830,844,746,760,774,788,802,816,830,844,746,760,774,788,802,816,830,844,746,760,774,788,802,816,830,844,858,872,886,906,926,948,970,992,1006,1022,1038,1052,10473,10487,10501,10515,10529,10543,10557,10571,10585,10601,10617,10631,450,468,486,504,526,548,570,592,610,632,654,676,690,704,718,733,747,761,775,789,803,817,831,845,747,761,775,789,803,817,831,845,747,761,775,789,803,817,831,845,747,761,775,789,803,817,831,845,747,761,775,789,803,817,831,845,0,0,0,0,0,0,0,0,747,761,775,789,803,817,831,845,747,761,775,789,803,817,831,845,747,761,775,789,803,817,831,845,0,0,0,0,0,0,0,0,747,761,775,789,803,817,831,845,747,761,775,789,803,817,831,845,747,761,775,789,803,817,831,845,747,761,775,789,803,817,831,845,747,761,775,789,803,817,831,845,747,761,775,789,803,817,831,845,0,0,0,0,0,0,0,0,747,761,775,789,803,817,831,845,747,761,775,789,803,817,831,845,747,761,775,789,803,817,831,845,747,761,775,789,803,817,831,845,0,0,0,0,0,0,0,0,747,761,775,789,803,817,831,845,747,761,775,789,803,817,831,845,747,761,775,789,803,817,831,845,747,761,775,789,803,817,831,845,747,761,775,789,803,817,831,845,859,873,887,907,927,949,971,989,1003,1019,1035,1049,10470,10484,10498,10512,10526,10540,10554,10568,10582,10598,10614,10628,451,469,487,505,527,549,571,593,611,633,655,677,691,705,719,734,748,762,776,790,804,818,832,846,748,762,776,790,804,818,832,846,748,762,776,790,804,818,832,846,748,762,776,790,804,818,832,846,748,762,776,790,804,818,832,846,611,633,655,677,691,705,719,734,748,762,776,790,804,818,832,846,748,762,776,790,804,818,832,846,748,762,776,790,804,818,832,846,611,633,655,677,691,705,719,734,748,762,776,790,804,818,832,846,748,762,776,790,804,818,832,846,748,762,776,790,804,818,832,846,748,762,776,790,804,818,832,846,748,762,776,790,804,818,832,846,748,762,776,790,804,818,832,846,611,633,655,677,691,705,719,734,748,762,776,790,804,818,832,846,748,762,776,790,804,818,832,846,748,762,776,790,804,818,832,846,748,762,776,790,804,818,832,846,611,633,655,677,691,705,719,734,748,762,776,790,804,818,832,846,748,762,776,790,804,818,832,846,748,762,776,790,804,818,832,846,748,762,776,790,804,818,832,846,748,762,776,790,804,818,832,846,860,874,888,908,928,950,972,990,1004,1020,1036,1050,10471,10485,10499,10513,10527,10541,10555,10569,10583,10599,10615,10629,452,470,488,506,528,550,572,594,612,634,656,678,692,706,720,735,749,763,777,791,805,819,833,847,749,763,777,791,805,819,833,847,749,763,777,791,805,819,833,847,749,763,777,791,805,819,833,847,749,763,777,791,805,819,833,847,612,634,656,678,692,706,720,735,749,763,777,791,805,819,833,847,749,763,777,791,805,819,833,847,749,763,777,791,805,819,833,847,612,634,656,678,692,706,720,735,749,763,777,791,805,819,833,847,749,763,777,791,805,819,833,847,749,763,777,791,805,819,833,847,749,763,777,791,805,819,833,847,749,763,777,791,805,819,833,847,749,763,777,791,805,819,833,847,612,634,656,678,692,706,720,735,749,763,777,791,805,819,833,847,749,763,777,791,805,819,833,847,749,763,777,791,805,819,833,847,749,763,777,791,805,819,833,847,612,634,656,678,692,706,720,735,749,763,777,791,805,819,833,847,749,763,777,791,805,819,833,847,749,763,777,791,805,819,833,847,749,763,777,791,805,819,833,847,749,763,777,791,805,819,833,847,861,875,889,909,929,951,973,991,1005,1021,1037,1051,10472,10486,10500,10514,10528,10542,10556,10570,10584,10600,10616,10630,453,471,489,507,529,551,573,595,613,635,657,679,693,707,721,736,750,764,778,792,806,820,834,848,750,764,778,792,806,820,834,848,750,764,778,792,806,820,834,848,750,764,778,792,806,820,834,848,750,764,778,792,806,820,834,848,613,635,657,679,693,707,721,736,750,764,778,792,806,820,834,848,750,764,778,792,806,820,834,848,750,764,778,792,806,820,834,848,613,635,657,679,693,707,721,736,750,764,778,792,806,820,834,848,750,764,778,792,806,820,834,848,750,764,778,792,806,820,834,848,750,764,778,792,806,820,834,848,750,764,778,792,806,820,834,848,750,764,778,792,806,820,834,848,613,635,657,679,693,707,721,736,750,764,778,792,806,820,834,848,750,764,778,792,806,820,834,848,750,764,778,792,806,820,834,848,750,764,778,792,806,820,834,848,613,635,657,679,693,707,721,736,750,764,778,792,806,820,834,848,750,764,778,792,806,820,834,848,750,764,778,792,806,820,834,848,750,764,778,792,806,820,834,848,750,764,778,792,806,820,834,848,862,876,890,910,930,952,974,992,1006,1022,1038,1052,10473,10487,10501,10515,10529,10543,10557,10571,10585,10601,10617,10631,450,468,486,504,526,548,570,592,614,636,658,680,694,708,722,737,751,765,779,793,807,821,835,849,751,765,779,793,807,821,835,849,751,765,779,793,807,821,835,849,751,765,779,793,807,821,835,849,751,765,779,793,807,821,835,849,614,636,658,680,694,708,722,737,751,765,779,793,807,821,835,849,751,765,779,793,807,821,835,849,751,765,779,793,807,821,835,849,614,636,658,680,694,708,722,737,751,765,779,793,807,821,835,849,751,765,779,793,807,821,835,849,751,765,779,793,807,821,835,849,751,765,779,793,807,821,835,849,751,765,779,793,807,821,835,849,751,765,779,793,807,821,835,849,614,636,658,680,694,708,722,737,751,765,779,793,807,821,835,849,751,765,779,793,807,821,835,849,751,765,779,793,807,821,835,849,751,765,779,793,807,821,835,849,614,636,658,680,694,708,722,737,751,765,779,793,807,821,835,849,751,765,779,793,807,821,835,849,751,765,779,793,807,821,835,849,751,765,779,793,807,821,835,849,751,765,779,793,807,821,835,849,863,877,891,911,931,953,975,989,1003,1019,1035,1049,10470,10484,10498,10512,10526,10540,10554,10568,10582,10598,10614,10628,451,469,487,505,527,549,571,593,615,637,659,681,695,709,723,738,752,766,780,794,808,822,836,850,752,766,780,794,808,822,836,850,752,766,780,794,808,822,836,850,752,766,780,794,808,822,836,850,752,766,780,794,808,822,836,850,615,637,659,681,695,709,723,738,752,766,780,794,808,822,836,850,752,766,780,794,808,822,836,850,752,766,780,794,808,822,836,850,615,637,659,681,695,709,723,738,752,766,780,794,808,822,836,850,752,766,780,794,808,822,836,850,752,766,780,794,808,822,836,850,752,766,780,794,808,822,836,850,752,766,780,794,808,822,836,850,752,766,780,794,808,822,836,850,615,637,659,681,695,709,723,738,752,766,780,794,808,822,836,850,752,766,780,794,808,822,836,850,752,766,780,794,808,822,836,850,752,766,780,794,808,822,836,850,615,637,659,681,695,709,723,738,752,766,780,794,808,822,836,850,752,766,780,794,808,822,836,850,752,766,780,794,808,822,836,850,752,766,780,794,808,822,836,850,752,766,780,794,808,822,836,850,864,878,892,912,932,954,976,990,1004,1020,1036,1050,10471,10485,10499,10513,10527,10541,10555,10569,10583,10599,10615,10629,452,470,488,506,528,550,572,594,616,638,660,682,696,710,724,739,753,767,781,795,809,823,837,851,753,767,781,795,809,823,837,851,753,767,781,795,809,823,837,851,753,767,781,795,809,823,837,851,753,767,781,795,809,823,837,851,616,638,660,682,696,710,724,739,753,767,781,795,809,823,837,851,753,767,781,795,809,823,837,851,753,767,781,795,809,823,837,851,616,638,660,682,696,710,724,739,753,767,781,795,809,823,837,851,753,767,781,795,809,823,837,851,753,767,781,795,809,823,837,851,753,767,781,795,809,823,837,851,753,767,781,795,809,823,837,851,753,767,781,795,809,823,837,851,616,638,660,682,696,710,724,739,753,767,781,795,809,823,837,851,753,767,781,795,809,823,837,851,753,767,781,795,809,823,837,851,753,767,781,795,809,823,837,851,616,638,660,682,696,710,724,739,753,767,781,795,809,823,837,851,753,767,781,795,809,823,837,851,753,767,781,795,809,823,837,851,753,767,781,795,809,823,837,851,753,767,781,795,809,823,837,851,865,879,893,913,933,955,977,991,1005,1021,1037,1051,10472,10486,10500,10514,10528,10542,10556,10570,10584,10600,10616,10630,453,471,489,507,529,551,573,595,617,639,661,683,697,711,725,740,754,768,782,796,810,824,838,852,754,768,782,796,810,824,838,852,754,768,782,796,810,824,838,852,754,768,782,796,810,824,838,852,754,768,782,796,810,824,838,852,617,639,661,683,697,711,725,740,754,768,782,796,810,824,838,852,754,768,782,796,810,824,838,852,754,768,782,796,810,824,838,852,617,639,661,683,697,711,725,740,754,768,782,796,810,824,838,852,754,768,782,796,810,824,838,852,754,768,782,796,810,824,838,852,754,768,782,796,810,824,838,852,754,768,782,796,810,824,838,852,754,768,782,796,810,824,838,852,617,639,661,683,697,711,725,740,754,768,782,796,810,824,838,852,754,768,782,796,810,824,838,852,754,768,782,796,810,824,838,852,754,768,782,796,810,824,838,852,617,639,661,683,697,711,725,740,754,768,782,796,810,824,838,852,754,768,782,796,810,824,838,852,754,768,782,796,810,824,838,852,754,768,782,796,810,824,838,852,754,768,782,796,810,824,838,852,866,880,894,914,934,956,978,992,1006,1022,1038,1052,10473,10487,10501,10515,10529,10543,10557,10571,10585,10601,10617,10631,454,472,490,508,526,548,570,592,614,636,658,680,694,708,722,737,751,765,779,793,807,821,835,849,751,765,779,793,807,821,835,849,751,765,779,793,807,821,835,849,751,765,779,793,807,821,835,849,751,765,779,793,807,821,835,849,614,636,658,680,694,708,722,737,751,765,779,793,807,821,835,849,751,765,779,793,807,821,835,849,751,765,779,793,807,821,835,849,614,636,658,680,694,708,722,737,751,765,779,793,807,821,835,849,751,765,779,793,807,821,835,849,751,765,779,793,807,821,835,849,751,765,779,793,807,821,835,849,751,765,779,793,807,821,835,849,751,765,779,793,807,821,835,849,614,636,658,680,694,708,722,737,751,765,779,793,807,821,835,849,751,765,779,793,807,821,835,849,751,765,779,793,807,821,835,849,751,765,779,793,807,821,835,849,614,636,658,680,694,708,722,737,751,765,779,793,807,821,835,849,751,765,779,793,807,821,835,849,751,765,779,793,807,821,835,849,751,765,779,793,807,821,835,849,751,765,779,793,807,821,835,849,863,877,891,911,931,953,975,989,1003,1019,1035,1049,10470,10484,10498,10512,10526,10540,10554,10568,10582,10598,10614,10632,455,473,491,509,527,549,571,593,615,637,659,681,695,709,723,738,752,766,780,794,808,822,836,850,752,766,780,794,808,822,836,850,752,766,780,794,808,822,836,850,752,766,780,794,808,822,836,850,752,766,780,794,808,822,836,850,615,637,659,681,695,709,723,738,752,766,780,794,808,822,836,850,752,766,780,794,808,822,836,850,752,766,780,794,808,822,836,850,615,637,659,681,695,709,723,738,752,766,780,794,808,822,836,850,752,766,780,794,808,822,836,850,752,766,780,794,808,822,836,850,752,766,780,794,808,822,836,850,752,766,780,794,808,822,836,850,752,766,780,794,808,822,836,850,615,637,659,681,695,709,723,738,752,766,780,794,808,822,836,850,752,766,780,794,808,822,836,850,752,766,780,794,808,822,836,850,752,766,780,794,808,822,836,850,615,637,659,681,695,709,723,738,752,766,780,794,808,822,836,850,752,766,780,794,808,822,836,850,752,766,780,794,808,822,836,850,752,766,780,794,808,822,836,850,752,766,780,794,808,822,836,850,864,878,892,912,932,954,976,990,1004,1020,1036,1050,10471,10485,10499,10513,10527,10541,10555,10569,10583,10599,10615,10633,456,474,492,510,528,550,572,594,616,638,660,682,696,710,724,739,753,767,781,795,809,823,837,851,753,767,781,795,809,823,837,851,753,767,781,795,809,823,837,851,753,767,781,795,809,823,837,851,753,767,781,795,809,823,837,851,616,638,660,682,696,710,724,739,753,767,781,795,809,823,837,851,753,767,781,795,809,823,837,851,753,767,781,795,809,823,837,851,616,638,660,682,696,710,724,739,753,767,781,795,809,823,837,851,753,767,781,795,809,823,837,851,753,767,781,795,809,823,837,851,753,767,781,795,809,823,837,851,753,767,781,795,809,823,837,851,753,767,781,795,809,823,837,851,616,638,660,682,696,710,724,739,753,767,781,795,809,823,837,851,753,767,781,795,809,823,837,851,753,767,781,795,809,823,837,851,753,767,781,795,809,823,837,851,616,638,660,682,696,710,724,739,753,767,781,795,809,823,837,851,753,767,781,795,809,823,837,851,753,767,781,795,809,823,837,851,753,767,781,795,809,823,837,851,753,767,781,795,809,823,837,851,865,879,893,913,933,955,977,991,1005,1021,1037,1051,10472,10486,10500,10514,10528,10542,10556,10570,10584,10600,10616,10634,457,475,493,511,529,551,573,595,617,639,661,683,697,711,725,740,754,768,782,796,810,824,838,852,754,768,782,796,810,824,838,852,754,768,782,796,810,824,838,852,754,768,782,796,810,824,838,852,754,768,782,796,810,824,838,852,617,639,661,683,697,711,725,740,754,768,782,796,810,824,838,852,754,768,782,796,810,824,838,852,754,768,782,796,810,824,838,852,617,639,661,683,697,711,725,740,754,768,782,796,810,824,838,852,754,768,782,796,810,824,838,852,754,768,782,796,810,824,838,852,754,768,782,796,810,824,838,852,754,768,782,796,810,824,838,852,754,768,782,796,810,824,838,852,617,639,661,683,697,711,725,740,754,768,782,796,810,824,838,852,754,768,782,796,810,824,838,852,754,768,782,796,810,824,838,852,754,768,782,796,810,824,838,852,617,639,661,683,697,711,725,740,754,768,782,796,810,824,838,852,754,768,782,796,810,824,838,852,754,768,782,796,810,824,838,852,754,768,782,796,810,824,838,852,754,768,782,796,810,824,838,852,866,880,894,914,934,956,978,992,1006,1022,1038,1052,10473,10487,10501,10515,10529,10543,10557,10571,10585,10601,10617,10635,458,476,494,512,526,548,570,592,614,636,658,680,694,708,722,737,751,765,779,793,807,821,835,849,751,765,779,793,807,821,835,849,751,765,779,793,807,821,835,849,751,765,779,793,807,821,835,849,751,765,779,793,807,821,835,849,614,636,658,680,694,708,722,737,751,765,779,793,807,821,835,849,751,765,779,793,807,821,835,849,751,765,779,793,807,821,835,849,614,636,658,680,694,708,722,737,751,765,779,793,807,821,835,849,751,765,779,793,807,821,835,849,751,765,779,793,807,821,835,849,751,765,779,793,807,821,835,849,751,765,779,793,807,821,835,849,751,765,779,793,807,821,835,849,614,636,658,680,694,708,722,737,751,765,779,793,807,821,835,849,751,765,779,793,807,821,835,849,751,765,779,793,807,821,835,849,751,765,779,793,807,821,835,849,614,636,658,680,694,708,722,737,751,765,779,793,807,821,835,849,751,765,779,793,807,821,835,849,751,765,779,793,807,821,835,849,751,765,779,793,807,821,835,849,751,765,779,793,807,821,835,849,863,877,891,911,931,953,975,989,1003,1019,1035,1053,10474,10488,10502,10516,10530,10544,10558,10572,10586,10602,10618,10636,0,0,0,0,527,549,571,593,615,637,659,681,695,709,723,738,752,766,780,794,808,822,836,850,752,766,780,794,808,822,836,850,752,766,780,794,808,822,836,850,752,766,780,794,808,822,836,850,752,766,780,794,808,822,836,850,615,637,659,681,695,709,723,738,752,766,780,794,808,822,836,850,752,766,780,794,808,822,836,850,752,766,780,794,808,822,836,850,615,637,659,681,695,709,723,738,752,766,780,794,808,822,836,850,752,766,780,794,808,822,836,850,752,766,780,794,808,822,836,850,752,766,780,794,808,822,836,850,752,766,780,794,808,822,836,850,752,766,780,794,808,822,836,850,615,637,659,681,695,709,723,738,752,766,780,794,808,822,836,850,752,766,780,794,808,822,836,850,752,766,780,794,808,822,836,850,752,766,780,794,808,822,836,850,615,637,659,681,695,709,723,738,752,766,780,794,808,822,836,850,752,766,780,794,808,822,836,850,752,766,780,794,808,822,836,850,752,766,780,794,808,822,836,850,752,766,780,794,808,822,836,850,864,878,892,912,932,954,976,990,1004,1020,1036,1054,10475,10489,10503,10517,10531,10545,10559,10573,10587,10603,10619,0,0,0,0,0,528,550,572,594,616,638,660,682,696,710,724,739,753,767,781,795,809,823,837,851,753,767,781,795,809,823,837,851,753,767,781,795,809,823,837,851,753,767,781,795,809,823,837,851,753,767,781,795,809,823,837,851,616,638,660,682,696,710,724,739,753,767,781,795,809,823,837,851,753,767,781,795,809,823,837,851,753,767,781,795,809,823,837,851,616,638,660,682,696,710,724,739,753,767,781,795,809,823,837,851,753,767,781,795,809,823,837,851,753,767,781,795,809,823,837,851,753,767,781,795,809,823,837,851,753,767,781,795,809,823,837,851,753,767,781,795,809,823,837,851,616,638,660,682,696,710,724,739,753,767,781,795,809,823,837,851,753,767,781,795,809,823,837,851,753,767,781,795,809,823,837,851,753,767,781,795,809,823,837,851,616,638,660,682,696,710,724,739,753,767,781,795,809,823,837,851,753,767,781,795,809,823,837,851,753,767,781,795,809,823,837,851,753,767,781,795,809,823,837,851,753,767,781,795,809,823,837,851,865,879,893,913,933,955,977,991,1005,1021,1037,1055,10476,10490,10504,10518,10532,10546,10560,10574,10588,10604,10620,0,0,0,0,0,529,551,573,595,617,639,661,683,697,711,725,740,754,768,782,796,810,824,838,852,754,768,782,796,810,824,838,852,754,768,782,796,810,824,838,852,754,768,782,796,810,824,838,852,754,768,782,796,810,824,838,852,617,639,661,683,697,711,725,740,754,768,782,796,810,824,838,852,754,768,782,796,810,824,838,852,754,768,782,796,810,824,838,852,617,639,661,683,697,711,725,740,754,768,782,796,810,824,838,852,754,768,782,796,810,824,838,852,754,768,782,796,810,824,838,852,754,768,782,796,810,824,838,852,754,768,782,796,810,824,838,852,754,768,782,796,810,824,838,852,617,639,661,683,697,711,725,740,754,768,782,796,810,824,838,852,754,768,782,796,810,824,838,852,754,768,782,796,810,824,838,852,754,768,782,796,810,824,838,852,617,639,661,683,697,711,725,740,754,768,782,796,810,824,838,852,754,768,782,796,810,824,838,852,754,768,782,796,810,824,838,852,754,768,782,796,810,824,838,852,754,768,782,796,810,824,838,852,866,880,894,914,934,956,978,992,1006,1022,1038,1056,10477,10491,10505,10519,10533,10547,10561,10575,10589,10605,10621,0,0,0,0,0,530,552,574,596,614,636,658,680,694,708,722,737,751,765,779,793,807,821,835,849,751,765,779,793,807,821,835,849,751,765,779,793,807,821,835,849,751,765,779,793,807,821,835,849,751,765,779,793,807,821,835,849,614,636,658,680,694,708,722,737,751,765,779,793,807,821,835,849,751,765,779,793,807,821,835,849,751,765,779,793,807,821,835,849,614,636,658,680,694,708,722,737,751,765,779,793,807,821,835,849,751,765,779,793,807,821,835,849,751,765,779,793,807,821,835,849,751,765,779,793,807,821,835,849,751,765,779,793,807,821,835,849,751,765,779,793,807,821,835,849,614,636,658,680,694,708,722,737,751,765,779,793,807,821,835,849,751,765,779,793,807,821,835,849,751,765,779,793,807,821,835,849,751,765,779,793,807,821,835,849,614,636,658,680,694,708,722,737,751,765,779,793,807,821,835,849,751,765,779,793,807,821,835,849,751,765,779,793,807,821,835,849,751,765,779,793,807,821,835,849,751,765,779,793,807,821,835,849,863,877,891,911,931,953,975,993,1007,1023,1039,1057,10478,10492,10506,10520,10534,10548,10562,10576,10590,10606,10622,0,0,0,0,0,531,553,575,597,615,637,659,681,695,709,723,738,752,766,780,794,808,822,836,850,752,766,780,794,808,822,836,850,752,766,780,794,808,822,836,850,752,766,780,794,808,822,836,850,752,766,780,794,808,822,836,850,615,637,659,681,695,709,723,738,752,766,780,794,808,822,836,850,752,766,780,794,808,822,836,850,752,766,780,794,808,822,836,850,615,637,659,681,695,709,723,738,752,766,780,794,808,822,836,850,752,766,780,794,808,822,836,850,752,766,780,794,808,822,836,850,752,766,780,794,808,822,836,850,752,766,780,794,808,822,836,850,752,766,780,794,808,822,836,850,615,637,659,681,695,709,723,738,752,766,780,794,808,822,836,850,752,766,780,794,808,822,836,850,752,766,780,794,808,822,836,850,752,766,780,794,808,822,836,850,615,637,659,681,695,709,723,738,752,766,780,794,808,822,836,850,752,766,780,794,808,822,836,850,752,766,780,794,808,822,836,850,752,766,780,794,808,822,836,850,752,766,780,794,808,822,836,850,864,878,892,912,932,954,976,994,1008,1024,1040,0,0,0,0,0,0,0,0,10623,10637,10651,10665,10665,0,0,0,0,532,554,576,598,616,638,660,682,696,710,724,739,753,767,781,795,809,823,837,851,753,767,781,795,809,823,837,851,753,767,781,795,809,823,837,851,753,767,781,795,809,823,837,851,753,767,781,795,809,823,837,851,616,638,660,682,696,710,724,739,753,767,781,795,809,823,837,851,753,767,781,795,809,823,837,851,753,767,781,795,809,823,837,851,616,638,660,682,696,710,724,739,753,767,781,795,809,823,837,851,753,767,781,795,809,823,837,851,753,767,781,795,809,823,837,851,753,767,781,795,809,823,837,851,753,767,781,795,809,823,837,851,753,767,781,795,809,823,837,851,616,638,660,682,696,710,724,739,753,767,781,795,809,823,837,851,753,767,781,795,809,823,837,851,753,767,781,795,809,823,837,851,753,767,781,795,809,823,837,851,616,638,660,682,696,710,724,739,753,767,781,795,809,823,837,851,753,767,781,795,809,823,837,851,753,767,781,795,809,823,837,851,753,767,781,795,809,823,837,851,753,767,781,795,809,823,837,851,865,879,893,913,933,955,977,995,1009,1025,1041,0,0,0,0,0,0,0,0,10624,10638,10652,10666,10666,0,0,0,0,533,555,577,599,617,639,661,683,697,711,725,740,754,768,782,796,810,824,838,852,754,768,782,796,810,824,838,852,754,768,782,796,810,824,838,852,754,768,782,796,810,824,838,852,754,768,782,796,810,824,838,852,617,639,661,683,697,711,725,740,754,768,782,796,810,824,838,852,754,768,782,796,810,824,838,852,754,768,782,796,810,824,838,852,617,639,661,683,697,711,725,740,754,768,782,796,810,824,838,852,754,768,782,796,810,824,838,852,754,768,782,796,810,824,838,852,754,768,782,796,810,824,838,852,754,768,782,796,810,824,838,852,754,768,782,796,810,824,838,852,617,639,661,683,697,711,725,740,754,768,782,796,810,824,838,852,754,768,782,796,810,824,838,852,754,768,782,796,810,824,838,852,754,768,782,796,810,824,838,852,617,639,661,683,697,711,725,740,754,768,782,796,810,824,838,852,754,768,782,796,810,824,838,852,754,768,782,796,810,824,838,852,754,768,782,796,810,824,838,852,754,768,782,796,810,824,838,852,866,880,894,914,934,956,978,996,1010,1026,1042,0,0,0,0,0,0,10591,10607,10625,10639,10653,10667,10667,0,0,0,0,534,556,578,600,614,636,658,680,694,708,722,737,751,765,779,793,807,821,835,849,751,765,779,793,807,821,835,849,751,765,779,793,807,821,835,849,751,765,779,793,807,821,835,849,751,765,779,793,807,821,835,849,614,636,658,680,694,708,722,737,751,765,779,793,807,821,835,849,751,765,779,793,807,821,835,849,751,765,779,793,807,821,835,849,614,636,658,680,694,708,722,737,751,765,779,793,807,821,835,849,751,765,779,793,807,821,835,849,751,765,779,793,807,821,835,849,751,765,779,793,807,821,835,849,751,765,779,793,807,821,835,849,751,765,779,793,807,821,835,849,614,636,658,680,694,708,722,737,751,765,779,793,807,821,835,849,751,765,779,793,807,821,835,849,751,765,779,793,807,821,835,849,751,765,779,793,807,821,835,849,614,636,658,680,694,708,722,737,751,765,779,793,807,821,835,849,751,765,779,793,807,821,835,849,751,765,779,793,807,821,835,849,751,765,779,793,807,821,835,849,751,765,779,793,807,821,835,849,863,877,891,911,931,953,975,997,1011,1027,1043,0,0,0,0,0,0,10592,10608,10626,10640,10654,10668,10668,0,0,0,0,0,0,0,0,615,637,659,681,695,709,723,738,752,766,780,794,808,822,836,850,752,766,780,794,808,822,836,850,752,766,780,794,808,822,836,850,752,766,780,794,808,822,836,850,752,766,780,794,808,822,836,850,615,637,659,681,695,709,723,738,752,766,780,794,808,822,836,850,752,766,780,794,808,822,836,850,752,766,780,794,808,822,836,850,615,637,659,681,695,709,723,738,752,766,780,794,808,822,836,850,752,766,780,794,808,822,836,850,752,766,780,794,808,822,836,850,752,766,780,794,808,822,836,850,752,766,780,794,808,822,836,850,752,766,780,794,808,822,836,850,615,637,659,681,695,709,723,738,752,766,780,794,808,822,836,850,752,766,780,794,808,822,836,850,752,766,780,794,808,822,836,850,752,766,780,794,808,822,836,850,615,637,659,681,695,709,723,738,752,766,780,794,808,822,836,850,752,766,780,794,808,822,836,850,752,766,780,794,808,822,836,850,752,766,780,794,808,822,836,850,752,766,780,794,808,822,836,850,864,878,892,912,932,954,976,1044,10465,10479,10493,10507,10521,10535,10549,10563,10577,10593,10609,10627,10641,10655,10669,10669,0,0,0,0,0,0,0,0,616,638,660,682,696,710,724,739,753,767,781,795,809,823,837,851,753,767,781,795,809,823,837,851,753,767,781,795,809,823,837,851,753,767,781,795,809,823,837,851,753,767,781,795,809,823,837,851,616,638,660,682,696,710,724,739,753,767,781,795,809,823,837,851,753,767,781,795,809,823,837,851,753,767,781,795,809,823,837,851,616,638,660,682,696,710,724,739,753,767,781,795,809,823,837,851,753,767,781,795,809,823,837,851,753,767,781,795,809,823,837,851,753,767,781,795,809,823,837,851,753,767,781,795,809,823,837,851,753,767,781,795,809,823,837,851,616,638,660,682,696,710,724,739,753,767,781,795,809,823,837,851,753,767,781,795,809,823,837,851,753,767,781,795,809,823,837,851,753,767,781,795,809,823,837,851,616,638,660,682,696,710,724,739,753,767,781,795,809,823,837,851,753,767,781,795,809,823,837,851,753,767,781,795,809,823,837,851,753,767,781,795,809,823,837,851,753,767,781,795,809,823,837,851,865,879,893,913,933,955,977,1045,10466,10480,10494,10508,10522,10536,10550,10564,10578,10594,10610,10628,10642,10656,10670,10670,0,0,0,0,0,0,0,0,617,639,661,683,697,711,725,740,754,768,782,796,810,824,838,852,754,768,782,796,810,824,838,852,754,768,782,796,810,824,838,852,754,768,782,796,810,824,838,852,754,768,782,796,810,824,838,852,617,639,661,683,697,711,725,740,754,768,782,796,810,824,838,852,754,768,782,796,810,824,838,852,754,768,782,796,810,824,838,852,617,639,661,683,697,711,725,740,754,768,782,796,810,824,838,852,754,768,782,796,810,824,838,852,754,768,782,796,810,824,838,852,754,768,782,796,810,824,838,852,754,768,782,796,810,824,838,852,754,768,782,796,810,824,838,852,617,639,661,683,697,711,725,740,754,768,782,796,810,824,838,852,754,768,782,796,810,824,838,852,754,768,782,796,810,824,838,852,754,768,782,796,810,824,838,852,617,639,661,683,697,711,725,740,754,768,782,796,810,824,838,852,754,768,782,796,810,824,838,852,754,768,782,796,810,824,838,852,754,768,782,796,810,824,838,852,754,768,782,796,810,824,838,852,866,880,894,914,934,1012,1028,1046,10467,10481,10495,10509,10523,10537,10551,10565,10579,10595,10611,10629,10643,10657,10671,10671,0,0,0,0,0,0,0,0,618,640,662,684,698,712,726,741,755,769,783,797,811,825,839,853,755,769,783,797,811,825,839,853,755,769,783,797,811,825,839,853,755,769,783,797,811,825,839,853,755,769,783,797,811,825,839,853,618,640,662,684,698,712,726,741,755,769,783,797,811,825,839,853,755,769,783,797,811,825,839,853,755,769,783,797,811,825,839,853,618,640,662,684,698,712,726,741,755,769,783,797,811,825,839,853,755,769,783,797,811,825,839,853,755,769,783,797,811,825,839,853,755,769,783,797,811,825,839,853,755,769,783,797,811,825,839,853,755,769,783,797,811,825,839,853,618,640,662,684,698,712,726,741,755,769,783,797,811,825,839,853,755,769,783,797,811,825,839,853,755,769,783,797,811,825,839,853,755,769,783,797,811,825,839,853,618,640,662,684,698,712,726,741,755,769,783,797,811,825,839,853,755,769,783,797,811,825,839,853,755,769,783,797,811,825,839,853,755,769,783,797,811,825,839,853,755,769,783,797,811,825,839,853,867,881,895,915,935,1013,1029,1047,10468,10482,10496,10510,10524,10538,10552,10566,10580,10596,10612,10630,10644,10658,10672,10672,0,0,0,0,0,0,0,0,619,641,663,685,699,713,727,742,756,770,784,798,812,826,840,854,756,770,784,798,812,826,840,854,756,770,784,798,812,826,840,854,756,770,784,798,812,826,840,854,756,770,784,798,812,826,840,854,619,641,663,685,699,713,727,742,756,770,784,798,812,826,840,854,756,770,784,798,812,826,840,854,756,770,784,798,812,826,840,854,619,641,663,685,699,713,727,742,756,770,784,798,812,826,840,854,756,770,784,798,812,826,840,854,756,770,784,798,812,826,840,854,756,770,784,798,812,826,840,854,756,770,784,798,812,826,840,854,756,770,784,798,812,826,840,854,619,641,663,685,699,713,727,742,756,770,784,798,812,826,840,854,756,770,784,798,812,826,840,854,756,770,784,798,812,826,840,854,756,770,784,798,812,826,840,854,619,641,663,685,699,713,727,742,756,770,784,798,812,826,840,854,756,770,784,798,812,826,840,854,756,770,784,798,812,826,840,854,756,770,784,798,812,826,840,854,756,770,784,798,812,826,840,854,868,940,962,984,998,1014,1030,1048,10469,10483,10497,10511,10525,10539,10553,10567,10581,10597,10613,10631,10645,10659,10673,10673,0,0,0,0,0,0,0,0,620,642,664,686,700,714,728,743,757,771,785,799,813,827,841,855,757,771,785,799,813,827,841,855,757,771,785,799,813,827,841,855,757,771,785,799,813,827,841,855,757,771,785,799,813,827,841,855,620,642,664,686,700,714,728,743,757,771,785,799,813,827,841,855,757,771,785,799,813,827,841,855,757,771,785,799,813,827,841,855,620,642,664,686,700,714,728,743,757,771,785,799,813,827,841,855,757,771,785,799,813,827,841,855,757,771,785,799,813,827,841,855,757,771,785,799,813,827,841,855,757,771,785,799,813,827,841,855,757,771,785,799,813,827,841,855,620,642,664,686,700,714,728,743,757,771,785,799,813,827,841,855,757,771,785,799,813,827,841,855,757,771,785,799,813,827,841,855,757,771,785,799,813,827,841,855,620,642,664,686,700,714,728,743,757,771,785,799,813,827,841,855,757,771,785,799,813,827,841,855,757,771,785,799,813,827,841,855,757,771,785,799,813,827,841,855,757,771,785,799,813,827,841,855,869,941,963,985,999,1015,1031,1049,10470,10484,10498,10512,10526,10540,10554,10568,10582,10598,10614,10628,10642,10656,10670,10670,0,0,0,0,0,0,0,0,621,643,665,687,701,715,729,744,758,772,786,800,814,828,842,856,758,772,786,800,814,828,842,856,758,772,786,800,814,828,842,856,758,772,786,800,814,828,842,856,758,772,786,800,814,828,842,856,621,643,665,687,701,715,729,744,758,772,786,800,814,828,842,856,758,772,786,800,814,828,842,856,758,772,786,800,814,828,842,856,621,643,665,687,701,715,729,744,758,772,786,800,814,828,842,856,758,772,786,800,814,828,842,856,758,772,786,800,814,828,842,856,758,772,786,800,814,828,842,856,758,772,786,800,814,828,842,856,758,772,786,800,814,828,842,856,621,643,665,687,701,715,729,744,758,772,786,800,814,828,842,856,758,772,786,800,814,828,842,856,758,772,786,800,814,828,842,856,758,772,786,800,814,828,842,856,621,643,665,687,701,715,729,744,758,772,786,800,814,828,842,856,758,772,786,800,814,828,842,856,758,772,786,800,814,828,842,856,758,772,786,800,814,828,842,856,758,772,786,800,814,828,842,900,920,942,964,986,1000,1016,1032,1050,10471,10485,10499,10513,10527,10541,10555,10569,10583,10599,10615,10629,10643,10657,10671,10671,0,0,0,0,0,0,0,0,622,644,666,688,702,716,730,745,759,773,787,801,815,829,843,857,759,773,787,801,815,829,843,857,759,773,787,801,815,829,843,857,759,773,787,801,815,829,843,857,759,773,787,801,815,829,843,857,622,644,666,688,702,716,730,745,759,773,787,801,815,829,843,857,759,773,787,801,815,829,843,857,759,773,787,801,815,829,843,857,622,644,666,688,702,716,730,745,759,773,787,801,815,829,843,857,759,773,787,801,815,829,843,857,759,773,787,801,815,829,843,857,759,773,787,801,815,829,843,857,759,773,787,801,815,829,843,857,759,773,787,801,815,829,843,857,622,644,666,688,702,716,730,745,759,773,787,801,815,829,843,857,759,773,787,801,815,829,843,857,759,773,787,801,815,829,843,857,759,773,787,801,815,829,843,857,622,644,666,688,702,716,730,745,759,773,787,801,815,829,843,857,759,773,787,801,815,829,843,857,759,773,787,801,815,829,843,857,759,773,787,801,815,829,843,857,759,773,787,801,815,829,843,901,921,943,965,987,1001,1017,1033,1051,10472,10486,10500,10514,10528,10542,10556,10570,10584,10600,10616,10630,10644,10658,10672,10672,0,0,0,0,0,0,0,0,0,0,0,0,0,0,0,0,0,0,0,0,0,0,0,0,0,0,0,0,0,0,0,0,0,0,0,0,0,0,0,0,0,0,0,0,0,0,0,0,0,0,0,0,0,0,0,0,0,0,0,0,0,0,0,0,0,0,0,0,0,0,0,0,0,0,0,0,0,0,0,0,0,0,0,0,0,0,0,0,0,0,0,0,0,0,0,0,0,0,0,0,0,0,0,0,0,0,0,0,0,0,0,0,0,0,0,0,0,0,0,0,0,0,0,0,0,0,0,0,0,0,0,0,0,0,0,0,0,0,0,0,0,0,0,0,0,0,0,0,0,0,0,0,0,0,0,0,0,0,0,0,0,0,0,0,0,0,0,0,0,0,0,0,0,0,0,0,0,0,0,0,0,0,0,0,0,0,0,0,0,0,0,0,0,0,0,0,0,0,0,0,0,0,0,0,0,0,0,0,0,0,0,0,0,0,0,0,0,0,0,0,0,0,0,0,0,0,0,0,0,0,0,902,922,944,966,988,1002,1018,1034,1052,10473,10487,10501,10515,10529,10543,10557,10571,10585,10601,10617,10631,10645,10659,10673,10673,0,0,0,0,0,0,0,0,0,0,0,0,0,0,0,0,0,0,0,0,0,0,0,0,0,0,0,0,0,0,0,0,0,0,0,0,0,0,0,0,0,0,0,0,0,0,0,0,0,0,0,0,0,0,0,0,0,0,0,0,0,0,0,0,0,0,0,0,0,0,0,0,0,0,0,0,0,0,0,0,0,0,0,0,0,0,0,0,0,0,0,0,0,0,0,0,0,0,0,0,0,0,0,0,0,0,0,0,0,0,0,0,0,0,0,0,0,0,0,0,0,0,0,0,0,0,0,0,0,0,0,0,0,0,0,0,0,0,0,0,0,0,0,0,0,0,0,0,0,0,0,0,0,0,0,0,0,0,0,0,0,0,0,0,0,0,0,0,0,0,0,0,0,0,0,0,0,0,0,0,0,0,0,0,0,0,0,0,0,0,0,0,0,0,0,0,0,0,0,0,0,0,0,0,0,0,0,0,0,0,0,0,0,0,0,0,0,0,0,0,0,0,0,0,0,0,0,0,0,0,0,903,923,945,967,989,1003,1019,1035,1049,10470,10484,10498,10512,10526,10540,10554,10568,10582,10598,10614,10628,10642,10656,10670,10670,0,0,0,0,0,0,0,0,0,0,0,0,0,0,0,0,0,0,0,0,0,0,0,0,0,0,0,0,0,0,0,0,0,0,0,0,0,0,0,0,0,0,0,0,0,0,0,0,0,0,0,0,0,0,0,0,0,0,0,0,0,0,0,0,0,0,0,0,0,0,0,0,0,0,0,0,0,0,0,0,0,0,0,0,0,0,0,0,0,0,0,0,0,0,0,0,0,0,0,0,0,0,0,0,0,0,0,0,0,0,0,0,0,0,0,0,0,0,0,0,0,0,0,0,0,0,0,0,0,0,0,0,0,0,0,0,0,0,0,0,0,0,0,0,0,0,0,0,0,0,0,0,0,0,0,0,0,0,0,0,0,0,0,0,0,0,0,0,0,0,0,0,0,0,0,0,0,0,0,0,0,0,0,0,0,0,0,0,0,0,0,0,0,0,0,0,0,0,0,0,0,0,0,0,0,0,0,0,0,0,0,0,0,0,0,0,0,0,0,0,0,0,0,0,0,0,0,0,0,0,0,904,924,946,968,990,1004,1020,1036,1050,10471,10485,10499,10513,10527,10541,10555,10569,10583,10599,10615,10629,10643,10657,10671,10671,0,0,0,731,0,0,0,0,0,0,0,0,0,0,0,0,0,0,0,0,0,0,0,0,0,0,0,0,0,0,0,0,0,0,0,0,0,0,0,0,0,0,0,0,0,0,0,0,0,0,0,0,0,0,0,0,0,0,0,0,0,0,0,0,0,0,0,0,0,0,0,0,0,0,0,0,0,0,0,0,0,0,0,0,0,0,0,0,0,0,0,0,0,0,0,0,0,0,0,0,0,0,0,0,0,0,0,0,0,0,0,0,0,0,0,0,0,0,0,0,0,0,0,0,0,0,0,0,0,0,0,0,0,0,0,0,0,0,0,0,0,0,0,0,0,0,0,0,0,0,0,0,0,0,0,0,0,0,0,0,0,0,0,0,0,0,0,0,0,0,0,0,0,0,0,0,0,0,0,0,0,0,0,0,0,0,0,0,0,0,0,0,0,0,0,0,0,0,0,0,0,0,0,0,0,0,0,0,0,0,0,0,0,0,0,0,0,0,0,0,0,0,0,0,0,0,0,0,0,0,0,905,925,947,969,991,1005,1021,1037,1051,10472,10486,10500,10514,10528,10542,10556,10570,10584,10600,10616,10630,10644,10658,10672,10672,689,703,717,732,746,760,774,788,802,816,830,844,746,760,774,788,802,816,830,844,746,760,774,788,802,816,830,844,746,760,774,788,802,816,830,844,746,760,774,788,802,816,830,844,0,0,0,0,0,0,0,0,746,760,774,788,802,816,830,844,746,760,774,788,802,816,830,844,746,760,774,788,802,816,830,844,0,0,0,0,0,0,0,0,746,760,774,788,802,816,830,844,746,760,774,788,802,816,830,844,746,760,774,788,802,816,830,844,746,760,774,788,802,816,830,844,746,760,774,788,802,816,830,844,746,760,774,788,802,816,830,844,0,0,0,0,0,0,0,0,746,760,774,788,802,816,830,844,746,760,774,788,802,816,830,844,746,760,774,788,802,816,830,844,746,760,774,788,802,816,830,844,0,0,0,0,0,0,0,0,746,760,774,788,802,816,830,844,746,760,774,788,802,816,830,844,746,760,774,788,802,816,830,844,746,760,774,788,802,816,830,844,746,760,774,788,802,816,830,844,746,760,774,788,802,816,830,844,858,872,886,906,926,948,970,992,1006,1022,1038,1052,10473,10487,10501,10515,10529,10543,10557,10571,10585,10601,10617,10631,10645,10659,10673,10673,690,704,718,733,747,761,775,789,803,817,831,845,747,761,775,789,803,817,831,845,747,761,775,789,803,817,831,845,747,761,775,789,803,817,831,845,747,761,775,789,803,817,831,845,0,0,0,0,0,0,0,0,747,761,775,789,803,817,831,845,747,761,775,789,803,817,831,845,747,761,775,789,803,817,831,845,0,0,0,0,0,0,0,0,747,761,775,789,803,817,831,845,747,761,775,789,803,817,831,845,747,761,775,789,803,817,831,845,747,761,775,789,803,817,831,845,747,761,775,789,803,817,831,845,747,761,775,789,803,817,831,845,0,0,0,0,0,0,0,0,747,761,775,789,803,817,831,845,747,761,775,789,803,817,831,845,747,761,775,789,803,817,831,845,747,761,775,789,803,817,831,845,0,0,0,0,0,0,0,0,747,761,775,789,803,817,831,845,747,761,775,789,803,817,831,845,747,761,775,789,803,817,831,845,747,761,775,789,803,817,831,845,747,761,775,789,803,817,831,845,747,761,775,789,803,817,831,845,859,873,887,907,927,949,971,989,1003,1019,1035,1049,10470,10484,10498,10512,10526,10540,10554,10568,10582,10598,10614,10628,10642,10656,10670,10670,691,705,719,734,748,762,776,790,804,818,832,846,748,762,776,790,804,818,832,846,748,762,776,790,804,818,832,846,748,762,776,790,804,818,832,846,748,762,776,790,804,818,832,846,611,633,655,677,691,705,719,734,748,762,776,790,804,818,832,846,748,762,776,790,804,818,832,846,748,762,776,790,804,818,832,846,611,633,655,677,691,705,719,734,748,762,776,790,804,818,832,846,748,762,776,790,804,818,832,846,748,762,776,790,804,818,832,846,748,762,776,790,804,818,832,846,748,762,776,790,804,818,832,846,748,762,776,790,804,818,832,846,611,633,655,677,691,705,719,734,748,762,776,790,804,818,832,846,748,762,776,790,804,818,832,846,748,762,776,790,804,818,832,846,748,762,776,790,804,818,832,846,611,633,655,677,691,705,719,734,748,762,776,790,804,818,832,846,748,762,776,790,804,818,832,846,748,762,776,790,804,818,832,846,748,762,776,790,804,818,832,846,748,762,776,790,804,818,832,846,748,762,776,790,804,818,832,846,860,874,888,908,928,950,972,990,1004,1020,1036,1050,10471,10485,10499,10513,10527,10541,10555,10569,10583,10599,10615,10629,10643,10657,10671,10671,692,706,720,735,749,763,777,791,805,819,833,847,749,763,777,791,805,819,833,847,749,763,777,791,805,819,833,847,749,763,777,791,805,819,833,847,749,763,777,791,805,819,833,847,612,634,656,678,692,706,720,735,749,763,777,791,805,819,833,847,749,763,777,791,805,819,833,847,749,763,777,791,805,819,833,847,612,634,656,678,692,706,720,735,749,763,777,791,805,819,833,847,749,763,777,791,805,819,833,847,749,763,777,791,805,819,833,847,749,763,777,791,805,819,833,847,749,763,777,791,805,819,833,847,749,763,777,791,805,819,833,847,612,634,656,678,692,706,720,735,749,763,777,791,805,819,833,847,749,763,777,791,805,819,833,847,749,763,777,791,805,819,833,847,749,763,777,791,805,819,833,847,612,634,656,678,692,706,720,735,749,763,777,791,805,819,833,847,749,763,777,791,805,819,833,847,749,763,777,791,805,819,833,847,749,763,777,791,805,819,833,847,749,763,777,791,805,819,833,847,749,763,777,791,805,819,833,847,861,875,889,909,929,951,973,991,1005,1021,1037,1051,10472,10486,10500,10514,10528,10542,10556,10570,10584,10600,10616,10630,10644,10658,10672,10672,693,707,721,736,750,764,778,792,806,820,834,848,750,764,778,792,806,820,834,848,750,764,778,792,806,820,834,848,750,764,778,792,806,820,834,848,750,764,778,792,806,820,834,848,613,635,657,679,693,707,721,736,750,764,778,792,806,820,834,848,750,764,778,792,806,820,834,848,750,764,778,792,806,820,834,848,613,635,657,679,693,707,721,736,750,764,778,792,806,820,834,848,750,764,778,792,806,820,834,848,750,764,778,792,806,820,834,848,750,764,778,792,806,820,834,848,750,764,778,792,806,820,834,848,750,764,778,792,806,820,834,848,613,635,657,679,693,707,721,736,750,764,778,792,806,820,834,848,750,764,778,792,806,820,834,848,750,764,778,792,806,820,834,848,750,764,778,792,806,820,834,848,613,635,657,679,693,707,721,736,750,764,778,792,806,820,834,848,750,764,778,792,806,820,834,848,750,764,778,792,806,820,834,848,750,764,778,792,806,820,834,848,750,764,778,792,806,820,834,848,750,764,778,792,806,820,834,848,862,876,890,910,930,952,974,992,1006,1022,1038,1052,10473,10487,10501,10515,10529,10543,10557,10571,10585,10601,10617,10631,10645,10659,10673,10673,694,708,722,737,751,765,779,793,807,821,835,849,751,765,779,793,807,821,835,849,751,765,779,793,807,821,835,849,751,765,779,793,807,821,835,849,751,765,779,793,807,821,835,849,614,636,658,680,694,708,722,737,751,765,779,793,807,821,835,849,751,765,779,793,807,821,835,849,751,765,779,793,807,821,835,849,614,636,658,680,694,708,722,737,751,765,779,793,807,821,835,849,751,765,779,793,807,821,835,849,751,765,779,793,807,821,835,849,751,765,779,793,807,821,835,849,751,765,779,793,807,821,835,849,751,765,779,793,807,821,835,849,614,636,658,680,694,708,722,737,751,765,779,793,807,821,835,849,751,765,779,793,807,821,835,849,751,765,779,793,807,821,835,849,751,765,779,793,807,821,835,849,614,636,658,680,694,708,722,737,751,765,779,793,807,821,835,849,751,765,779,793,807,821,835,849,751,765,779,793,807,821,835,849,751,765,779,793,807,821,835,849,751,765,779,793,807,821,835,849,751,765,779,793,807,821,835,849,863,877,891,911,931,953,975,989,1003,1019,1035,1049,10470,10484,10498,10512,10526,10540,10554,10568,10582,10598,10614,10632,10646,10660,10674,10674,695,709,723,738,752,766,780,794,808,822,836,850,752,766,780,794,808,822,836,850,752,766,780,794,808,822,836,850,752,766,780,794,808,822,836,850,752,766,780,794,808,822,836,850,615,637,659,681,695,709,723,738,752,766,780,794,808,822,836,850,752,766,780,794,808,822,836,850,752,766,780,794,808,822,836,850,615,637,659,681,695,709,723,738,752,766,780,794,808,822,836,850,752,766,780,794,808,822,836,850,752,766,780,794,808,822,836,850,752,766,780,794,808,822,836,850,752,766,780,794,808,822,836,850,752,766,780,794,808,822,836,850,615,637,659,681,695,709,723,738,752,766,780,794,808,822,836,850,752,766,780,794,808,822,836,850,752,766,780,794,808,822,836,850,752,766,780,794,808,822,836,850,615,637,659,681,695,709,723,738,752,766,780,794,808,822,836,850,752,766,780,794,808,822,836,850,752,766,780,794,808,822,836,850,752,766,780,794,808,822,836,850,752,766,780,794,808,822,836,850,752,766,780,794,808,822,836,850,864,878,892,912,932,954,976,990,1004,1020,1036,1050,10471,10485,10499,10513,10527,10541,10555,10569,10583,10599,10615,10633,10647,10661,10675,10675,696,710,724,739,753,767,781,795,809,823,837,851,753,767,781,795,809,823,837,851,753,767,781,795,809,823,837,851,753,767,781,795,809,823,837,851,753,767,781,795,809,823,837,851,616,638,660,682,696,710,724,739,753,767,781,795,809,823,837,851,753,767,781,795,809,823,837,851,753,767,781,795,809,823,837,851,616,638,660,682,696,710,724,739,753,767,781,795,809,823,837,851,753,767,781,795,809,823,837,851,753,767,781,795,809,823,837,851,753,767,781,795,809,823,837,851,753,767,781,795,809,823,837,851,753,767,781,795,809,823,837,851,616,638,660,682,696,710,724,739,753,767,781,795,809,823,837,851,753,767,781,795,809,823,837,851,753,767,781,795,809,823,837,851,753,767,781,795,809,823,837,851,616,638,660,682,696,710,724,739,753,767,781,795,809,823,837,851,753,767,781,795,809,823,837,851,753,767,781,795,809,823,837,851,753,767,781,795,809,823,837,851,753,767,781,795,809,823,837,851,753,767,781,795,809,823,837,851,865,879,893,913,933,955,977,991,1005,1021,1037,1051,10472,10486,10500,10514,10528,10542,10556,10570,10584,10600,10616,10634,10648,10662,10676,10676,697,711,725,740,754,768,782,796,810,824,838,852,754,768,782,796,810,824,838,852,754,768,782,796,810,824,838,852,754,768,782,796,810,824,838,852,754,768,782,796,810,824,838,852,617,639,661,683,697,711,725,740,754,768,782,796,810,824,838,852,754,768,782,796,810,824,838,852,754,768,782,796,810,824,838,852,617,639,661,683,697,711,725,740,754,768,782,796,810,824,838,852,754,768,782,796,810,824,838,852,754,768,782,796,810,824,838,852,754,768,782,796,810,824,838,852,754,768,782,796,810,824,838,852,754,768,782,796,810,824,838,852,617,639,661,683,697,711,725,740,754,768,782,796,810,824,838,852,754,768,782,796,810,824,838,852,754,768,782,796,810,824,838,852,754,768,782,796,810,824,838,852,617,639,661,683,697,711,725,740,754,768,782,796,810,824,838,852,754,768,782,796,810,824,838,852,754,768,782,796,810,824,838,852,754,768,782,796,810,824,838,852,754,768,782,796,810,824,838,852,754,768,782,796,810,824,838,852,866,880,894,914,934,956,978,992,1006,1022,1038,1052,10473,10487,10501,10515,10529,10543,10557,10571,10585,10601,10617,10635,10649,10663,10677,10677,694,708,722,737,751,765,779,793,807,821,835,849,751,765,779,793,807,821,835,849,751,765,779,793,807,821,835,849,751,765,779,793,807,821,835,849,751,765,779,793,807,821,835,849,614,636,658,680,694,708,722,737,751,765,779,793,807,821,835,849,751,765,779,793,807,821,835,849,751,765,779,793,807,821,835,849,614,636,658,680,694,708,722,737,751,765,779,793,807,821,835,849,751,765,779,793,807,821,835,849,751,765,779,793,807,821,835,849,751,765,779,793,807,821,835,849,751,765,779,793,807,821,835,849,751,765,779,793,807,821,835,849,614,636,658,680,694,708,722,737,751,765,779,793,807,821,835,849,751,765,779,793,807,821,835,849,751,765,779,793,807,821,835,849,751,765,779,793,807,821,835,849,614,636,658,680,694,708,722,737,751,765,779,793,807,821,835,849,751,765,779,793,807,821,835,849,751,765,779,793,807,821,835,849,751,765,779,793,807,821,835,849,751,765,779,793,807,821,835,849,751,765,779,793,807,821,835,849,863,877,891,911,931,953,975,989,1003,1019,1035,1053,10474,10488,10502,10516,10530,10544,10558,10572,10586,10602,10618,10636,10650,10664,10678,10678,695,709,723,738,752,766,780,794,808,822,836,850,752,766,780,794,808,822,836,850,752,766,780,794,808,822,836,850,752,766,780,794,808,822,836,850,752,766,780,794,808,822,836,850,615,637,659,681,695,709,723,738,752,766,780,794,808,822,836,850,752,766,780,794,808,822,836,850,752,766,780,794,808,822,836,850,615,637,659,681,695,709,723,738,752,766,780,794,808,822,836,850,752,766,780,794,808,822,836,850,752,766,780,794,808,822,836,850,752,766,780,794,808,822,836,850,752,766,780,794,808,822,836,850,752,766,780,794,808,822,836,850,615,637,659,681,695,709,723,738,752,766,780,794,808,822,836,850,752,766,780,794,808,822,836,850,752,766,780,794,808,822,836,850,752,766,780,794,808,822,836,850,615,637,659,681,695,709,723,738,752,766,780,794,808,822,836,850,752,766,780,794,808,822,836,850,752,766,780,794,808,822,836,850,752,766,780,794,808,822,836,850,752,766,780,794,808,822,836,850,752,766,780,794,808,822,836,850,864,878,892,912,932,954,976,990,1004,1020,1036,1054,10475,10489,10503,10517,10531,10545,10559,10573,10587,10603,10619,0,0,0,0,0,696,710,724,739,753,767,781,795,809,823,837,851,753,767,781,795,809,823,837,851,753,767,781,795,809,823,837,851,753,767,781,795,809,823,837,851,753,767,781,795,809,823,837,851,616,638,660,682,696,710,724,739,753,767,781,795,809,823,837,851,753,767,781,795,809,823,837,851,753,767,781,795,809,823,837,851,616,638,660,682,696,710,724,739,753,767,781,795,809,823,837,851,753,767,781,795,809,823,837,851,753,767,781,795,809,823,837,851,753,767,781,795,809,823,837,851,753,767,781,795,809,823,837,851,753,767,781,795,809,823,837,851,616,638,660,682,696,710,724,739,753,767,781,795,809,823,837,851,753,767,781,795,809,823,837,851,753,767,781,795,809,823,837,851,753,767,781,795,809,823,837,851,616,638,660,682,696,710,724,739,753,767,781,795,809,823,837,851,753,767,781,795,809,823,837,851,753,767,781,795,809,823,837,851,753,767,781,795,809,823,837,851,753,767,781,795,809,823,837,851,753,767,781,795,809,823,837,851,865,879,893,913,933,955,977,991,1005,1021,1037,1055,10476,10490,10504,10518,10532,10546,10560,10574,10588,10604,10620,0,0,0,0,0,697,711,725,740,754,768,782,796,810,824,838,852,754,768,782,796,810,824,838,852,754,768,782,796,810,824,838,852,754,768,782,796,810,824,838,852,754,768,782,796,810,824,838,852,617,639,661,683,697,711,725,740,754,768,782,796,810,824,838,852,754,768,782,796,810,824,838,852,754,768,782,796,810,824,838,852,617,639,661,683,697,711,725,740,754,768,782,796,810,824,838,852,754,768,782,796,810,824,838,852,754,768,782,796,810,824,838,852,754,768,782,796,810,824,838,852,754,768,782,796,810,824,838,852,754,768,782,796,810,824,838,852,617,639,661,683,697,711,725,740,754,768,782,796,810,824,838,852,754,768,782,796,810,824,838,852,754,768,782,796,810,824,838,852,754,768,782,796,810,824,838,852,617,639,661,683,697,711,725,740,754,768,782,796,810,824,838,852,754,768,782,796,810,824,838,852,754,768,782,796,810,824,838,852,754,768,782,796,810,824,838,852,754,768,782,796,810,824,838,852,754,768,782,796,810,824,838,852,866,880,894,914,934,956,978,992,1006,1022,1038,1056,10477,10491,10505,10519,10533,10547,10561,10575,10589,10605,10621,0,0,0,0,0,694,708,722,737,751,765,779,793,807,821,835,849,751,765,779,793,807,821,835,849,751,765,779,793,807,821,835,849,751,765,779,793,807,821,835,849,751,765,779,793,807,821,835,849,614,636,658,680,694,708,722,737,751,765,779,793,807,821,835,849,751,765,779,793,807,821,835,849,751,765,779,793,807,821,835,849,614,636,658,680,694,708,722,737,751,765,779,793,807,821,835,849,751,765,779,793,807,821,835,849,751,765,779,793,807,821,835,849,751,765,779,793,807,821,835,849,751,765,779,793,807,821,835,849,751,765,779,793,807,821,835,849,614,636,658,680,694,708,722,737,751,765,779,793,807,821,835,849,751,765,779,793,807,821,835,849,751,765,779,793,807,821,835,849,751,765,779,793,807,821,835,849,614,636,658,680,694,708,722,737,751,765,779,793,807,821,835,849,751,765,779,793,807,821,835,849,751,765,779,793,807,821,835,849,751,765,779,793,807,821,835,849,751,765,779,793,807,821,835,849,751,765,779,793,807,821,835,849,863,877,891,911,931,953,975,993,1007,1023,1039,1057,10478,10492,10506,10520,10534,10548,10562,10576,10590,10606,10622,0,0,0,0,0,695,709,723,738,752,766,780,794,808,822,836,850,752,766,780,794,808,822,836,850,752,766,780,794,808,822,836,850,752,766,780,794,808,822,836,850,752,766,780,794,808,822,836,850,615,637,659,681,695,709,723,738,752,766,780,794,808,822,836,850,752,766,780,794,808,822,836,850,752,766,780,794,808,822,836,850,615,637,659,681,695,709,723,738,752,766,780,794,808,822,836,850,752,766,780,794,808,822,836,850,752,766,780,794,808,822,836,850,752,766,780,794,808,822,836,850,752,766,780,794,808,822,836,850,752,766,780,794,808,822,836,850,615,637,659,681,695,709,723,738,752,766,780,794,808,822,836,850,752,766,780,794,808,822,836,850,752,766,780,794,808,822,836,850,752,766,780,794,808,822,836,850,615,637,659,681,695,709,723,738,752,766,780,794,808,822,836,850,752,766,780,794,808,822,836,850,752,766,780,794,808,822,836,850,752,766,780,794,808,822,836,850,752,766,780,794,808,822,836,850,752,766,780,794,808,822,836,850,864,878,892,912,932,954,976,994,1008,1024,1040,0,0,0,0,0,0,0,0,0,0,0,0,0,0,0,0,0,696,710,724,739,753,767,781,795,809,823,837,851,753,767,781,795,809,823,837,851,753,767,781,795,809,823,837,851,753,767,781,795,809,823,837,851,753,767,781,795,809,823,837,851,616,638,660,682,696,710,724,739,753,767,781,795,809,823,837,851,753,767,781,795,809,823,837,851,753,767,781,795,809,823,837,851,616,638,660,682,696,710,724,739,753,767,781,795,809,823,837,851,753,767,781,795,809,823,837,851,753,767,781,795,809,823,837,851,753,767,781,795,809,823,837,851,753,767,781,795,809,823,837,851,753,767,781,795,809,823,837,851,616,638,660,682,696,710,724,739,753,767,781,795,809,823,837,851,753,767,781,795,809,823,837,851,753,767,781,795,809,823,837,851,753,767,781,795,809,823,837,851,616,638,660,682,696,710,724,739,753,767,781,795,809,823,837,851,753,767,781,795,809,823,837,851,753,767,781,795,809,823,837,851,753,767,781,795,809,823,837,851,753,767,781,795,809,823,837,851,753,767,781,795,809,823,837,851,865,879,893,913,933,955,977,995,1009,1025,1041,0,0,0,0,0,0,0,0,0,0,0,0,0,0,0,0,0,697,711,725,740,754,768,782,796,810,824,838,852,754,768,782,796,810,824,838,852,754,768,782,796,810,824,838,852,754,768,782,796,810,824,838,852,754,768,782,796,810,824,838,852,617,639,661,683,697,711,725,740,754,768,782,796,810,824,838,852,754,768,782,796,810,824,838,852,754,768,782,796,810,824,838,852,617,639,661,683,697,711,725,740,754,768,782,796,810,824,838,852,754,768,782,796,810,824,838,852,754,768,782,796,810,824,838,852,754,768,782,796,810,824,838,852,754,768,782,796,810,824,838,852,754,768,782,796,810,824,838,852,617,639,661,683,697,711,725,740,754,768,782,796,810,824,838,852,754,768,782,796,810,824,838,852,754,768,782,796,810,824,838,852,754,768,782,796,810,824,838,852,617,639,661,683,697,711,725,740,754,768,782,796,810,824,838,852,754,768,782,796,810,824,838,852,754,768,782,796,810,824,838,852,754,768,782,796,810,824,838,852,754,768,782,796,810,824,838,852,754,768,782,796,810,824,838,852,866,880,894,914,934,956,978,996,1010,1026,1042,0,0,0,0,0,0,0,0,0,0,0,0,0,0,0,0,0,694,708,722,737,751,765,779,793,807,821,835,849,751,765,779,793,807,821,835,849,751,765,779,793,807,821,835,849,751,765,779,793,807,821,835,849,751,765,779,793,807,821,835,849,614,636,658,680,694,708,722,737,751,765,779,793,807,821,835,849,751,765,779,793,807,821,835,849,751,765,779,793,807,821,835,849,614,636,658,680,694,708,722,737,751,765,779,793,807,821,835,849,751,765,779,793,807,821,835,849,751,765,779,793,807,821,835,849,751,765,779,793,807,821,835,849,751,765,779,793,807,821,835,849,751,765,779,793,807,821,835,849,614,636,658,680,694,708,722,737,751,765,779,793,807,821,835,849,751,765,779,793,807,821,835,849,751,765,779,793,807,821,835,849,751,765,779,793,807,821,835,849,614,636,658,680,694,708,722,737,751,765,779,793,807,821,835,849,751,765,779,793,807,821,835,849,751,765,779,793,807,821,835,849,751,765,779,793,807,821,835,849,751,765,779,793,807,821,835,849,751,765,779,793,807,821,835,849,863,877,891,911,931,953,975,997,1011,1027,1043,0,0,0,0,0,0,0,0,0,0,0,0,0,0,0,0,0,695,709,723,738,752,766,780,794,808,822,836,850,752,766,780,794,808,822,836,850,752,766,780,794,808,822,836,850,752,766,780,794,808,822,836,850,752,766,780,794,808,822,836,850,615,637,659,681,695,709,723,738,752,766,780,794,808,822,836,850,752,766,780,794,808,822,836,850,752,766,780,794,808,822,836,850,615,637,659,681,695,709,723,738,752,766,780,794,808,822,836,850,752,766,780,794,808,822,836,850,752,766,780,794,808,822,836,850,752,766,780,794,808,822,836,850,752,766,780,794,808,822,836,850,752,766,780,794,808,822,836,850,615,637,659,681,695,709,723,738,752,766,780,794,808,822,836,850,752,766,780,794,808,822,836,850,752,766,780,794,808,822,836,850,752,766,780,794,808,822,836,850,615,637,659,681,695,709,723,738,752,766,780,794,808,822,836,850,752,766,780,794,808,822,836,850,752,766,780,794,808,822,836,850,752,766,780,794,808,822,836,850,752,766,780,794,808,822,836,850,752,766,780,794,808,822,836,850,864,878,892,912,932,954,976,0,0,0,0,0,0,0,0,0,0,0,0,0,0,0,0,0,0,0,0,0,696,710,724,739,753,767,781,795,809,823,837,851,753,767,781,795,809,823,837,851,753,767,781,795,809,823,837,851,753,767,781,795,809,823,837,851,753,767,781,795,809,823,837,851,616,638,660,682,696,710,724,739,753,767,781,795,809,823,837,851,753,767,781,795,809,823,837,851,753,767,781,795,809,823,837,851,616,638,660,682,696,710,724,739,753,767,781,795,809,823,837,851,753,767,781,795,809,823,837,851,753,767,781,795,809,823,837,851,753,767,781,795,809,823,837,851,753,767,781,795,809,823,837,851,753,767,781,795,809,823,837,851,616,638,660,682,696,710,724,739,753,767,781,795,809,823,837,851,753,767,781,795,809,823,837,851,753,767,781,795,809,823,837,851,753,767,781,795,809,823,837,851,616,638,660,682,696,710,724,739,753,767,781,795,809,823,837,851,753,767,781,795,809,823,837,851,753,767,781,795,809,823,837,851,753,767,781,795,809,823,837,851,753,767,781,795,809,823,837,851,753,767,781,795,809,823,837,851,865,879,893,913,933,955,977,0,0,0,0,0,0,0,0,0,0,0,0,0,0,0,0,0,0,0,0,0,697,711,725,740,754,768,782,796,810,824,838,852,754,768,782,796,810,824,838,852,754,768,782,796,810,824,838,852,754,768,782,796,810,824,838,852,754,768,782,796,810,824,838,852,617,639,661,683,697,711,725,740,754,768,782,796,810,824,838,852,754,768,782,796,810,824,838,852,754,768,782,796,810,824,838,852,617,639,661,683,697,711,725,740,754,768,782,796,810,824,838,852,754,768,782,796,810,824,838,852,754,768,782,796,810,824,838,852,754,768,782,796,810,824,838,852,754,768,782,796,810,824,838,852,754,768,782,796,810,824,838,852,617,639,661,683,697,711,725,740,754,768,782,796,810,824,838,852,754,768,782,796,810,824,838,852,754,768,782,796,810,824,838,852,754,768,782,796,810,824,838,852,617,639,661,683,697,711,725,740,754,768,782,796,810,824,838,852,754,768,782,796,810,824,838,852,754,768,782,796,810,824,838,852,754,768,782,796,810,824,838,852,754,768,782,796,810,824,838,852,754,768,782,796,810,824,838,852,866,880,894,914,934,956,978,0,0,0,0,0,0,0,0,0,0,0,0,0,0,0,0,0,0,0,0,0,698,712,726,741,755,769,783,797,811,825,839,853,755,769,783,797,811,825,839,853,755,769,783,797,811,825,839,853,755,769,783,797,811,825,839,853,755,769,783,797,811,825,839,853,618,640,662,684,698,712,726,741,755,769,783,797,811,825,839,853,755,769,783,797,811,825,839,853,755,769,783,797,811,825,839,853,618,640,662,684,698,712,726,741,755,769,783,797,811,825,839,853,755,769,783,797,811,825,839,853,755,769,783,797,811,825,839,853,755,769,783,797,811,825,839,853,755,769,783,797,811,825,839,853,755,769,783,797,811,825,839,853,618,640,662,684,698,712,726,741,755,769,783,797,811,825,839,853,755,769,783,797,811,825,839,853,755,769,783,797,811,825,839,853,755,769,783,797,811,825,839,853,618,640,662,684,698,712,726,741,755,769,783,797,811,825,839,853,755,769,783,797,811,825,839,853,755,769,783,797,811,825,839,853,755,769,783,797,811,825,839,853,755,769,783,797,811,825,839,853,755,769,783,797,811,825,839,853,867,881,895,915,935,957,979,0,0,0,0,0,0,0,0,0,0,0,0,0,0,0,0,0,0,0,0,0,699,713,727,742,756,770,784,798,812,826,840,854,756,770,784,798,812,826,840,854,756,770,784,798,812,826,840,854,756,770,784,798,812,826,840,854,756,770,784,798,812,826,840,854,619,641,663,685,699,713,727,742,756,770,784,798,812,826,840,854,756,770,784,798,812,826,840,854,756,770,784,798,812,826,840,854,619,641,663,685,699,713,727,742,756,770,784,798,812,826,840,854,756,770,784,798,812,826,840,854,756,770,784,798,812,826,840,854,756,770,784,798,812,826,840,854,756,770,784,798,812,826,840,854,756,770,784,798,812,826,840,854,619,641,663,685,699,713,727,742,756,770,784,798,812,826,840,854,756,770,784,798,812,826,840,854,756,770,784,798,812,826,840,854,756,770,784,798,812,826,840,854,619,641,663,685,699,713,727,742,756,770,784,798,812,826,840,854,756,770,784,798,812,826,840,854,756,770,784,798,812,826,840,854,756,770,784,798,812,826,840,854,756,770,784,798,812,826,840,854,756,770,784,798,812,826,840,854,868,882,896,916,936,958,980,0,0,0,0,0,0,0,0,0,0,0,0,0,0,0,0,0,0,0,0,0,700,714,728,743,757,771,785,799,813,827,841,855,757,771,785,799,813,827,841,855,757,771,785,799,813,827,841,855,757,771,785,799,813,827,841,855,757,771,785,799,813,827,841,855,620,642,664,686,700,714,728,743,757,771,785,799,813,827,841,855,757,771,785,799,813,827,841,855,757,771,785,799,813,827,841,855,620,642,664,686,700,714,728,743,757,771,785,799,813,827,841,855,757,771,785,799,813,827,841,855,757,771,785,799,813,827,841,855,757,771,785,799,813,827,841,855,757,771,785,799,813,827,841,855,757,771,785,799,813,827,841,855,620,642,664,686,700,714,728,743,757,771,785,799,813,827,841,855,757,771,785,799,813,827,841,855,757,771,785,799,813,827,841,855,757,771,785,799,813,827,841,855,620,642,664,686,700,714,728,743,757,771,785,799,813,827,841,855,757,771,785,799,813,827,841,855,757,771,785,799,813,827,841,855,757,771,785,799,813,827,841,855,757,771,785,799,813,827,841,855,757,771,785,799,813,827,841,855,869,883,897,917,937,959,981,0,0,0,0,0,0,0,0,0,0,0,0,0,0,0,0,0,0,0,0,0,701,715,729,744,758,772,786,800,814,828,842,856,758,772,786,800,814,828,842,856,758,772,786,800,814,828,842,856,758,772,786,800,814,828,842,856,758,772,786,800,814,828,842,856,621,643,665,687,701,715,729,744,758,772,786,800,814,828,842,856,758,772,786,800,814,828,842,856,758,772,786,800,814,828,842,856,621,643,665,687,701,715,729,744,758,772,786,800,814,828,842,856,758,772,786,800,814,828,842,856,758,772,786,800,814,828,842,856,758,772,786,800,814,828,842,856,758,772,786,800,814,828,842,856,758,772,786,800,814,828,842,856,621,643,665,687,701,715,729,744,758,772,786,800,814,828,842,856,758,772,786,800,814,828,842,856,758,772,786,800,814,828,842,856,758,772,786,800,814,828,842,856,621,643,665,687,701,715,729,744,758,772,786,800,814,828,842,856,758,772,786,800,814,828,842,856,758,772,786,800,814,828,842,856,758,772,786,800,814,828,842,856,758,772,786,800,814,828,842,856,758,772,786,800,814,828,842,856,870,884,898,918,938,960,982,0,0,0,0,0,0,0,0,0,0,0,0,0,0,0,0,0,0,0,0,0,702,716,730,745,759,773,787,801,815,829,843,857,759,773,787,801,815,829,843,857,759,773,787,801,815,829,843,857,759,773,787,801,815,829,843,857,759,773,787,801,815,829,843,857,622,644,666,688,702,716,730,745,759,773,787,801,815,829,843,857,759,773,787,801,815,829,843,857,759,773,787,801,815,829,843,857,622,644,666,688,702,716,730,745,759,773,787,801,815,829,843,857,759,773,787,801,815,829,843,857,759,773,787,801,815,829,843,857,759,773,787,801,815,829,843,857,759,773,787,801,815,829,843,857,759,773,787,801,815,829,843,857,622,644,666,688,702,716,730,745,759,773,787,801,815,829,843,857,759,773,787,801,815,829,843,857,759,773,787,801,815,829,843,857,759,773,787,801,815,829,843,857,622,644,666,688,702,716,730,745,759,773,787,801,815,829,843,857,759,773,787,801,815,829,843,857,759,773,787,801,815,829,843,857,759,773,787,801,815,829,843,857,759,773,787,801,815,829,843,857,759,773,787,801,815,829,843,857,871,885,899,919,939,961,983,0,0,0,0,0,0,0,0,0,0,0,0,0,0,0,0,0,0,0,0,0,0,0,0,0,0,0,0,0,0,0,0,0,0,0,0,0,0,0,0,0,0,0,0,0,0,0,0,0,0,0,0,0,0,0,0,0,0,0,0,0,0,0,0,0,0,0,0,0,0,0,0,0,0,0,0,0,0,0,0,0,0,0,0,0,0,0,0,0,0,0,0,0,0,0,0,0,0,0,0,0,0,0,0,0,0,0,0,0,0,0,0,0,0,0,0,0,0,0,0,0,0,0,0,0,0,0,0,0,0,0,0,0,0,0,0,0,0,0,0,0,0,0,0,0,0,0,0,0,0,0,0,0,0,0,0,0,0,0,0,0,0,0,0,0,0,0,0,0,0,0,0,0,0,0,0,0,0,0,0,0,0,0,0,0,0,0,0,0,0,0,0,0,0,0,0,0,0,0,0,0,0,0,0,0,0,0,0,0,0,0,0,0,0,0,0,0,0,0,0,0,0,0,0,0,0,0,0,0,0,0,0,0,0,0,0,0,0,0,0,0,0,0,0,0,0,0,0,0,0,0,0,0,0,0,0,0,0,0,0,0,0,0,0,0,0,0,0,0,0,0,0,0,0,0,0,0,0,0,0,0,0,0,0,0,0,0,0,0,0,0,0,0,0,0,0,0,0,0,0,0,0,0,0,0,0,0,0,0,0,0,0,0,0,0,0,0,0,0,0,0,0,0,0,0,0,0,0,0,0,0,0,0,0,0,0,0,0,0,0,0,0,0,0,0,0,0,0,0,0,0,0,0,0,0,0,0,0,0,0,0,0,0,0,0,0,0,0,0,0,0,0,0,0,0,0,0,0,0,0,0,0,0,0,0,0,0,0,0,0,0,0,0,0,0,0,0,0,0,0,0,0,0,0,0,0,0,0,0,0,0,0,0,0,0,0,0,0,0,0,0,0,0,0,0,0,0,0,0,0,0,0,0,0,0,0,0,0,0,0,0,0,0,0,0,0,0,0,0,0,0,0,0,0,0,0,0,0,0,0,0,0,0,0,0,0,0,0,0,0,0,0,0,0,0,0,0,0,0,0,0,0,0,0,0,0,0,0,0,0,0,0,0,0,0,0,0,0,0,0,0,0,0,0,0,0,0,0,0,0,0,0,0,0,0,0,0,0,0,0,0,0,0,0,0,0,0,0,0,0,0,0,0]},{"id":3,"name":"berges_eau","type":"tilelayer","x":0,"y":0,"width":256,"height":192,"opacity":1,"visible":true,"data":[0,0,0,0,0,0,0,0,0,0,0,0,0,0,0,0,0,0,0,0,0,0,0,0,0,0,0,0,0,0,0,0,0,0,0,0,0,0,0,1058,1059,1060,1061,1062,1063,1064,1065,1066,1067,1068,1074,1080,1086,1092,1098,1104,1110,1116,1122,1128,1134,1140,1146,1152,1158,1164,1170,1176,1182,1188,1194,1200,1206,1212,1218,1219,1220,1221,1222,1223,1224,0,0,0,0,0,0,0,0,0,0,0,0,0,0,0,0,0,0,0,0,0,0,0,0,0,0,0,0,0,0,0,0,0,0,0,0,0,0,0,0,0,0,0,0,0,0,0,0,0,0,0,0,0,0,0,0,0,0,0,0,0,0,0,0,0,0,0,0,0,0,0,0,0,0,0,0,0,0,0,0,0,0,0,0,0,0,1058,1059,1060,1061,1062,1063,1064,1065,1066,1067,1068,1074,1080,1086,1092,1098,1104,1110,1116,1122,1128,1134,1140,1146,1152,1158,1164,1170,1176,1182,1188,1194,1200,1206,1212,1218,1219,1220,1221,1222,1223,1224,0,0,0,0,0,0,0,0,0,0,0,0,0,0,0,0,0,0,0,0,0,0,0,0,0,0,0,0,0,0,0,0,0,0,0,0,0,0,0,0,0,0,0,0,0,0,0,0,0,0,0,0,0,0,0,0,0,0,0,0,0,0,0,0,0,0,0,0,0,0,0,0,0,0,0,0,0,0,0,0,0,0,0,0,0,0,1058,1059,1060,1061,1062,1063,1064,1065,1066,1067,1068,1074,1080,1086,1092,1098,1104,1110,1116,1122,1128,1134,1140,1146,1152,1158,1164,1170,1176,1182,1188,1194,1200,1206,1212,1218,1219,1220,1221,1222,1223,1224,0,0,0,0,0,0,0,0,0,0,0,0,0,0,0,0,0,0,0,0,0,0,0,0,0,0,0,0,0,0,0,0,0,0,0,0,0,0,0,0,0,0,0,0,0,0,0,0,0,0,0,0,0,0,0,0,0,0,0,0,0,0,0,0,0,0,0,0,0,0,0,0,0,0,0,0,0,0,0,0,0,0,0,0,0,0,1058,1059,1060,1061,1062,1063,1064,1065,1066,1067,1068,1074,1080,1086,1092,1098,1104,1110,1116,1122,1128,1134,1140,1146,1152,1158,1164,1170,1176,1182,1188,1194,1200,1206,1212,1218,1219,1220,1221,1222,1223,1224,0,0,0,0,0,0,0,0,0,0,0,0,0,0,0,0,0,0,0,0,0,0,0,0,0,0,0,0,0,0,0,0,0,0,0,0,0,0,0,0,0,0,0,0,0,0,0,0,0,0,0,0,0,0,0,0,0,0,0,0,0,0,0,0,0,0,0,0,0,0,0,0,0,0,0,0,0,0,0,0,0,0,0,0,0,0,1058,1059,1060,1061,1062,1063,1064,1065,1066,1067,1068,1074,1080,1086,1092,1098,1104,1110,1116,1122,1128,1134,1140,1146,1152,1158,1164,1170,1176,1182,1188,1194,1200,1206,1212,1218,1219,1220,1221,1222,1223,1224,0,0,0,0,0,0,0,0,0,0,0,0,0,0,0,0,0,0,0,0,0,0,0,0,0,0,0,0,0,0,0,0,0,0,0,0,0,0,0,0,0,0,0,0,0,0,0,0,0,0,0,0,0,0,0,0,0,0,0,0,0,0,0,0,0,0,0,0,0,0,0,0,0,0,0,0,0,0,0,0,0,0,0,0,0,0,1058,1059,1060,1061,1062,1063,1064,1065,1066,1067,1068,1074,1080,1086,1092,1098,1104,1110,1116,1122,1128,1134,1140,1146,1152,1158,1164,1170,1176,1182,1188,1194,1200,1206,1212,1218,1219,1220,1221,1222,1223,1224,0,0,0,0,0,0,0,0,0,0,0,0,0,0,0,0,0,0,0,0,0,0,0,0,0,0,0,0,0,0,0,0,0,0,0,0,0,0,0,0,0,0,0,0,0,0,0,0,0,0,0,0,0,0,0,0,0,0,0,0,0,0,0,0,0,0,0,0,0,0,0,0,0,0,0,0,0,0,0,0,0,0,0,0,0,0,1058,1059,1060,1061,1062,1063,1064,1065,1066,1067,1068,1074,1080,1086,1092,1098,1104,1110,1116,1122,1128,1134,1140,1146,1152,1158,1164,1170,1176,1182,1188,1194,1200,1206,1212,1218,1219,1220,1221,1222,1223,1224,0,0,0,0,0,0,0,0,0,0,0,0,0,0,0,0,0,0,0,0,0,0,0,0,0,0,0,0,0,0,0,0,0,0,0,0,0,0,0,0,0,0,0,0,0,0,0,0,0,0,0,0,0,0,0,0,0,0,0,0,0,0,0,0,0,0,0,0,0,0,0,0,0,0,0,0,0,0,0,0,0,0,0,0,0,0,1058,1059,1060,1061,1062,1063,1064,1065,1066,1067,1068,1074,1080,1086,1092,1098,1104,1110,1116,1122,1128,1134,1140,1146,1152,1158,1164,1170,1176,1182,1188,1194,1200,1206,1212,1218,1219,1220,1221,1222,1223,1224,0,0,0,0,0,0,0,0,0,0,0,0,0,0,0,0,0,0,0,0,0,0,0,0,0,0,0,0,0,0,0,0,0,0,0,0,0,0,0,0,0,0,0,0,0,0,0,0,0,0,0,0,0,0,0,0,0,0,0,0,0,0,0,0,0,0,0,0,0,0,0,0,0,0,0,0,0,0,0,0,0,0,0,0,0,0,1058,1059,1060,1061,1062,1063,1064,1065,1066,1067,1068,1074,1080,1086,1092,1098,1104,1110,1116,1122,1128,1134,1140,1146,1152,1158,1164,1170,1176,1182,1188,1194,1200,1206,1212,1218,1219,1220,1221,1222,1223,1224,0,0,0,0,0,0,0,0,0,0,0,0,0,0,0,0,0,0,0,0,0,0,0,0,0,0,0,0,0,0,0,0,0,0,0,0,0,0,0,0,0,0,0,0,0,0,0,0,0,0,0,0,0,0,0,0,0,0,0,0,0,0,0,0,0,0,0,0,0,0,0,0,0,0,0,0,0,0,0,0,0,0,0,0,0,0,1058,1059,1060,1061,1062,1063,1064,1065,1066,1067,1068,1074,1080,1086,1092,1098,1104,1110,1116,1122,1128,1134,1140,1146,1152,1158,1164,1170,1176,1182,1188,1194,1200,1206,1212,1218,1219,1220,1221,1222,1223,1224,0,0,0,0,0,0,0,0,0,0,0,0,0,0,0,0,0,0,0,0,0,0,0,0,0,0,0,0,0,0,0,0,0,0,0,0,0,0,0,0,0,0,0,0,0,0,0,0,0,0,0,0,0,0,0,0,0,0,0,0,0,0,0,0,0,0,0,0,0,0,0,0,0,0,0,0,0,0,0,0,0,0,0,0,0,0,1058,1059,1060,1061,1062,1063,1064,1065,1066,1067,1068,1074,1080,1086,1092,1098,1104,1110,1116,1122,1128,1134,1140,1146,1152,1158,1164,1170,1176,1182,1188,1194,1200,1206,1212,1218,1219,1220,1221,1222,1223,1224,0,0,0,0,0,0,0,0,0,0,0,0,0,0,0,0,0,0,0,0,0,0,0,0,0,0,0,0,0,0,0,0,0,0,0,0,0,0,0,0,0,0,0,0,0,0,0,0,0,0,0,0,0,0,0,0,0,0,0,0,0,0,0,0,0,0,0,0,0,0,0,0,0,0,0,0,0,0,0,0,0,0,0,0,0,0,1058,1059,1060,1061,1062,1063,1064,1065,1066,1067,1068,1074,1080,1086,1092,1098,1104,1110,1116,1122,1128,1134,1140,1146,1152,1158,1164,1170,1176,1182,1188,1194,1200,1206,1212,1218,1219,1220,1221,1222,1223,1224,0,0,0,0,0,0,0,0,0,0,0,0,0,0,0,0,0,0,0,0,0,0,0,0,0,0,0,0,0,0,0,0,0,0,0,0,0,0,0,0,0,0,0,0,0,0,0,0,0,0,0,0,0,0,0,0,0,0,0,0,0,0,0,0,0,0,0,0,0,0,0,0,0,0,0,0,0,0,0,0,0,0,0,0,0,0,1058,1059,1060,1061,1062,1063,1064,1065,1066,1067,1068,1074,1080,1086,1092,1098,1104,1110,1116,1122,1128,1134,1140,1146,1152,1158,1164,1170,1176,1182,1188,1194,1200,1206,1212,1218,1219,1220,1221,1222,1223,1224,0,0,0,0,0,0,0,0,0,0,0,0,0,0,0,0,0,0,0,0,0,0,0,0,0,0,0,0,0,0,0,0,0,0,0,0,0,0,0,0,0,0,0,0,0,0,0,0,0,0,0,0,0,0,0,0,0,0,0,0,0,0,0,0,0,0,0,0,0,0,0,0,0,0,0,0,0,0,0,0,0,0,0,0,0,0,1058,1059,1060,1061,1062,1063,1064,1065,1066,1067,1068,1074,1080,1086,1092,1098,1104,1110,1116,1122,1128,1134,1140,1146,1152,1158,1164,1170,1176,1182,1188,1194,1200,1206,1212,1218,1219,1220,1221,1222,1223,1224,0,0,0,0,0,0,0,0,0,0,0,0,0,0,0,0,0,0,0,0,0,0,0,0,0,0,0,0,0,0,0,0,0,0,0,0,0,0,0,0,0,0,0,0,0,0,0,0,0,0,0,0,0,0,0,0,0,0,0,0,0,0,0,0,0,0,0,0,0,0,0,0,0,0,0,0,0,0,0,0,0,0,0,0,0,0,1058,1059,1060,1061,1062,1063,1064,1065,1066,1067,1068,1074,1080,1086,1092,1098,1104,1110,1116,1122,1128,1134,1140,1146,1152,1158,1164,1170,1176,1182,1188,1194,1200,1206,1212,1218,1219,1220,1221,1222,1223,1224,0,0,0,0,0,0,0,0,0,0,0,0,0,0,0,0,0,0,0,0,0,0,0,0,0,0,0,0,0,0,0,0,0,0,0,0,0,0,0,0,0,0,0,0,0,0,0,0,0,0,0,0,0,0,0,0,0,0,0,0,0,0,0,0,0,0,0,0,0,0,0,0,0,0,0,0,0,0,0,0,0,0,0,0,0,0,1058,1059,1060,1061,1062,1063,1064,1065,1066,1067,1068,1074,1080,1086,1092,1098,1104,1110,1116,1122,1128,1134,1140,1146,1152,1158,1164,1170,1176,1182,1188,1194,1200,1206,1212,1218,1219,1220,1221,1222,1223,1224,0,0,0,0,0,0,0,0,0,0,0,0,0,0,0,0,0,0,0,0,0,0,0,0,0,0,0,0,0,0,0,0,0,0,0,0,0,0,0,0,0,0,0,0,0,0,0,0,0,0,0,0,0,0,0,0,0,0,0,0,0,0,0,0,0,0,0,0,0,0,0,0,0,0,0,0,0,0,0,0,0,0,0,0,0,0,1058,1059,1060,1061,1062,1063,1064,1065,1066,1067,1068,1074,1080,1086,1092,1098,1104,1110,1116,1122,1128,1134,1140,1146,1152,1158,1164,1170,1176,1182,1188,1194,1200,1206,1212,1218,1219,1220,1221,1222,1223,1224,0,0,0,0,0,0,0,0,0,0,0,0,0,0,0,0,0,0,0,0,0,0,0,0,0,0,0,0,0,0,0,0,0,0,0,0,0,0,0,0,0,0,0,0,0,0,0,0,0,0,0,0,0,0,0,0,0,0,0,0,0,0,0,0,0,0,0,0,0,0,0,0,0,0,0,0,0,0,0,0,0,0,0,0,0,0,1058,1059,1060,1061,1062,1063,1064,1065,1066,1067,1068,1074,1080,1086,1092,1098,1104,1110,1116,1122,1128,1134,1140,1146,1152,1158,1164,1170,1176,1182,1188,1194,1200,1206,1212,1218,1219,1220,1221,1222,1223,1224,0,0,0,0,0,0,0,0,0,0,0,0,0,0,0,0,0,0,0,0,0,0,0,0,0,0,0,0,0,0,0,0,0,0,0,0,0,0,0,0,0,0,0,0,0,0,0,0,0,0,0,0,0,0,0,0,0,0,0,0,0,0,0,0,0,0,0,0,0,0,0,0,0,0,0,0,0,0,0,0,0,0,0,0,0,0,1058,1059,1060,1061,1062,1063,1064,1065,1066,1067,1068,1074,1080,1086,1092,1098,1104,1110,1116,1122,1128,1134,1140,1146,1152,1158,1164,1170,1176,1182,1188,1194,1200,1206,1212,1218,1219,1220,1221,1222,1223,1224,0,0,0,0,0,0,0,0,0,0,0,0,0,0,0,0,0,0,0,0,0,0,0,0,0,0,0,0,0,0,0,0,0,0,0,0,0,0,0,0,0,0,0,0,0,0,0,0,0,0,0,0,0,0,0,0,0,0,0,0,0,0,0,0,0,0,0,0,0,0,0,0,0,0,0,0,0,0,0,0,0,0,0,0,0,0,1058,1059,1060,1061,1062,1063,1064,1065,1066,1067,1068,1074,1080,1086,1092,1098,1104,1110,1116,1122,1128,1134,1140,1146,1152,1158,1164,1170,1176,1182,1188,1194,1200,1206,1212,1218,1219,1220,1221,1222,1223,1224,0,0,0,0,0,0,0,0,0,0,0,0,0,0,0,0,0,0,0,0,0,0,0,0,0,0,0,0,0,0,0,0,0,0,0,0,0,0,0,0,0,0,0,0,0,0,0,0,0,0,0,0,0,0,0,0,0,0,0,0,0,0,0,0,0,0,0,0,0,0,0,0,0,0,0,0,0,0,0,0,0,0,0,0,0,0,1058,1059,1060,1061,1062,1063,1064,1065,1066,1067,1068,1074,1080,1086,1092,1098,1104,1110,1116,1122,1128,1134,1140,1146,1152,1158,1164,1170,1176,1182,1188,1194,1200,1206,1212,1218,1219,1220,1221,1222,1223,1224,0,0,0,0,0,0,0,0,0,0,0,0,0,0,0,0,0,0,0,0,0,0,0,0,0,0,0,0,0,0,0,0,0,0,0,0,0,0,0,0,0,0,0,0,0,0,0,0,0,0,0,0,0,0,0,0,0,0,0,0,0,0,0,0,0,0,0,0,0,0,0,0,0,0,0,0,0,0,0,0,0,0,0,0,0,0,1058,1059,1060,1061,1062,1063,1064,1065,1066,1067,1068,1074,1080,1086,1092,1098,1104,1110,1116,1122,1128,1134,1140,1146,1152,1158,1164,1170,1176,1182,1188,1194,1200,1206,1212,1218,1219,1220,1221,1222,1223,1224,0,0,0,0,0,0,0,0,0,0,0,0,0,0,0,0,0,0,0,0,0,0,0,0,0,0,0,0,0,0,0,0,0,0,0,0,0,0,0,0,0,0,0,0,0,0,0,0,0,0,0,0,0,0,0,0,0,0,0,0,0,0,0,0,0,0,0,0,0,0,0,0,0,0,0,0,0,0,0,0,0,0,0,0,0,0,1058,1059,1060,1061,1062,1063,1064,1065,1066,1067,1068,1074,1080,1086,1092,1098,1104,1110,1116,1122,1128,1134,1140,1146,1152,1158,1164,1170,1176,1182,1188,1194,1200,1206,1212,1218,1219,1220,1221,1222,1223,1224,0,0,0,0,0,0,0,0,0,0,0,0,0,0,0,0,0,0,0,0,0,0,0,0,0,0,0,0,0,0,0,0,0,0,0,0,0,0,0,0,0,0,0,0,0,0,0,0,0,0,0,0,0,0,0,0,0,0,0,0,0,0,0,0,0,0,0,0,0,0,0,0,0,0,0,0,0,0,0,0,0,0,0,0,0,0,1058,1059,1060,1061,1062,1063,1064,1065,1066,1067,1068,1074,1080,1086,1092,1098,1104,1110,1116,1122,1128,1134,1140,1146,1152,1158,1164,1170,1176,1182,1188,1194,1200,1206,1212,1218,1219,1220,1221,1222,1223,1224,0,0,0,0,0,0,0,0,0,0,0,0,0,0,0,0,0,0,0,0,0,0,0,0,0,0,0,0,0,0,0,0,0,0,0,0,0,0,0,0,0,0,0,0,0,0,0,0,0,0,0,0,0,0,0,0,0,0,0,0,0,0,0,0,0,0,0,0,0,0,0,0,0,0,0,0,0,0,0,0,0,0,0,0,0,0,1058,1059,1060,1061,1062,1063,1064,1065,1066,1067,1068,1074,1080,1086,1092,1098,1104,1110,1116,1122,1128,1134,1140,1146,1152,1158,1164,1170,1176,1182,1188,1194,1200,1206,1212,1218,1219,1220,1221,1222,1223,1224,0,0,0,0,0,0,0,0,0,0,0,0,0,0,0,0,0,0,0,0,0,0,0,0,0,0,0,0,0,0,0,0,0,0,0,0,0,0,0,0,0,0,0,0,0,0,0,0,0,0,0,0,0,0,0,0,0,0,0,0,0,0,0,0,0,0,0,0,0,0,0,0,0,0,0,0,0,0,0,0,0,0,0,0,0,0,1058,1059,1060,1061,1062,1063,1064,1065,1066,1067,1068,1074,1080,1086,1092,1098,1104,1110,1116,1122,1128,1134,1140,1146,1152,1158,1164,1170,1176,1182,1188,1194,1200,1206,1212,1218,1219,1220,1221,1222,1223,1224,0,0,0,0,0,0,0,0,0,0,0,0,0,0,0,0,0,0,0,0,0,0,0,0,0,0,0,0,0,0,0,0,0,0,0,0,0,0,0,0,0,0,0,0,0,0,0,0,0,0,0,0,0,0,0,0,0,0,0,0,0,0,0,0,0,0,0,0,0,0,0,0,0,0,0,0,0,0,0,0,0,0,0,0,0,0,1058,1059,1060,1061,1062,1063,1064,1065,1066,1067,1068,1074,1080,1086,1092,1098,1104,1110,1116,1122,1128,1134,1140,1146,1152,1158,1164,1170,1176,1182,1188,1194,1200,1206,1212,1218,1219,1220,1221,1222,1223,1224,0,0,0,0,0,0,0,0,0,0,0,0,0,0,0,0,0,0,0,0,0,0,0,0,0,0,0,0,0,0,0,0,0,0,0,0,0,0,0,0,0,0,0,0,0,0,0,0,0,0,0,0,0,0,0,0,0,0,0,0,0,0,0,0,0,0,0,0,0,0,0,0,0,0,0,0,0,0,0,0,0,0,0,0,0,0,1058,1059,1060,1061,1062,1063,1064,1065,1066,1067,1068,1074,1080,1086,1092,1098,1104,1110,1116,1122,1128,1134,1140,1146,1152,1158,1164,1170,1176,1182,1188,1194,1200,1206,1212,1218,1219,1220,1221,1222,1223,1224,0,0,0,0,0,0,0,0,0,0,0,0,0,0,0,0,0,0,0,0,0,0,0,0,0,0,0,0,0,0,0,0,0,0,0,0,0,0,0,0,0,0,0,0,0,0,0,0,0,0,0,0,0,0,0,0,0,0,0,0,0,0,0,0,0,0,0,0,0,0,0,0,0,0,0,0,0,0,0,0,0,0,0,0,0,0,1058,1059,1060,1061,1062,1063,1064,1065,1066,1067,1068,1074,1080,1086,1092,1098,1104,1110,1116,1122,1128,1134,1140,1146,1152,1158,1164,1170,1176,1182,1188,1194,1200,1206,1212,1218,1219,1220,1221,1222,1223,1224,0,0,0,0,0,0,0,0,0,0,0,0,0,0,0,0,0,0,0,0,0,0,0,0,0,0,0,0,0,0,0,0,0,0,0,0,0,0,0,0,0,0,0,0,0,0,0,0,0,0,0,0,0,0,0,0,0,0,0,0,0,0,0,0,0,0,0,0,0,0,0,0,0,0,0,0,0,0,0,0,0,0,0,0,0,0,1058,1059,1060,1061,1062,1063,1064,1065,1066,1067,1068,1074,1080,1086,1092,1098,1104,1110,1116,1122,1128,1134,1140,1146,1152,1158,1164,1170,1176,1182,1188,1194,1200,1206,1212,1218,1219,1220,1221,1222,1223,1224,0,0,0,0,0,0,0,0,0,0,0,0,0,0,0,0,0,0,0,0,0,0,0,0,0,0,0,0,0,0,0,0,0,0,0,0,0,0,0,0,0,0,0,0,0,0,0,0,0,0,0,0,0,0,0,0,0,0,0,0,0,0,0,0,0,0,0,0,0,0,0,0,0,0,0,0,0,0,0,0,0,0,0,0,0,0,1058,1059,1060,1061,1062,1063,1064,1065,1066,1067,1068,1074,1080,1086,1092,1098,1104,1110,1116,1122,1128,1134,1140,1146,1152,1158,1164,1170,1176,1182,1188,1194,1200,1206,1212,1218,1219,1220,1221,1222,1223,1224,0,0,0,0,0,0,0,0,0,0,0,0,0,0,0,0,0,0,0,0,0,0,0,0,0,0,0,0,0,0,0,0,0,0,0,0,0,0,0,0,0,0,0,0,0,0,0,0,0,0,0,0,0,0,0,0,0,0,0,0,0,0,0,0,0,0,0,0,0,0,0,0,0,0,0,0,0,0,0,0,0,0,0,0,0,0,1058,1059,1060,1061,1062,1063,1064,1065,1066,1067,1068,1074,1080,1086,1092,1098,1104,1110,1116,1122,1128,1134,1140,1146,1152,1158,1164,1170,1176,1182,1188,1194,1200,1206,1212,1218,1219,1220,1221,1222,1223,1224,0,0,0,0,0,0,0,0,0,0,0,0,0,0,0,0,0,0,0,0,0,0,0,0,0,0,0,0,0,0,0,0,0,0,0,0,0,0,0,0,0,0,0,0,0,0,0,0,0,0,0,0,0,0,0,0,0,0,0,0,0,0,0,0,0,0,0,0,0,0,0,0,0,0,0,0,0,0,0,0,0,0,0,0,0,0,1058,1059,1060,1061,1062,1063,1064,1065,1066,1067,1068,1074,1080,1086,1092,1098,1104,1110,1116,1122,1128,1134,1140,1146,1152,1158,1164,1170,1176,1182,1188,1194,1200,1206,1212,1218,1219,1220,1221,1222,1223,1224,0,0,0,0,0,0,0,0,0,0,0,0,0,0,0,0,0,0,0,0,0,0,0,0,0,0,0,0,0,0,0,0,0,0,0,0,0,0,0,0,0,0,0,0,0,0,0,0,0,0,0,0,0,0,0,0,0,0,0,0,0,0,0,0,0,0,0,0,0,0,0,0,0,0,0,0,0,0,0,0,0,0,0,0,0,0,1058,1059,1060,1061,1062,1063,1064,1065,1066,1067,1068,1074,1080,1086,1092,1098,1104,1110,1116,1122,1128,1134,1140,1146,1152,1158,1164,1170,1176,1182,1188,1194,1200,1206,1212,1218,1219,1220,1221,1222,1223,1224,0,0,0,0,0,0,0,0,0,0,0,0,0,0,0,0,0,0,0,0,0,0,0,0,0,0,0,0,0,0,0,0,0,0,0,0,0,0,0,0,0,0,0,0,0,0,0,0,0,0,0,0,0,0,0,0,0,0,0,0,0,0,0,0,0,0,0,0,0,0,0,0,0,0,0,0,0,0,0,0,0,0,0,0,0,0,1058,1059,1060,1061,1062,1063,1064,1065,1066,1067,1068,1074,1080,1086,1092,1098,1104,1110,1116,1122,1128,1134,1140,1146,1152,1158,1164,1170,1176,1182,1188,1194,1200,1206,1212,1218,1219,1220,1221,1222,1223,1224,0,0,0,0,0,0,0,0,0,0,0,0,0,0,0,0,0,0,0,0,0,0,0,0,0,0,0,0,0,0,0,0,0,0,0,0,0,0,0,0,0,0,0,0,0,0,0,0,0,0,0,0,0,0,0,0,0,0,0,0,0,0,0,0,0,0,0,0,0,0,0,0,0,0,0,0,0,0,0,0,0,0,0,0,0,0,1058,1059,1060,1061,1062,1063,1064,1065,1066,1067,1068,1074,1080,1086,1092,1098,1104,1110,1116,1122,1128,1134,1140,1146,1152,1158,1164,1170,1176,1182,1188,1194,1200,1206,1212,1218,1219,1220,1221,1222,1223,1224,0,0,0,0,0,0,0,0,0,0,0,0,0,0,0,0,0,0,0,0,0,0,0,0,0,0,0,0,0,0,0,0,0,0,0,0,0,0,0,0,0,0,0,0,0,0,0,0,0,0,0,0,0,0,0,0,0,0,0,0,0,0,0,0,0,0,0,0,0,0,0,0,0,0,0,0,0,0,0,0,0,0,0,0,0,0,1058,1059,1060,1061,1062,1063,1064,1065,1066,1067,1068,1074,1080,1086,1092,1098,1104,1110,1116,1122,1128,1134,1140,1146,1152,1158,1164,1170,1176,1182,1188,1194,1200,1206,1212,1218,1219,1220,1221,1222,1223,1224,0,0,0,0,0,0,0,0,0,0,0,0,0,0,0,0,0,0,0,0,0,0,0,0,0,0,0,0,0,0,0,0,0,0,0,0,0,0,0,0,0,0,0,0,0,0,0,0,0,0,0,0,0,0,0,0,0,0,0,0,0,0,0,0,0,0,0,0,0,0,0,0,0,0,0,0,0,0,0,0,0,0,0,0,0,0,1058,1059,1060,1061,1062,1063,1064,1065,1066,1067,1068,1074,1080,1086,1092,1098,1104,1110,1116,1122,1128,1134,1140,1146,1152,1158,1164,1170,1176,1182,1188,1194,1200,1206,1212,1218,1219,1220,1221,1222,1223,1224,0,0,0,0,0,0,0,0,0,0,0,0,0,0,0,0,0,0,0,0,0,0,0,0,0,0,0,0,0,0,0,0,0,0,0,0,0,0,0,0,0,0,0,0,0,0,0,0,0,0,0,0,0,0,0,0,0,0,0,0,0,0,0,0,0,0,0,0,0,0,0,0,0,0,0,0,0,0,0,0,0,0,0,0,0,0,1058,1059,1060,1061,1062,1063,1064,1065,1066,1067,1068,1074,1080,1086,1092,1098,1104,1110,1116,1122,1128,1134,1140,1146,1152,1158,1164,1170,1176,1182,1188,1194,1200,1206,1212,1218,1219,1220,1221,1222,1223,1224,0,0,0,0,0,0,0,0,0,0,0,0,0,0,0,0,0,0,0,0,0,0,0,0,0,0,0,0,0,0,0,0,0,0,0,0,0,0,0,0,0,0,0,0,0,0,0,0,0,0,0,0,0,0,0,0,0,0,0,0,0,0,0,0,0,0,0,0,0,0,0,0,0,0,0,0,0,0,0,0,0,0,0,0,0,0,1058,1059,1060,1061,1062,1063,1064,1065,1066,1067,1068,1074,1080,1086,1092,1098,1104,1110,1116,1122,1128,1134,1140,1146,1152,1158,1164,1170,1176,1182,1188,1194,1200,1206,1212,1218,1219,1220,1221,1222,1223,1224,0,0,0,0,0,0,0,0,0,0,0,0,0,0,0,0,0,0,0,0,0,0,0,0,0,0,0,0,0,0,0,0,0,0,0,0,0,0,0,0,0,0,0,0,0,0,0,0,0,0,0,0,0,0,0,0,0,0,0,0,0,0,0,0,0,0,0,0,0,0,0,0,0,0,0,0,0,0,0,0,0,0,0,0,0,0,1058,1059,1060,1061,1062,1063,1064,1065,1066,1067,1068,1074,1080,1086,1092,1098,1104,1110,1116,1122,1128,1134,1140,1146,1152,1158,1164,1170,1176,1182,1188,1194,1200,1206,1212,1218,1219,1220,1221,1222,1223,1224,0,0,0,0,0,0,0,0,0,0,0,0,0,0,0,0,0,0,0,0,0,0,0,0,0,0,0,0,0,0,0,0,0,0,0,0,0,0,0,0,0,0,0,0,0,0,0,0,0,0,0,0,0,0,0,0,0,0,0,0,0,0,0,0,0,0,0,0,0,0,0,0,0,0,0,0,0,0,0,0,0,0,0,0,0,0,1058,1059,1060,1061,1062,1063,1064,1065,1066,1067,1068,1074,1080,1086,1092,1098,1104,1110,1116,1122,1128,1134,1140,1146,1152,1158,1164,1170,1176,1182,1188,1194,1200,1206,1212,1218,1219,1220,1221,1222,1223,1224,0,0,0,0,0,0,0,0,0,0,0,0,0,0,0,0,0,0,0,0,0,0,0,0,0,0,0,0,0,0,0,0,0,0,0,0,0,0,0,0,0,0,0,0,0,0,0,0,0,0,0,0,0,0,0,0,0,0,0,0,0,0,0,0,0,0,0,0,0,0,0,0,0,0,0,0,0,0,0,0,0,0,0,0,0,0,1058,1059,1060,1061,1062,1063,1064,1065,1066,1067,1068,1074,1080,1086,1092,1098,1104,1110,1116,1122,1128,1134,1140,1146,1152,1158,1164,1170,1176,1182,1188,1194,1200,1206,1212,1218,1219,1220,1221,1222,1223,1224,0,0,0,0,0,0,0,0,0,0,0,0,0,0,0,0,0,0,0,0,0,0,0,0,0,0,0,0,0,0,0,0,0,0,0,0,0,0,0,0,0,0,0,0,0,0,0,0,0,0,0,0,0,0,0,0,0,0,0,0,0,0,0,0,0,0,0,0,0,0,0,0,0,0,0,0,0,0,0,0,0,0,0,0,0,0,1058,1059,1060,1061,1062,1063,1064,1065,1066,1067,1068,1074,1080,1086,1092,1098,1104,1110,1116,1122,1128,1134,1140,1146,1152,1158,1164,1170,1176,1182,1188,1194,1200,1206,1212,1218,1219,1220,1221,1222,1223,1224,0,0,0,0,0,0,0,0,0,0,0,0,0,0,0,0,0,0,0,0,0,0,0,0,0,0,0,0,0,0,0,0,0,0,0,0,0,0,0,0,0,0,0,0,0,0,0,0,0,0,0,0,0,0,0,0,0,0,0,0,0,0,0,0,0,0,0,0,0,0,0,0,0,0,0,0,0,0,0,0,0,0,0,0,0,0,1058,1059,1060,1061,1062,1063,1064,1065,1066,1067,1068,1074,1080,1086,1092,1098,1104,1110,1116,1122,1128,1134,1140,1146,1152,1158,1164,1170,1176,1182,1188,1194,1200,1206,1212,1218,1219,1220,1221,1222,1223,1224,0,0,0,0,0,0,0,0,0,0,0,0,0,0,0,0,0,0,0,0,0,0,0,0,0,0,0,0,0,0,0,0,0,0,0,0,0,0,0,0,0,0,0,0,0,0,0,0,0,0,0,0,0,0,0,0,0,0,0,0,0,0,0,0,0,0,0,0,0,0,0,0,0,0,0,0,0,0,0,0,0,0,0,0,0,0,1058,1059,1060,1061,1062,1063,1064,1065,1066,1067,1068,1074,1080,1086,1092,1098,1104,1110,1116,1122,1128,1134,1140,1146,1152,1158,1164,1170,1176,1182,1188,1194,1200,1206,1212,1218,1219,1220,1221,1222,1223,1224,0,0,0,0,0,0,0,0,0,0,0,0,0,0,0,0,0,0,0,0,0,0,0,0,0,0,0,0,0,0,0,0,0,0,0,0,0,0,0,0,0,0,0,0,0,0,0,0,0,0,0,0,0,0,0,0,0,0,0,0,0,0,0,0,0,0,0,0,0,0,0,0,0,0,0,0,0,0,0,0,0,0,0,0,0,0,1058,1059,1060,1061,1062,1063,1064,1065,1066,1067,1068,1074,1080,1086,1092,1098,1104,1110,1116,1122,1128,1134,1140,1146,1152,1158,1164,1170,1176,1182,1188,1194,1200,1206,1212,1218,1219,1220,1221,1222,1223,1224,0,0,0,0,0,0,0,0,0,0,0,0,0,0,0,0,0,0,0,0,0,0,0,0,0,0,0,0,0,0,0,0,0,0,0,0,0,0,0,0,0,0,0,0,0,0,0,0,0,0,0,0,0,0,0,0,0,0,0,0,0,0,0,0,0,0,0,0,0,0,0,0,0,0,0,0,0,0,0,0,0,0,0,0,0,0,1058,1059,1060,1061,1062,1063,1064,1065,1066,1067,1068,1074,1080,1086,1092,1098,1104,1110,1116,1122,1128,1134,1140,1146,1152,1158,1164,1170,1176,1182,1188,1194,1200,1206,1212,1218,1219,1220,1221,1222,1223,1224,0,0,0,0,0,0,0,0,0,0,0,0,0,0,0,0,0,0,0,0,0,0,0,0,0,0,0,0,0,0,0,0,0,0,0,0,0,0,0,0,0,0,0,0,0,0,0,0,0,0,0,0,0,0,0,0,0,0,0,0,0,0,0,0,0,0,0,0,0,0,0,0,0,0,0,0,0,0,0,0,0,0,0,0,0,0,1058,1059,1060,1061,1062,1063,1064,1065,1066,1067,1068,1074,1080,1086,1092,1098,1104,1110,1116,1122,1128,1134,1140,1146,1152,1158,1164,1170,1176,1182,1188,1194,1200,1206,1212,1218,1219,1220,1221,1222,1223,1224,0,0,0,0,0,0,0,0,0,0,0,0,0,0,0,0,0,0,0,0,0,0,0,0,0,0,0,0,0,0,0,0,0,0,0,0,0,0,0,0,0,0,0,0,0,0,0,0,0,0,0,0,0,0,0,0,0,0,0,0,0,0,0,0,0,0,0,0,0,0,0,0,0,0,0,0,0,0,0,0,0,0,0,0,0,0,1058,1059,1060,1061,1062,1063,1064,1065,1066,1067,1068,1074,1080,1086,1092,1098,1104,1110,1116,1122,1128,1134,1140,1146,1152,1158,1164,1170,1176,1182,1188,1194,1200,1206,1212,1218,1219,1220,1221,1222,1223,1224,0,0,0,0,0,0,0,0,0,0,0,0,0,0,0,0,0,0,0,0,0,0,0,0,0,0,0,0,0,0,0,0,0,0,0,0,0,0,0,0,0,0,0,0,0,0,0,0,0,0,0,0,0,0,0,0,0,0,0,0,0,0,0,0,0,0,0,0,0,0,0,0,0,0,0,0,0,0,0,0,0,0,0,0,0,0,1058,1059,1060,1061,1062,1063,1064,1065,1066,1067,1068,1074,1080,1086,1092,1098,1104,1110,1116,1122,1128,1134,1140,1146,1152,1158,1164,1170,1176,1182,1188,1194,1200,1206,1212,1218,1219,1220,1221,1222,1223,1224,0,0,0,0,0,0,0,0,0,0,0,0,0,0,0,0,0,0,0,0,0,0,0,0,0,0,0,0,0,0,0,0,0,0,0,0,0,0,0,0,0,0,0,0,0,0,0,0,0,0,0,0,0,0,0,0,0,0,0,0,0,0,0,0,0,0,0,0,0,0,0,0,0,0,0,0,0,0,0,0,0,0,0,0,0,0,1058,1059,1060,1061,1062,1063,1064,1065,1066,1067,1068,1074,1080,1086,1092,1098,1104,1110,1116,1122,1128,1134,1140,1146,1152,1158,1164,1170,1176,1182,1188,1194,1200,1206,1212,1218,1219,1220,1221,1222,1223,1224,0,0,0,0,0,0,0,0,0,0,0,0,0,0,0,0,0,0,0,0,0,0,0,0,0,0,0,0,0,0,0,0,0,0,0,0,0,0,0,0,0,0,0,0,0,0,0,0,0,0,0,0,0,0,0,0,0,0,0,0,0,0,0,0,0,0,0,0,0,0,0,0,0,0,0,0,0,0,0,0,0,0,0,0,0,0,1058,1059,1060,1061,1062,1063,1064,1065,1066,1067,1068,1074,1080,1086,1092,1098,1104,1110,1116,1122,1128,1134,1140,1146,1152,1158,1164,1170,1176,1182,1188,1194,1200,1206,1212,1218,1219,1220,1221,1222,1223,1224,0,0,0,0,0,0,0,0,0,0,0,0,0,0,0,0,0,0,0,0,0,0,0,0,0,0,0,0,0,0,0,0,0,0,0,0,0,0,0,0,0,0,0,0,0,0,0,0,0,0,0,0,0,0,0,0,0,0,0,0,0,0,0,0,0,0,0,0,0,0,0,0,0,0,0,0,0,0,0,0,0,0,0,0,0,0,1058,1059,1060,1061,1062,1063,1064,1065,1066,1067,1068,1074,1080,1086,1092,1098,1104,1110,1116,1122,1128,1134,1140,1146,1152,1158,1164,1170,1176,1182,1188,1194,1200,1206,1212,1218,1219,1220,1221,1222,1223,1224,0,0,0,0,0,0,0,0,0,0,0,0,0,0,0,0,0,0,0,0,0,0,0,0,0,0,0,0,0,0,0,0,0,0,0,0,0,0,0,0,0,0,0,0,0,0,0,0,0,0,0,0,0,0,0,0,0,0,0,0,0,0,0,0,0,0,0,0,0,0,0,0,0,0,0,0,0,0,0,0,0,0,0,0,0,0,1058,1059,1060,1061,1062,1063,1064,1065,1066,1067,1068,1074,1080,1086,1092,1098,1104,1110,1116,1122,1128,1134,1140,1146,1152,1158,1164,1170,1176,1182,1188,1194,1200,1206,1212,1218,1219,1220,1221,1222,1223,1224,0,0,0,0,0,0,0,0,0,0,0,0,0,0,0,0,0,0,0,0,0,0,0,0,0,0,0,0,0,0,0,0,0,0,0,0,0,0,0,0,0,0,0,0,0,0,0,0,0,0,0,0,0,0,0,0,0,0,0,0,0,0,0,0,0,0,0,0,0,0,0,0,0,0,0,0,0,0,0,0,0,0,0,0,0,0,1058,1059,1060,1061,1062,1063,1064,1065,1066,1067,1068,1074,1080,1086,1092,1098,1104,1110,1116,1122,1128,1134,1140,1146,1152,1158,1164,1170,1176,1182,1188,1194,1200,1206,1212,1218,1219,1220,1221,1222,1223,1224,0,0,0,0,0,0,0,0,0,0,0,0,0,0,0,0,0,0,0,0,0,0,0,0,0,0,0,0,0,0,0,0,0,0,0,0,0,0,0,0,0,0,0,0,0,0,0,0,0,0,0,0,0,0,0,0,0,0,0,0,0,0,0,0,0,0,0,0,0,0,0,0,0,0,0,0,0,0,0,0,0,0,0,0,0,0,1058,1059,1060,1061,1062,1063,1064,1065,1066,1067,1068,1074,1080,1086,1092,1098,1104,1110,1116,1122,1128,1134,1140,1146,1152,1158,1164,1170,1176,1182,1188,1194,1200,1206,1212,1218,1219,1220,1221,1222,1223,1224,0,0,0,0,0,0,0,0,0,0,0,0,0,0,0,0,0,0,0,0,0,0,0,0,0,0,0,0,0,0,0,0,0,0,0,0,0,0,0,0,0,0,0,0,0,0,0,0,0,0,0,0,0,0,0,0,0,0,0,0,0,0,0,0,0,0,0,0,0,0,0,0,0,0,0,0,0,0,0,0,0,0,0,0,0,0,1058,1059,1060,1061,1062,1063,1064,1065,1066,1067,1068,1074,1080,1086,1092,1098,1104,1110,1116,1122,1128,1134,1140,1146,1152,1158,1164,1170,1176,1182,1188,1194,1200,1206,1212,1218,1219,1220,1221,1222,1223,1224,0,0,0,0,0,0,0,0,0,0,0,0,0,0,0,0,0,0,0,0,0,0,0,0,0,0,0,0,0,0,0,0,0,0,0,0,0,0,0,0,0,0,0,0,0,0,0,0,0,0,0,0,0,0,0,0,0,0,0,0,0,0,0,0,0,0,0,0,0,0,0,0,0,0,0,0,0,0,0,0,0,0,0,0,0,0,1225,1226,1227,1228,1229,1230,1231,1232,1233,1239,1245,1251,1257,1263,1269,1275,1281,1287,1293,1299,1305,1311,1317,1323,1329,1335,1341,1347,1353,1359,1365,1371,1377,1383,1389,1395,1396,1397,1398,1399,1400,1401,0,0,0,0,0,0,0,0,0,0,0,0,0,0,0,0,0,0,0,0,0,0,0,0,0,0,0,0,0,0,0,0,0,0,0,0,0,0,0,0,0,0,0,0,0,0,0,0,0,0,0,0,0,0,0,0,0,0,0,0,0,0,0,0,0,0,0,0,0,0,0,0,0,0,0,0,0,0,0,0,0,0,0,0,0,0,1225,1226,1227,1228,1229,1230,1231,1232,1233,1239,1245,1251,1257,1263,1269,1275,1281,1287,1293,1299,1305,1311,1317,1323,1329,1335,1341,1347,1353,1359,1365,1371,1377,1383,1389,1395,1396,1397,1398,1399,1400,1401,0,0,0,0,0,0,0,0,0,0,0,0,0,0,0,0,0,0,0,0,0,0,0,0,0,0,0,0,0,0,0,0,0,0,0,0,0,0,0,0,0,0,0,0,0,0,0,0,0,0,0,0,0,0,0,0,0,0,0,0,0,0,0,0,0,0,0,0,0,0,0,0,0,0,0,0,0,0,0,0,0,0,0,0,0,0,1402,1403,1404,1405,1406,1407,1408,1409,1415,1421,1427,1433,1439,1445,1451,1457,1463,1469,1475,1481,1487,1493,1499,1505,1511,1517,1523,1529,1535,1541,1547,1553,1559,1565,1571,1577,1578,1579,1580,1581,1582,1583,0,0,0,0,0,0,0,0,0,0,0,0,0,0,0,0,0,0,0,0,0,0,0,0,0,0,0,0,0,0,0,0,0,0,0,0,0,0,0,0,0,0,0,0,0,0,0,0,0,0,0,0,0,0,0,0,0,0,0,0,0,0,0,0,0,0,0,0,0,0,0,0,0,0,0,0,0,0,0,0,0,0,0,0,0,0,1402,1403,1404,1405,1406,1407,1408,1409,1415,1421,1427,1433,1439,1445,1451,1457,1463,1469,1475,1481,1487,1493,1499,1505,1511,1517,1523,1529,1535,1541,1547,1553,1559,1565,1571,1577,1578,1579,1580,1581,1582,1583,0,0,0,0,0,0,0,0,0,0,0,0,0,0,0,0,0,0,0,0,0,0,0,0,0,0,0,0,0,0,0,0,0,0,0,0,0,0,0,0,0,0,0,0,0,0,0,0,0,0,0,0,0,0,0,0,0,0,0,0,0,0,0,0,0,0,0,0,0,0,0,0,0,0,0,0,0,0,0,0,0,0,0,0,0,0,1584,1585,1586,1587,1588,1589,1590,1591,1597,1603,1609,1615,1621,1627,1633,1639,1645,1651,1657,1663,1669,1675,1681,1687,1693,1699,1705,1711,1717,1723,1729,1735,1741,1747,1753,1754,1755,1756,1757,1758,1759,1760,0,0,0,0,0,0,0,0,0,0,0,0,0,0,0,0,0,0,0,0,0,0,0,0,0,0,0,0,0,0,0,0,0,0,0,0,0,0,0,0,0,0,0,0,0,0,0,0,0,0,0,0,0,0,0,0,0,0,0,0,0,0,0,0,0,0,0,0,0,0,0,0,0,0,0,0,0,0,0,0,0,0,0,0,0,0,1584,1585,1586,1587,1588,1589,1590,1591,1597,1603,1609,1615,1621,1627,1633,1639,1645,1651,1657,1663,1669,1675,1681,1687,1693,1699,1705,1711,1717,1723,1729,1735,1741,1747,1753,1754,1755,1756,1757,1758,1759,1760,0,0,0,0,0,0,0,0,0,0,0,0,0,0,0,0,0,0,0,0,0,0,0,0,0,0,0,0,0,0,0,0,0,0,0,0,0,0,0,0,0,0,0,0,0,0,0,0,0,0,0,0,0,0,0,0,0,0,0,0,0,0,0,0,0,0,0,0,0,0,0,0,0,0,0,0,0,0,0,0,0,0,0,0,0,0,1761,1762,1763,1764,1765,1766,1772,1778,1784,1790,1796,1802,1808,1814,1820,1826,1832,1838,1844,1850,1856,1862,1868,1874,1880,1886,1892,1898,1904,1910,1916,1922,1928,1934,1940,1941,1942,1943,1944,1945,1946,1947,0,0,0,0,0,0,0,0,0,0,0,0,0,0,0,0,0,0,0,0,0,0,0,0,0,0,0,0,0,0,0,0,0,0,0,0,0,0,0,0,0,0,0,0,0,0,0,0,0,0,0,0,0,0,0,0,0,0,0,0,0,0,0,0,0,0,0,0,0,0,0,0,0,0,0,0,0,0,0,0,0,0,0,0,0,0,1761,1762,1763,1764,1765,1766,1772,1778,1784,1790,1796,1802,1808,1814,1820,1826,1832,1838,1844,1850,1856,1862,1868,1874,1880,1886,1892,1898,1904,1910,1916,1922,1928,1934,1940,1941,1942,1943,1944,1945,1946,1947,0,0,0,0,0,0,0,0,0,0,0,0,0,0,0,0,0,0,0,0,0,0,0,0,0,0,0,0,0,0,0,0,0,0,0,0,0,0,0,0,0,0,0,0,0,0,0,0,0,0,0,0,0,0,0,0,0,0,0,0,0,0,0,0,0,0,0,0,0,0,0,0,0,0,0,0,0,0,0,0,0,0,0,0,0,0,1948,1949,1950,1951,1952,1958,1964,1970,1976,1982,1988,1994,2000,2006,2012,2018,2024,2030,2036,2042,2048,2054,2060,2066,2072,2078,2084,2090,2096,2102,2108,2114,2120,2126,2132,2133,2134,2135,2136,2137,2138,2139,0,0,0,0,0,0,0,0,0,0,0,0,0,0,0,0,0,0,0,0,0,0,0,0,0,0,0,0,0,0,0,0,0,0,0,0,0,0,0,0,0,0,0,0,0,0,0,0,0,0,0,0,0,0,0,0,0,0,0,0,0,0,0,0,0,0,0,0,0,0,0,0,0,0,0,0,0,0,0,0,0,0,0,0,0,0,1948,1949,1950,1951,1952,1958,1964,1970,1976,1982,1988,1994,2000,2006,2012,2018,2024,2030,2036,2042,2048,2054,2060,2066,2072,2078,2084,2090,2096,2102,2108,2114,2120,2126,2132,2133,2134,2135,2136,2137,2138,2139,0,0,0,0,0,0,0,0,0,0,0,0,0,0,0,0,0,0,0,0,0,0,0,0,0,0,0,0,0,0,0,0,0,0,0,0,0,0,0,0,0,0,0,0,0,0,0,0,0,0,0,0,0,0,0,0,0,0,0,0,0,0,0,0,0,0,0,0,0,0,0,0,0,0,0,0,0,0,0,0,0,0,0,0,0,0,2140,2141,2142,2143,2144,2150,2156,2162,2168,2174,2180,2186,2192,2198,2204,2210,2216,2222,2228,2234,2240,2246,2252,2258,2264,2270,2276,2282,2288,2294,2300,2306,2312,2318,2324,2330,2331,2332,2333,2334,2335,2336,0,0,0,0,0,0,0,0,0,0,0,0,0,0,0,0,0,0,0,0,0,0,0,0,0,0,0,0,0,0,0,0,0,0,0,0,0,0,0,0,0,0,0,0,0,0,0,0,0,0,0,0,0,0,0,0,0,0,0,0,0,0,0,0,0,0,0,0,0,0,0,0,0,0,0,0,0,0,0,0,0,0,0,0,0,0,2140,2141,2142,2143,2144,2150,2156,2162,2168,2174,2180,2186,2192,2198,2204,2210,2216,2222,2228,2234,2240,2246,2252,2258,2264,2270,2276,2282,2288,2294,2300,2306,2312,2318,2324,2330,2331,2332,2333,2334,2335,2336,0,0,0,0,0,0,0,0,0,0,0,0,0,0,0,0,0,0,0,0,0,0,0,0,0,0,0,0,0,0,0,0,0,0,0,0,0,0,0,0,0,0,0,0,0,0,0,0,0,0,0,0,0,0,0,0,0,0,0,0,0,0,0,0,0,0,0,0,0,0,0,0,0,0,0,0,0,0,0,0,0,0,0,0,0,0,2337,2338,2339,2340,2346,2352,2358,2364,2370,2376,2382,2388,2394,2400,2406,2412,2418,2424,2430,2436,2442,2448,2454,2460,2466,2472,2478,2484,2490,2496,2502,2508,2514,2520,2526,2532,2538,2539,2540,2541,2542,2543,0,0,0,0,0,0,0,0,0,0,0,0,0,0,0,0,0,0,0,0,0,0,0,0,0,0,0,0,0,0,0,0,0,0,0,0,0,0,0,0,0,0,0,0,0,0,0,0,0,0,0,0,0,0,0,0,0,0,0,0,0,0,0,0,0,0,0,0,0,0,0,0,0,0,0,0,0,0,0,0,0,0,0,0,0,0,2337,2338,2339,2340,2346,2352,2358,2364,2370,2376,2382,2388,2394,2400,2406,2412,2418,2424,2430,2436,2442,2448,2454,2460,2466,2472,2478,2484,2490,2496,2502,2508,2514,2520,2526,2532,2538,2539,2540,2541,2542,2543,0,0,0,0,0,0,0,0,0,0,0,0,0,0,0,0,0,0,0,0,0,0,0,0,0,0,0,0,0,0,0,0,0,0,0,0,0,0,0,0,0,0,0,0,0,0,0,0,0,0,0,0,0,0,0,0,0,0,0,0,0,0,0,0,0,0,0,0,0,0,0,0,0,0,0,0,0,0,0,0,0,0,0,0,0,0,2544,2545,2546,2547,2553,2559,2565,2571,2577,2583,2589,2595,2601,2607,2613,2619,2625,2631,2637,2643,2649,2655,2661,2667,2673,2679,2685,2691,2697,2703,2709,2715,2721,2727,2733,2739,2745,2751,2752,2753,2754,2755,0,0,0,0,0,0,0,0,0,0,0,0,0,0,0,0,0,0,0,0,0,0,0,0,0,0,0,0,0,0,0,0,0,0,0,0,0,0,0,0,0,0,0,0,0,0,0,0,0,0,0,0,0,0,0,0,0,0,0,0,0,0,0,0,0,0,0,0,0,0,0,0,0,0,0,0,0,0,0,0,0,0,0,0,0,0,2544,2545,2546,2547,2553,2559,2565,2571,2577,2583,2589,2595,2601,2607,2613,2619,2625,2631,2637,2643,2649,2655,2661,2667,2673,2679,2685,2691,2697,2703,2709,2715,2721,2727,2733,2739,2745,2751,2752,2753,2754,2755,0,0,0,0,0,0,0,0,0,0,0,0,0,0,0,0,0,0,0,0,0,0,0,0,0,0,0,0,0,0,0,0,0,0,0,0,0,0,0,0,0,0,0,0,0,0,0,0,0,0,0,0,0,0,0,0,0,0,0,0,0,0,0,0,0,0,0,0,0,0,0,0,0,0,0,0,0,0,0,0,0,0,0,0,0,0,2756,2757,2758,2759,2765,2771,2777,2783,2789,2795,2801,2807,2813,2814,2815,2816,2817,2818,2819,2820,2821,2827,2833,2839,2845,2851,2857,2863,2869,2875,2881,2887,2893,2899,2905,2911,2917,2923,2929,2930,2931,2932,0,0,0,0,0,0,0,0,0,0,0,0,0,0,0,0,0,0,0,0,0,0,0,0,0,0,0,0,0,0,0,0,0,0,0,0,0,0,0,0,0,0,0,0,0,0,0,0,0,0,0,0,0,0,0,0,0,0,0,0,0,0,0,0,0,0,0,0,0,0,0,0,0,0,0,0,0,0,0,0,0,0,0,0,0,0,2756,2757,2758,2759,2765,2771,2777,2783,2789,2795,2801,2807,2813,2814,2815,2816,2817,2818,2819,2820,2821,2827,2833,2839,2845,2851,2857,2863,2869,2875,2881,2887,2893,2899,2905,2911,2917,2923,2929,2930,2931,2932,0,0,0,0,0,0,0,0,0,0,0,0,0,0,0,0,0,0,0,0,0,0,0,0,0,0,0,0,0,0,0,0,0,0,0,0,0,0,0,0,0,0,0,0,0,0,0,0,0,0,0,0,0,0,0,0,0,0,0,0,0,0,0,0,0,0,0,0,0,0,0,0,0,0,0,0,0,0,0,0,0,0,0,0,0,0,2933,2934,2935,2936,2942,2948,2954,2960,2966,2972,2978,2984,2990,2991,2992,2993,2994,2995,2996,2997,2998,3004,3010,3016,3022,3028,3034,3040,3046,3052,3058,3064,3070,3076,3082,3088,3094,3100,3106,3107,3108,3109,0,0,0,0,0,0,0,0,0,0,0,0,0,0,0,0,0,0,0,0,0,0,0,0,0,0,0,0,0,0,0,0,0,0,0,0,0,0,0,0,0,0,0,0,0,0,0,0,0,0,0,0,0,0,0,0,0,0,0,0,0,0,0,0,0,0,0,0,0,0,0,0,0,0,0,0,0,0,0,0,0,0,0,0,0,0,2933,2934,2935,2936,2942,2948,2954,2960,2966,2972,2978,2984,2990,2991,2992,2993,2994,2995,2996,2997,2998,3004,3010,3016,3022,3028,3034,3040,3046,3052,3058,3064,3070,3076,3082,3088,3094,3100,3106,3107,3108,3109,0,0,0,0,0,0,0,0,0,0,0,0,0,0,0,0,0,0,0,0,0,0,0,0,0,0,0,0,0,0,0,0,0,0,0,0,0,0,0,0,0,0,0,0,0,0,0,0,0,0,0,0,0,0,0,0,0,0,0,0,0,0,0,0,0,0,0,0,0,0,0,0,0,0,0,0,0,0,0,0,0,0,0,0,0,0,3110,3111,3112,3118,3124,3130,3136,3142,3148,3154,3160,3166,3167,3168,3169,3170,3171,3172,3173,3174,3175,3176,3182,3188,3194,3200,3206,3212,3218,3224,3230,3236,3242,3248,3254,3260,3266,3272,3278,3279,3280,3281,0,0,0,0,0,0,0,0,0,0,0,0,0,0,0,0,0,0,0,0,0,0,0,0,0,0,0,0,0,0,0,0,0,0,0,0,0,0,0,0,0,0,0,0,0,0,0,0,0,0,0,0,0,0,0,0,0,0,0,0,0,0,0,0,0,0,0,0,0,0,0,0,0,0,0,0,0,0,0,0,0,0,0,0,0,0,3110,3111,3112,3118,3124,3130,3136,3142,3148,3154,3160,3166,3167,3168,3169,3170,3171,3172,3173,3174,3175,3176,3182,3188,3194,3200,3206,3212,3218,3224,3230,3236,3242,3248,3254,3260,3266,3272,3278,3279,3280,3281,0,0,0,0,0,0,0,0,0,0,0,0,0,0,0,0,0,0,0,0,0,0,0,0,0,0,0,0,0,0,0,0,0,0,0,0,0,0,0,0,0,0,0,0,0,0,0,0,0,0,0,0,0,0,0,0,0,0,0,0,0,0,0,0,0,0,0,0,0,0,0,0,0,0,0,0,0,0,0,0,0,0,0,0,0,0,3282,3283,3284,3290,3296,3302,3308,3314,3320,3326,3332,3338,3344,3345,3346,3347,3348,3349,3350,3351,3352,3358,3364,3370,3376,3382,3388,3394,3400,3406,3412,3418,3424,3430,3436,3442,3448,3454,3460,3466,3467,3468,0,0,0,0,0,0,0,0,0,0,0,0,0,0,0,0,0,0,0,0,0,0,0,0,0,0,0,0,0,0,0,0,0,0,0,0,0,0,0,0,0,0,0,0,0,0,0,0,0,0,0,0,0,0,0,0,0,0,0,0,0,0,0,0,0,0,0,0,0,0,0,0,0,0,0,0,0,0,0,0,0,0,0,0,0,0,3282,3283,3284,3290,3296,3302,3308,3314,3320,3326,3332,3338,3344,3345,3346,3347,3348,3349,3350,3351,3352,3358,3364,3370,3376,3382,3388,3394,3400,3406,3412,3418,3424,3430,3436,3442,3448,3454,3460,3466,3467,3468,0,0,0,0,0,0,0,0,0,0,0,0,0,0,0,0,0,0,0,0,0,0,0,0,0,0,0,0,0,0,0,0,0,0,0,0,0,0,0,0,0,0,0,0,0,0,0,0,0,0,0,0,0,0,0,0,0,0,0,0,0,0,0,0,0,0,0,0,0,0,0,0,0,0,0,0,0,0,0,0,0,0,0,0,0,0,3469,3470,3471,3477,3483,3489,3495,3501,3507,3513,3519,3525,3531,3537,3538,3539,3540,3541,3542,3543,3549,3555,3561,3567,3573,3579,3585,3591,3597,3603,3609,3615,3621,3627,3633,3639,3645,3651,3657,3663,3664,3665,0,0,0,0,0,0,0,0,0,0,0,0,0,0,0,0,0,0,0,0,0,0,0,0,0,0,0,0,0,0,0,0,0,0,0,0,0,0,0,0,0,0,0,0,0,0,0,0,0,0,0,0,0,0,0,0,0,0,0,0,0,0,0,0,0,0,0,0,0,0,0,0,0,0,0,0,0,0,0,0,0,0,0,0,0,0,3469,3470,3471,3477,3483,3489,3495,3501,3507,3513,3519,3525,3531,3537,3538,3539,3540,3541,3542,3543,3549,3555,3561,3567,3573,3579,3585,3591,3597,3603,3609,3615,3621,3627,3633,3639,3645,3651,3657,3663,3664,3665,0,0,0,0,0,0,0,0,0,0,0,0,0,0,0,0,0,0,0,0,0,0,0,0,0,0,0,0,0,0,0,0,0,0,0,0,0,0,0,0,0,0,0,0,0,0,0,0,0,0,0,0,0,0,0,0,0,0,0,0,0,0,0,0,0,0,0,0,0,0,0,0,0,0,0,0,0,0,0,0,0,0,0,0,0,0,3666,3667,3668,3674,3680,3686,3692,3698,3704,3710,3716,3722,3728,3734,3740,3741,3742,3743,3744,3750,3756,3762,3768,3774,3780,3786,3792,3798,3804,3810,3816,3822,3828,3834,3840,3846,3852,3858,3864,3870,3871,3872,0,0,0,0,0,0,0,0,0,0,0,0,0,0,0,0,0,0,0,0,0,0,0,0,0,0,0,0,0,0,0,0,0,0,0,0,0,0,0,0,0,0,0,0,0,0,0,0,0,0,0,0,0,0,0,0,0,0,0,0,0,0,0,0,0,0,0,0,0,0,0,0,0,0,0,0,0,0,0,0,0,0,0,0,0,0,3666,3667,3668,3674,3680,3686,3692,3698,3704,3710,3716,3722,3728,3734,3740,3741,3742,3743,3744,3750,3756,3762,3768,3774,3780,3786,3792,3798,3804,3810,3816,3822,3828,3834,3840,3846,3852,3858,3864,3870,3871,3872,0,0,0,0,0,0,0,0,0,0,0,0,0,0,0,0,0,0,0,0,0,0,0,0,0,0,0,0,0,0,0,0,0,0,0,0,0,0,0,0,0,0,0,0,0,0,0,0,0,0,0,0,0,0,0,0,0,0,0,0,0,0,0,0,0,0,0,0,0,0,0,0,0,0,0,0,0,0,0,0,0,0,0,0,0,0,3873,3874,3875,3876,3882,3888,3894,3900,3906,3912,3918,3924,3930,3936,3942,3948,3954,3960,3966,3972,3978,3984,3990,3996,4002,4008,4014,4020,4026,4032,4038,4044,4050,4056,4062,4068,4074,4080,4086,4092,4093,4094,0,0,0,0,0,0,0,0,0,0,0,0,0,0,0,0,0,0,0,0,0,0,0,0,0,0,0,0,0,0,0,0,0,0,0,0,0,0,0,0,0,0,0,0,0,0,0,0,0,0,0,0,0,0,0,0,0,0,0,0,0,0,0,0,0,0,0,0,0,0,0,0,0,0,0,0,0,0,0,0,0,0,0,0,0,0,3873,3874,3875,3876,3882,3888,3894,3900,3906,3912,3918,3924,3930,3936,3942,3948,3954,3960,3966,3972,3978,3984,3990,3996,4002,4008,4014,4020,4026,4032,4038,4044,4050,4056,4062,4068,4074,4080,4086,4092,4093,4094,0,0,0,0,0,0,0,0,0,0,0,0,0,0,0,0,0,0,0,0,0,0,0,0,0,0,0,0,0,0,0,0,0,0,0,0,0,0,0,0,0,0,0,0,0,0,0,0,0,0,0,0,0,0,0,0,0,0,0,0,0,0,0,0,0,0,0,0,0,0,0,0,0,0,0,0,0,0,0,0,0,0,0,0,0,0,4095,4096,4097,4098,4104,4110,4116,4122,4128,4134,4140,4146,4152,4158,4164,4170,4176,4182,4188,4194,4200,4206,4212,4218,4224,4230,4236,4242,4248,4254,4260,4266,4272,4278,4284,4290,4296,4302,4308,4309,4310,4311,0,0,0,0,0,0,0,0,0,0,0,0,0,0,0,0,0,0,0,0,0,0,0,0,0,0,0,0,0,0,0,0,0,0,0,0,0,0,0,0,0,0,0,0,0,0,0,0,0,0,0,0,0,0,0,0,0,0,0,0,0,0,0,0,0,0,0,0,0,0,0,0,0,0,0,0,0,0,0,0,0,0,0,0,0,0,4095,4096,4097,4098,4104,4110,4116,4122,4128,4134,4140,4146,4152,4158,4164,4170,4176,4182,4188,4194,4200,4206,4212,4218,4224,4230,4236,4242,4248,4254,4260,4266,4272,4278,4284,4290,4296,4302,4308,4309,4310,4311,0,0,0,0,0,0,0,0,0,0,0,0,0,0,0,0,0,0,0,0,0,0,0,0,0,0,0,0,0,0,0,0,0,0,0,0,0,0,0,0,0,0,0,0,0,0,0,0,0,0,0,0,0,0,0,0,0,0,0,0,0,0,0,0,0,0,0,0,0,0,0,0,0,0,0,0,0,0,0,0,0,0,0,0,0,0,4312,4313,4314,4315,4321,4327,4333,4339,4345,4351,4357,4363,4369,4375,4381,4387,4393,4399,4405,4411,4417,4423,4429,4435,4441,4447,4453,4459,4465,4471,4477,4483,4489,4495,4501,4507,4513,4519,4525,4526,4527,4528,0,0,0,0,0,0,0,0,0,0,0,0,0,0,0,0,0,0,0,0,0,0,0,0,0,0,0,0,0,0,0,0,0,0,0,0,0,0,0,0,0,0,0,0,0,0,0,0,0,0,0,0,0,0,0,0,0,0,0,0,0,0,0,0,0,0,0,0,0,0,0,0,0,0,0,0,0,0,0,0,0,0,0,0,0,0,4312,4313,4314,4315,4321,4327,4333,4339,4345,4351,4357,4363,4369,4375,4381,4387,4393,4399,4405,4411,4417,4423,4429,4435,4441,4447,4453,4459,4465,4471,4477,4483,4489,4495,4501,4507,4513,4519,4525,4526,4527,4528,0,0,0,0,0,0,0,0,0,0,0,0,0,0,0,0,0,0,0,0,0,0,0,0,0,0,0,0,0,0,0,0,0,0,0,0,0,0,0,0,0,0,0,0,0,0,0,0,0,0,0,0,0,0,0,0,0,0,0,0,0,0,0,0,0,0,0,0,0,0,0,0,0,0,0,0,0,0,0,0,0,0,0,0,0,0,4529,4530,4531,4532,4538,4544,4550,4556,4562,4568,4574,4580,4586,4592,4598,4604,4610,4616,4622,4628,4634,4640,4646,4652,4658,4664,4670,4676,4682,4688,4694,4700,4706,4712,4718,4724,4730,4736,4742,4743,4744,4745,0,0,0,0,0,0,0,0,0,0,0,0,0,0,0,0,0,0,0,0,0,0,0,0,0,0,0,0,0,0,0,0,0,0,0,0,0,0,0,0,0,0,0,0,0,0,0,0,0,0,0,0,0,0,0,0,0,0,0,0,0,0,0,0,0,0,0,0,0,0,0,0,0,0,0,0,0,0,0,0,0,0,0,0,0,0,4529,4530,4531,4532,4538,4544,4550,4556,4562,4568,4574,4580,4586,4592,4598,4604,4610,4616,4622,4628,4634,4640,4646,4652,4658,4664,4670,4676,4682,4688,4694,4700,4706,4712,4718,4724,4730,4736,4742,4743,4744,4745,0,0,0,0,0,0,0,0,0,0,0,0,0,0,0,0,0,0,0,0,0,0,0,0,0,0,0,0,0,0,0,0,0,0,0,0,0,0,0,0,0,0,0,0,0,0,0,0,0,0,0,0,0,0,0,0,0,0,0,0,0,0,0,0,0,0,0,0,0,0,0,0,0,0,0,0,0,0,0,0,0,0,0,0,0,0,4746,4747,4748,4754,4760,4766,4772,4778,4784,4790,4796,4802,4808,4814,4820,4826,4832,4838,4844,4850,4856,4862,4868,4874,4880,4886,4892,4898,4904,4910,4916,4922,4928,4934,4940,4946,4952,4958,4964,4965,4966,4967,0,0,0,0,0,0,0,0,0,0,0,0,0,0,0,0,0,0,0,0,0,0,0,0,0,0,0,0,0,0,0,0,0,0,0,0,0,0,0,0,0,0,0,0,0,0,0,0,0,0,0,0,0,0,0,0,0,0,0,0,0,0,0,0,0,0,0,0,0,0,0,0,0,0,0,0,0,0,0,0,0,0,0,0,0,0,4746,4747,4748,4754,4760,4766,4772,4778,4784,4790,4796,4802,4808,4814,4820,4826,4832,4838,4844,4850,4856,4862,4868,4874,4880,4886,4892,4898,4904,4910,4916,4922,4928,4934,4940,4946,4952,4958,4964,4965,4966,4967,0,0,0,0,0,0,0,0,0,0,0,0,0,0,0,0,0,0,0,0,0,0,0,0,0,0,0,0,0,0,0,0,0,0,0,0,0,0,0,0,0,0,0,0,0,0,0,0,0,0,0,0,0,0,0,0,0,0,0,0,0,0,0,0,0,0,0,0,0,0,0,0,0,0,0,0,0,0,0,0,0,0,0,0,0,0,4968,4969,4970,4976,4982,4988,4994,5000,5006,5012,5018,5024,5030,5036,5042,5048,5054,5060,5066,5072,5078,5084,5090,5096,5102,5108,5114,5120,5126,5132,5138,5144,5150,5156,5162,5168,5174,5180,5186,5192,5193,5194,0,0,0,0,0,0,0,0,0,0,0,0,0,0,0,0,0,0,0,0,0,0,0,0,0,0,0,0,0,0,0,0,0,0,0,0,0,0,0,0,0,0,0,0,0,0,0,0,0,0,0,0,0,0,0,0,0,0,0,0,0,0,0,0,0,0,0,0,0,0,0,0,0,0,0,0,0,0,0,0,0,0,0,0,0,0,4968,4969,4970,4976,4982,4988,4994,5000,5006,5012,5018,5024,5030,5036,5042,5048,5054,5060,5066,5072,5078,5084,5090,5096,5102,5108,5114,5120,5126,5132,5138,5144,5150,5156,5162,5168,5174,5180,5186,5192,5193,5194,0,0,0,0,0,0,0,0,0,0,0,0,0,0,0,0,0,0,0,0,0,0,0,0,0,0,0,0,0,0,0,0,0,0,0,0,0,0,0,0,0,0,0,0,0,0,0,0,0,0,0,0,0,0,0,0,0,0,0,0,0,0,0,0,0,0,0,0,0,0,0,0,0,0,0,0,0,0,0,0,0,0,0,0,0,0,5195,5196,5197,5203,5209,5215,5221,5227,5233,5239,5245,5251,5257,5263,5269,5275,5281,5287,5293,5299,5305,5311,5317,5323,5329,5330,5331,5332,5333,5334,5340,5346,5352,5358,5364,5370,5376,5382,5388,5394,5395,5396,0,0,0,0,0,0,0,0,0,0,0,0,0,0,0,0,0,0,0,0,0,0,0,0,0,0,0,0,0,0,0,0,0,0,0,0,0,0,0,0,0,0,0,0,0,0,0,0,0,0,0,0,0,0,0,0,0,0,0,0,0,0,0,0,0,0,0,0,0,0,0,0,0,0,0,0,0,0,0,0,0,0,0,0,0,0,5195,5196,5197,5203,5209,5215,5221,5227,5233,5239,5245,5251,5257,5263,5269,5275,5281,5287,5293,5299,5305,5311,5317,5323,5329,5330,5331,5332,5333,5334,5340,5346,5352,5358,5364,5370,5376,5382,5388,5394,5395,5396,0,0,0,0,0,0,0,0,0,0,0,0,0,0,0,0,0,0,0,0,0,0,0,0,0,0,0,0,0,0,0,0,0,0,0,0,0,0,0,0,0,0,0,0,0,0,0,0,0,0,0,0,0,0,0,0,0,0,0,0,0,0,0,0,0,0,0,0,0,0,0,0,0,0,0,0,0,0,0,0,0,0,0,0,0,0,5397,5398,5399,5405,5411,5417,5423,5429,5435,5441,5447,5453,5459,5465,5471,5477,5483,5489,5495,5501,5507,5513,5519,5525,5526,5527,5528,5529,5530,5531,5537,5543,5549,5555,5561,5567,5573,5579,5585,5591,5592,5593,0,0,0,0,0,0,0,0,0,0,0,0,0,0,0,0,0,0,0,0,0,0,0,0,0,0,0,0,0,0,0,0,0,0,0,0,0,0,0,0,0,0,0,0,0,0,0,0,0,0,0,0,0,0,0,0,0,0,0,0,0,0,0,0,0,0,0,0,0,0,0,0,0,0,0,0,0,0,0,0,0,0,0,0,0,0,5397,5398,5399,5405,5411,5417,5423,5429,5435,5441,5447,5453,5459,5465,5471,5477,5483,5489,5495,5501,5507,5513,5519,5525,5526,5527,5528,5529,5530,5531,5537,5543,5549,5555,5561,5567,5573,5579,5585,5591,5592,5593,0,0,0,0,0,0,0,0,0,0,0,0,0,0,0,0,0,0,0,0,0,0,0,0,0,0,0,0,0,0,0,0,0,0,0,0,0,0,0,0,0,0,0,0,0,0,0,0,0,0,0,0,0,0,0,0,0,0,0,0,0,0,0,0,0,0,0,0,0,0,0,0,0,0,0,0,0,0,0,0,0,0,0,0,0,0,5594,5595,5596,5597,5603,5609,5615,5621,5627,5633,5639,5645,5651,5657,5663,5669,5675,5681,5687,5693,5699,5705,5711,5712,5713,5714,5715,5716,5717,5718,5719,5725,5731,5737,5743,5749,5755,5761,5767,5773,5774,5775,0,0,0,0,0,0,0,0,0,0,0,0,0,0,0,0,0,0,0,0,0,0,0,0,0,0,0,0,0,0,0,0,0,0,0,0,0,0,0,0,0,0,0,0,0,0,0,0,0,0,0,0,0,0,0,0,0,0,0,0,0,0,0,0,0,0,0,0,0,0,0,0,0,0,0,0,0,0,0,0,0,0,0,0,0,0,5594,5595,5596,5597,5603,5609,5615,5621,5627,5633,5639,5645,5651,5657,5663,5669,5675,5681,5687,5693,5699,5705,5711,5712,5713,5714,5715,5716,5717,5718,5719,5725,5731,5737,5743,5749,5755,5761,5767,5773,5774,5775,0,0,0,0,0,0,0,0,0,0,0,0,0,0,0,0,0,0,0,0,0,0,0,0,0,0,0,0,0,0,0,0,0,0,0,0,0,0,0,0,0,0,0,0,0,0,0,0,0,0,0,0,0,0,0,0,0,0,0,0,0,0,0,0,0,0,0,0,0,0,0,0,0,0,0,0,0,0,0,0,0,0,0,0,0,0,5776,5777,5778,5779,5785,5791,5797,5803,5809,5815,5821,5827,5833,5839,5845,5851,5857,5863,5869,5875,5881,5887,5893,5894,5895,5896,5897,5898,5899,5900,5901,5907,5913,5919,5925,5931,5937,5943,5949,5950,5951,5952,0,0,0,0,0,0,0,0,0,0,0,0,0,0,0,0,0,0,0,0,0,0,0,0,0,0,0,0,0,0,0,0,0,0,0,0,0,0,0,0,0,0,0,0,0,0,0,0,0,0,0,0,0,0,0,0,0,0,0,0,0,0,0,0,0,0,0,0,0,0,0,0,0,0,0,0,0,0,0,0,0,0,0,0,0,0,5776,5777,5778,5779,5785,5791,5797,5803,5809,5815,5821,5827,5833,5839,5845,5851,5857,5863,5869,5875,5881,5887,5893,5894,5895,5896,5897,5898,5899,5900,5901,5907,5913,5919,5925,5931,5937,5943,5949,5950,5951,5952,0,0,0,0,0,0,0,0,0,0,0,0,0,0,0,0,0,0,0,0,0,0,0,0,0,0,0,0,0,0,0,0,0,0,0,0,0,0,0,0,0,0,0,0,0,0,0,0,0,0,0,0,0,0,0,0,0,0,0,0,0,0,0,0,0,0,0,0,0,0,0,0,0,0,0,0,0,0,0,0,0,0,0,0,0,0,5953,5954,5955,5956,5962,5968,5974,5980,5986,5992,5998,6004,6010,6016,6022,6028,6034,6040,6046,6052,6058,6064,6070,6071,6072,6073,6074,6075,6076,6077,6078,6084,6090,6096,6102,6108,6114,6120,6126,6127,6128,6129,0,0,0,0,0,0,0,0,0,0,0,0,0,0,0,0,0,0,0,0,0,0,0,0,0,0,0,0,0,0,0,0,0,0,0,0,0,0,0,0,0,0,0,0,0,0,0,0,0,0,0,0,0,0,0,0,0,0,0,0,0,0,0,0,0,0,0,0,0,0,0,0,0,0,0,0,0,0,0,0,0,0,0,0,0,0,5953,5954,5955,5956,5962,5968,5974,5980,5986,5992,5998,6004,6010,6016,6022,6028,6034,6040,6046,6052,6058,6064,6070,6071,6072,6073,6074,6075,6076,6077,6078,6084,6090,6096,6102,6108,6114,6120,6126,6127,6128,6129,0,0,0,0,0,0,0,0,0,0,0,0,0,0,0,0,0,0,0,0,0,0,0,0,0,0,0,0,0,0,0,0,0,0,0,0,0,0,0,0,0,0,0,0,0,0,0,0,0,0,0,0,0,0,0,0,0,0,0,0,0,0,0,0,0,0,0,0,0,0,0,0,0,0,0,0,0,0,0,0,0,0,0,0,0,0,6130,6131,6132,6133,6134,6140,6146,6152,6158,6164,6170,6176,6182,6188,6194,6200,6206,6212,6218,6224,6230,6236,6237,6238,6239,6240,6241,6242,6243,6244,6245,6246,6252,6258,6264,6270,6276,6282,6288,6289,6290,6291,0,0,0,0,0,0,0,0,0,0,0,0,0,0,0,0,0,0,0,0,0,0,0,0,0,0,0,0,0,0,0,0,0,0,0,0,0,0,0,0,0,0,0,0,0,0,0,0,0,0,0,0,0,0,0,0,0,0,0,0,0,0,0,0,0,0,0,0,0,0,0,0,0,0,0,0,0,0,0,0,0,0,0,0,0,0,6130,6131,6132,6133,6134,6140,6146,6152,6158,6164,6170,6176,6182,6188,6194,6200,6206,6212,6218,6224,6230,6236,6237,6238,6239,6240,6241,6242,6243,6244,6245,6246,6252,6258,6264,6270,6276,6282,6288,6289,6290,6291,0,0,0,0,0,0,0,0,0,0,0,0,0,0,0,0,0,0,0,0,0,0,0,0,0,0,0,0,0,0,0,0,0,0,0,0,0,0,0,0,0,0,0,0,0,0,0,0,0,0,0,0,0,0,0,0,0,0,0,0,0,0,0,0,0,0,0,0,0,0,0,0,0,0,0,0,0,0,0,0,0,0,0,0,0,0,6292,6293,6294,6295,6296,6297,6303,6309,6315,6321,6327,6333,6339,6345,6351,6357,6363,6369,6375,6381,6387,6393,6399,6400,6401,6402,6403,6404,6405,6406,6407,6413,6419,6425,6431,6437,6443,6449,6455,6456,6457,6458,0,0,0,0,0,0,0,0,0,0,0,0,0,0,0,0,0,0,0,0,0,0,0,0,0,0,0,0,0,0,0,0,0,0,0,0,0,0,0,0,0,0,0,0,0,0,0,0,0,0,0,0,0,0,0,0,0,0,0,0,0,0,0,0,0,0,0,0,0,0,0,0,0,0,0,0,0,0,0,0,0,0,0,0,0,0,6292,6293,6294,6295,6296,6297,6303,6309,6315,6321,6327,6333,6339,6345,6351,6357,6363,6369,6375,6381,6387,6393,6399,6400,6401,6402,6403,6404,6405,6406,6407,6413,6419,6425,6431,6437,6443,6449,6455,6456,6457,6458,0,0,0,0,0,0,0,0,0,0,0,0,0,0,0,0,0,0,0,0,0,0,0,0,0,0,0,0,0,0,0,0,0,0,0,0,0,0,0,0,0,0,0,0,0,0,0,0,0,0,0,0,0,0,0,0,0,0,0,0,0,0,0,0,0,0,0,0,0,0,0,0,0,0,0,0,0,0,0,0,0,0,0,0,0,0,6459,6460,6461,6462,6463,6464,6465,6466,6472,6478,6484,6490,6496,6502,6508,6514,6520,6526,6532,6538,6544,6550,6556,6562,6563,6564,6565,6566,6567,6568,6574,6580,6586,6592,6598,6604,6610,6616,6622,6628,6629,6630,0,0,0,0,0,0,0,0,0,0,0,0,0,0,0,0,0,0,0,0,0,0,0,0,0,0,0,0,0,0,0,0,0,0,0,0,0,0,0,0,0,0,0,0,0,0,0,0,0,0,0,0,0,0,0,0,0,0,0,0,0,0,0,0,0,0,0,0,0,0,0,0,0,0,0,0,0,0,0,0,0,0,0,0,0,0,6459,6460,6461,6462,6463,6464,6465,6466,6472,6478,6484,6490,6496,6502,6508,6514,6520,6526,6532,6538,6544,6550,6556,6562,6563,6564,6565,6566,6567,6568,6574,6580,6586,6592,6598,6604,6610,6616,6622,6628,6629,6630,0,0,0,0,0,0,0,0,0,0,0,0,0,0,0,0,0,0,0,0,0,0,0,0,0,0,0,0,0,0,0,0,0,0,0,0,0,0,0,0,0,0,0,0,0,0,0,0,0,0,0,0,0,0,0,0,0,0,0,0,0,0,0,0,0,0,0,0,0,0,0,0,0,0,0,0,0,0,0,0,0,0,0,0,0,0,6631,6632,6633,6634,6635,6636,6637,6638,6639,6640,6646,6652,6658,6664,6670,6676,6682,6688,6694,6700,6706,6712,6718,6724,6730,6731,6732,6733,6734,6740,6746,6752,6758,6764,6770,6776,6782,6788,6794,6800,6801,6802,0,0,0,0,0,0,0,0,0,0,0,0,0,0,0,0,0,0,0,0,0,0,0,0,0,0,0,0,0,0,0,0,0,0,0,0,0,0,0,0,0,0,0,0,0,0,0,0,0,0,0,0,0,0,0,0,0,0,0,0,0,0,0,0,0,0,0,0,0,0,0,0,0,0,0,0,0,0,0,0,0,0,0,0,0,0,6631,6632,6633,6634,6635,6636,6637,6638,6639,6640,6646,6652,6658,6664,6670,6676,6682,6688,6694,6700,6706,6712,6718,6724,6730,6731,6732,6733,6734,6740,6746,6752,6758,6764,6770,6776,6782,6788,6794,6800,6801,6802,0,0,0,0,0,0,0,0,0,0,0,0,0,0,0,0,0,0,0,0,0,0,0,0,0,0,0,0,0,0,0,0,0,0,0,0,0,0,0,0,0,0,0,0,0,0,0,0,0,0,0,0,0,0,0,0,0,0,0,0,0,0,0,0,0,0,0,0,0,0,0,0,0,0,0,0,0,0,0,0,0,0,0,0,0,0,6803,6804,6805,6806,6807,6808,6809,6810,6811,6812,6813,6819,6825,6831,6837,6843,6849,6855,6861,6867,6873,6879,6885,6891,6897,6903,6909,6915,6921,6927,6933,6939,6945,6951,6957,6963,6969,6975,6981,6987,6988,6989,0,0,0,0,0,0,0,0,0,0,0,0,0,0,0,0,0,0,0,0,0,0,0,0,0,0,0,0,0,0,0,0,0,0,0,0,0,0,0,0,0,0,0,0,0,0,0,0,0,0,0,0,0,0,0,0,0,0,0,0,0,0,0,0,0,0,0,0,0,0,0,0,0,0,0,0,0,0,0,0,0,0,0,0,0,0,6803,6804,6805,6806,6807,6808,6809,6810,6811,6812,6813,6819,6825,6831,6837,6843,6849,6855,6861,6867,6873,6879,6885,6891,6897,6903,6909,6915,6921,6927,6933,6939,6945,6951,6957,6963,6969,6975,6981,6987,6988,6989,0,0,0,0,0,0,0,0,0,0,0,0,0,0,0,0,0,0,0,0,0,0,0,0,0,0,0,0,0,0,0,0,0,0,0,0,0,0,0,0,0,0,0,0,0,0,0,0,0,0,0,0,0,0,0,0,0,0,0,0,0,0,0,0,0,0,0,0,0,0,0,0,0,0,0,0,0,0,0,0,0,0,0,0,0,0,6990,6991,6992,6993,6994,6995,6996,6997,6998,6999,7000,7001,7007,7013,7019,7025,7031,7037,7043,7049,7055,7061,7067,7073,7079,7085,7091,7097,7103,7109,7115,7121,7127,7133,7139,7145,7151,7157,7163,7169,7170,7171,0,0,0,0,0,0,0,0,0,0,0,0,0,0,0,0,0,0,0,0,0,0,0,0,0,0,0,0,0,0,0,0,0,0,0,0,0,0,0,0,0,0,0,0,0,0,0,0,0,0,0,0,0,0,0,0,0,0,0,0,0,0,0,0,0,0,0,0,0,0,0,0,0,0,0,0,0,0,0,0,0,0,0,0,0,0,6990,6991,6992,6993,6994,6995,6996,6997,6998,6999,7000,7001,7007,7013,7019,7025,7031,7037,7043,7049,7055,7061,7067,7073,7079,7085,7091,7097,7103,7109,7115,7121,7127,7133,7139,7145,7151,7157,7163,7169,7170,7171,0,0,0,0,0,0,0,0,0,0,0,0,0,0,0,0,0,0,0,0,0,0,0,0,0,0,0,0,0,0,0,0,0,0,0,0,0,0,0,0,0,0,0,0,0,0,0,0,0,0,0,0,0,0,0,0,0,0,0,0,0,0,0,0,0,0,0,0,0,0,0,0,0,0,0,0,0,0,0,0,0,0,0,0,0,0,7172,7173,7174,7175,7176,7177,7178,7179,7180,7181,7182,7183,7184,7190,7196,7202,7208,7214,7220,7226,7232,7238,7244,7250,7256,7262,7268,7274,7280,7286,7292,7298,7304,7310,7316,7322,7328,7334,7340,7341,7342,7343,0,0,0,0,0,0,0,0,0,0,0,0,0,0,0,0,0,0,0,0,0,0,0,0,0,0,0,0,0,0,0,0,0,0,0,0,0,0,0,0,0,0,0,0,0,0,0,0,0,0,0,0,0,0,0,0,0,0,0,0,0,0,0,0,0,0,0,0,0,0,0,0,0,0,0,0,0,0,0,0,0,0,0,0,0,0,7172,7173,7174,7175,7176,7177,7178,7179,7180,7181,7182,7183,7184,7190,7196,7202,7208,7214,7220,7226,7232,7238,7244,7250,7256,7262,7268,7274,7280,7286,7292,7298,7304,7310,7316,7322,7328,7334,7340,7341,7342,7343,0,0,0,0,0,0,0,0,0,0,0,0,0,0,0,0,0,0,0,0,0,0,0,0,0,0,0,0,0,0,0,0,0,0,0,0,0,0,0,0,0,0,0,0,0,0,0,0,0,0,0,0,0,0,0,0,0,0,0,0,0,0,0,0,0,0,0,0,0,0,0,0,0,0,0,0,0,0,0,0,0,0,0,0,0,0,7344,7345,7346,7347,7348,7349,7350,7351,7352,7353,7354,7355,7356,7362,7368,7374,7380,7386,7392,7398,7404,7410,7416,7422,7428,7434,7440,7446,7452,7458,7464,7470,7476,7482,7488,7494,7500,7506,7512,7513,7514,7515,0,0,0,0,0,0,0,0,0,0,0,0,0,0,0,0,0,0,0,0,0,0,0,0,0,0,0,0,0,0,0,0,0,0,0,0,0,0,0,0,0,0,0,0,0,0,0,0,0,0,0,0,0,0,0,0,0,0,0,0,0,0,0,0,0,0,0,0,0,0,0,0,0,0,0,0,0,0,0,0,0,0,0,0,0,0,7344,7345,7346,7347,7348,7349,7350,7351,7352,7353,7354,7355,7356,7362,7368,7374,7380,7386,7392,7398,7404,7410,7416,7422,7428,7434,7440,7446,7452,7458,7464,7470,7476,7482,7488,7494,7500,7506,7512,7513,7514,7515,0,0,0,0,0,0,0,0,0,0,0,0,0,0,0,0,0,0,0,0,0,0,0,0,0,0,0,0,0,0,0,0,0,0,0,0,0,0,0,0,0,0,0,0,0,0,0,0,0,0,0,0,0,0,0,0,0,0,0,0,0,0,0,0,0,0,0,0,0,0,0,0,0,0,0,0,0,0,0,0,0,0,0,0,0,0,7516,7517,7518,7519,7520,7521,7522,7523,7524,7525,7526,7527,7528,7529,7535,7541,7547,7553,7559,7565,7571,7577,7583,7589,7595,7601,7607,7613,7619,7625,7631,7637,7643,7649,7655,7661,7667,7673,7679,7680,7681,7682,0,0,0,0,0,0,0,0,0,0,0,0,0,0,0,0,0,0,0,0,0,0,0,0,0,0,0,0,0,0,0,0,0,0,0,0,0,0,0,0,0,0,0,0,0,0,0,0,0,0,0,0,0,0,0,0,0,0,0,0,0,0,0,0,0,0,0,0,0,0,0,0,0,0,0,0,0,0,0,0,0,0,0,0,0,0,7516,7517,7518,7519,7520,7521,7522,7523,7524,7525,7526,7527,7528,7529,7535,7541,7547,7553,7559,7565,7571,7577,7583,7589,7595,7601,7607,7613,7619,7625,7631,7637,7643,7649,7655,7661,7667,7673,7679,7680,7681,7682,0,0,0,0,0,0,0,0,0,0,0,0,0,0,0,0,0,0,0,0,0,0,0,0,0,0,0,0,0,0,0,0,0,0,0,0,0,0,0,0,0,0,0,0,0,0,0,0,0,0,0,0,0,0,0,0,0,0,0,0,0,0,0,0,0,0,0,0,0,0,0,0,0,0,0,0,0,0,0,0,0,0,0,0,0,0,7683,7684,7685,7686,7687,7688,7689,7690,7691,7692,7693,7694,7695,7696,7702,7708,7714,7720,7726,7732,7738,7744,7750,7756,7762,7768,7774,7780,7786,7792,7798,7804,7810,7816,7822,7828,7834,7840,7846,7847,7848,7849,0,0,0,0,0,0,0,0,0,0,0,0,0,0,0,0,0,0,0,0,0,0,0,0,0,0,0,0,0,0,0,0,0,0,0,0,0,0,0,0,0,0,0,0,0,0,0,0,0,0,0,0,0,0,0,0,0,0,0,0,0,0,0,0,0,0,0,0,0,0,0,0,0,0,0,0,0,0,0,0,0,0,0,0,0,0,7683,7684,7685,7686,7687,7688,7689,7690,7691,7692,7693,7694,7695,7696,7702,7708,7714,7720,7726,7732,7738,7744,7750,7756,7762,7768,7774,7780,7786,7792,7798,7804,7810,7816,7822,7828,7834,7840,7846,7847,7848,7849,0,0,0,0,0,0,0,0,0,0,0,0,0,0,0,0,0,0,0,0,0,0,0,0,0,0,0,0,0,0,0,0,0,0,0,0,0,0,0,0,0,0,0,0,0,0,0,0,0,0,0,0,0,0,0,0,0,0,0,0,0,0,0,0,0,0,0,0,0,0,0,0,0,0,0,0,0,0,0,0,0,0,0,0,0,0,7850,7851,7852,7853,7854,7855,7856,7857,7858,7859,7860,7861,7862,7863,7869,7875,7881,7887,7893,7899,7905,7911,7917,7923,7929,7935,7941,7947,7953,7959,7965,7971,7977,7983,7989,7995,8001,8007,8008,8009,8010,8011,0,0,0,0,0,0,0,0,0,0,0,0,0,0,0,0,0,0,0,0,0,0,0,0,0,0,0,0,0,0,0,0,0,0,0,0,0,0,0,0,0,0,0,0,0,0,0,0,0,0,0,0,0,0,0,0,0,0,0,0,0,0,0,0,0,0,0,0,0,0,0,0,0,0,0,0,0,0,0,0,0,0,0,0,0,0,7850,7851,7852,7853,7854,7855,7856,7857,7858,7859,7860,7861,7862,7863,7869,7875,7881,7887,7893,7899,7905,7911,7917,7923,7929,7935,7941,7947,7953,7959,7965,7971,7977,7983,7989,7995,8001,8007,8008,8009,8010,8011,0,0,0,0,0,0,0,0,0,0,0,0,0,0,0,0,0,0,0,0,0,0,0,0,0,0,0,0,0,0,0,0,0,0,0,0,0,0,0,0,0,0,0,0,0,0,0,0,0,0,0,0,0,0,0,0,0,0,0,0,0,0,0,0,0,0,0,0,0,0,0,0,0,0,0,0,0,0,0,0,0,0,0,0,0,0,8012,8013,8014,8015,8016,8017,8018,8019,8020,8021,8022,8023,8024,8025,8026,8032,8038,8044,8050,8056,8062,8068,8074,8080,8086,8092,8098,8104,8110,8116,8122,8128,8134,8140,8146,8152,8158,8164,8165,8166,8167,8168,0,0,0,0,0,0,0,0,0,0,0,0,0,0,0,0,0,0,0,0,0,0,0,0,0,0,0,0,0,0,0,0,0,0,0,0,0,0,0,0,0,0,0,0,0,0,0,0,0,0,0,0,0,0,0,0,0,0,0,0,0,0,0,0,0,0,0,0,0,0,0,0,0,0,0,0,0,0,0,0,0,0,0,0,0,0,8012,8013,8014,8015,8016,8017,8018,8019,8020,8021,8022,8023,8024,8025,8026,8032,8038,8044,8050,8056,8062,8068,8074,8080,8086,8092,8098,8104,8110,8116,8122,8128,8134,8140,8146,8152,8158,8164,8165,8166,8167,8168,0,0,0,0,0,0,0,0,0,0,0,0,0,0,0,0,0,0,0,0,0,0,0,0,0,0,0,0,0,0,0,0,0,0,0,0,0,0,0,0,0,0,0,0,0,0,0,0,0,0,0,0,0,0,0,0,0,0,0,0,0,0,0,0,0,0,0,0,0,0,0,0,0,0,0,0,0,0,0,0,0,0,0,0,0,0,8169,8170,8171,8172,8173,8174,8175,8176,8177,8178,8179,8180,8181,8182,8183,8184,8185,8186,8187,8193,8199,8205,8211,8217,8223,8229,8235,8241,8247,8253,8259,8265,8271,8277,8283,8289,8295,8301,8302,8303,8304,8305,0,0,0,0,0,0,0,0,0,0,0,0,0,0,0,0,0,0,0,0,0,0,0,0,0,0,0,0,0,0,0,0,0,0,0,0,0,0,0,0,0,0,0,0,0,0,0,0,0,0,0,0,0,0,0,0,0,0,0,0,0,0,0,0,0,0,0,0,0,0,0,0,0,0,0,0,0,0,0,0,0,0,0,0,0,0,8169,8170,8171,8172,8173,8174,8175,8176,8177,8178,8179,8180,8181,8182,8183,8184,8185,8186,8187,8193,8199,8205,8211,8217,8223,8229,8235,8241,8247,8253,8259,8265,8271,8277,8283,8289,8295,8301,8302,8303,8304,8305,0,0,0,0,0,0,0,0,0,0,0,0,0,0,0,0,0,0,0,0,0,0,0,0,0,0,0,0,0,0,0,0,0,0,0,0,0,0,0,0,0,0,0,0,0,0,0,0,0,0,0,0,0,0,0,0,0,0,0,0,0,0,0,0,0,0,0,0,0,0,0,0,0,0,0,0,0,0,0,0,0,0,0,0,0,0,8306,8307,8308,8309,8310,8311,8312,8313,8314,8315,8316,8317,8318,8319,8320,8321,8322,8323,8324,8330,8336,8342,8348,8354,8360,8366,8372,8378,8384,8390,8396,8402,8408,8414,8420,8426,8432,8433,8434,8435,8436,8437,0,0,0,0,0,0,0,0,0,0,0,0,0,0,0,0,0,0,0,0,0,0,0,0,0,0,0,0,0,0,0,0,0,0,0,0,0,0,0,0,0,0,0,0,0,0,0,0,0,0,0,0,0,0,0,0,0,0,0,0,0,0,0,0,0,0,0,0,0,0,0,0,0,0,0,0,0,0,0,0,0,0,0,0,0,0,8306,8307,8308,8309,8310,8311,8312,8313,8314,8315,8316,8317,8318,8319,8320,8321,8322,8323,8324,8330,8336,8342,8348,8354,8360,8366,8372,8378,8384,8390,8396,8402,8408,8414,8420,8426,8432,8433,8434,8435,8436,8437,0,0,0,0,0,0,0,0,0,0,0,0,0,0,0,0,0,0,0,0,0,0,0,0,0,0,0,0,0,0,0,0,0,0,0,0,0,0,0,0,0,0,0,0,0,0,0,0,0,0,0,0,0,0,0,0,0,0,0,0,0,0,0,0,0,0,0,0,0,0,0,0,0,0,0,0,0,0,0,0,0,0,0,0,0,0,8438,8439,8440,8441,8442,8443,8444,8445,8446,8447,8448,8449,8450,8451,8452,8453,8454,8455,8456,8457,8463,8469,8475,8481,8487,8493,8499,8505,8511,8517,8523,8529,8535,8541,8547,8553,8554,8555,8556,8557,8558,8559,0,0,0,0,0,0,0,0,0,0,0,0,0,0,0,0,0,0,0,0,0,0,0,0,0,0,0,0,0,0,0,0,0,0,0,0,0,0,0,0,0,0,0,0,0,0,0,0,0,0,0,0,0,0,0,0,0,0,0,0,0,0,0,0,0,0,0,0,0,0,0,0,0,0,0,0,0,0,0,0,0,0,0,0,0,0,8438,8439,8440,8441,8442,8443,8444,8445,8446,8447,8448,8449,8450,8451,8452,8453,8454,8455,8456,8457,8463,8469,8475,8481,8487,8493,8499,8505,8511,8517,8523,8529,8535,8541,8547,8553,8554,8555,8556,8557,8558,8559,0,0,0,0,0,0,0,0,0,0,0,0,0,0,0,0,0,0,0,0,0,0,0,0,0,0,0,0,0,0,0,0,0,0,0,0,0,0,0,0,0,0,0,0,0,0,0,0,0,0,0,0,0,0,0,0,0,0,0,0,0,0,0,0,0,0,0,0,0,0,0,0,0,0,0,0,0,0,0,0,0,0,0,0,0,0,8560,8561,8562,8563,8564,8565,8566,8567,8568,8569,8570,8571,8572,8573,8574,8575,8576,8577,8578,8579,8580,8586,8592,8598,8604,8610,8616,8622,8628,8634,8640,8646,8652,8653,8654,8655,8656,8657,8658,8659,8660,8661,0,0,0,0,0,0,0,0,0,0,0,0,0,0,0,0,0,0,0,0,0,0,0,0,0,0,0,0,0,0,0,0,0,0,0,0,0,0,0,0,0,0,0,0,0,0,0,0,0,0,0,0,0,0,0,0,0,0,0,0,0,0,0,0,0,0,0,0,0,0,0,0,0,0,0,0,0,0,0,0,0,0,0,0,0,0,8560,8561,8562,8563,8564,8565,8566,8567,8568,8569,8570,8571,8572,8573,8574,8575,8576,8577,8578,8579,8580,8586,8592,8598,8604,8610,8616,8622,8628,8634,8640,8646,8652,8653,8654,8655,8656,8657,8658,8659,8660,8661,0,0,0,0,0,0,0,0,0,0,0,0,0,0,0,0,0,0,0,0,0,0,0,0,0,0,0,0,0,0,0,0,0,0,0,0,0,0,0,0,0,0,0,0,0,0,0,0,0,0,0,0,0,0,0,0,0,0,0,0,0,0,0,0,0,0,0,0,0,0,0,0,0,0,0,0,0,0,0,0,0,0,0,0,0,0,8662,8663,8664,8665,8666,8667,8668,8669,8670,8671,8672,8673,8674,8675,8676,8677,8678,8679,8680,8681,8682,8683,8689,8695,8701,8707,8713,8719,8725,8731,8737,8743,8744,8745,8746,8747,8748,8749,8750,8751,8752,8753,0,0,0,0,0,0,0,0,0,0,0,0,0,0,0,0,0,0,0,0,0,0,0,0,0,0,0,0,0,0,0,0,0,0,0,0,0,0,0,0,0,0,0,0,0,0,0,0,0,0,0,0,0,0,0,0,0,0,0,0,0,0,0,0,0,0,0,0,0,0,0,0,0,0,0,0,0,0,0,0,0,0,0,0,0,0,8662,8663,8664,8665,8666,8667,8668,8669,8670,8671,8672,8673,8674,8675,8676,8677,8678,8679,8680,8681,8682,8683,8689,8695,8701,8707,8713,8719,8725,8731,8737,8743,8744,8745,8746,8747,8748,8749,8750,8751,8752,8753,0,0,0,0,0,0,0,0,0,0,0,0,0,0,0,0,0,0,0,0,0,0,0,0,0,0,0,0,0,0,0,0,0,0,0,0,0,0,0,0,0,0,0,0,0,0,0,0,0,0,0,0,0,0,0,0,0,0,0,0,0,0,0,0,0,0,0,0,0,0,0,0,0,0,0,0,0,0,0,0,0,0,0,0,0,0,8754,8755,8756,8757,8758,8759,8760,8761,8762,8763,8764,8765,8766,8767,8768,8769,8770,8771,8772,8773,8774,8775,8776,8782,8788,8794,8800,8806,8812,8818,8824,8825,8826,8827,8828,8829,8830,8831,8832,8833,8834,8835,0,0,0,0,0,0,0,0,0,0,0,0,0,0,0,0,0,0,0,0,0,0,0,0,0,0,0,0,0,0,0,0,0,0,0,0,0,0,0,0,0,0,0,0,0,0,0,0,0,0,0,0,0,0,0,0,0,0,0,0,0,0,0,0,0,0,0,0,0,0,0,0,0,0,0,0,0,0,0,0,0,0,0,0,0,0,8754,8755,8756,8757,8758,8759,8760,8761,8762,8763,8764,8765,8766,8767,8768,8769,8770,8771,8772,8773,8774,8775,8776,8782,8788,8794,8800,8806,8812,8818,8824,8825,8826,8827,8828,8829,8830,8831,8832,8833,8834,8835,0,0,0,0,0,0,0,0,0,0,0,0,0,0,0,0,0,0,0,0,0,0,0,0,0,0,0,0,0,0,0,0,0,0,0,0,0,0,0,0,0,0,0,0,0,0,0,0,0,0,0,0,0,0,0,0,0,0,0,0,0,0,0,0,0,0,0,0,0,0,0,0,0,0,0,0,0,0,0,0,0,0,0,0,0,0,8836,8837,8838,8839,8840,8841,8842,8843,8844,8845,8846,8847,8848,8849,8850,8851,8852,8853,8854,8855,8856,8857,8858,8864,8870,8876,8882,8888,8894,8900,8901,8902,8903,8904,8905,8906,8907,8908,8909,8910,8911,8912,0,0,0,0,0,0,0,0,0,0,0,0,0,0,0,0,0,0,0,0,0,0,0,0,0,0,0,0,0,0,0,0,0,0,0,0,0,0,0,0,0,0,0,0,0,0,0,0,0,0,0,0,0,0,0,0,0,0,0,0,0,0,0,0,0,0,0,0,0,0,0,0,0,0,0,0,0,0,0,0,0,0,0,0,0,0,8836,8837,8838,8839,8840,8841,8842,8843,8844,8845,8846,8847,8848,8849,8850,8851,8852,8853,8854,8855,8856,8857,8858,8864,8870,8876,8882,8888,8894,8900,8901,8902,8903,8904,8905,8906,8907,8908,8909,8910,8911,8912,0,0,0,0,0,0,0,0,0,0,0,0,0,0,0,0,0,0,0,0,0,0,0,0,0,0,0,0,0,0,0,0,0,0,0,0,0,0,0,0,0,0,0,0,0,0,0,0,0,0,0,0,0,0,0,0,0,0,0,0,0,0,0,0,0,0,0,0,0,0,0,0,0,0,0,0,0,0,0,0,0,0,0,0,0,0,8913,8914,8915,8916,8917,8918,8919,8920,8921,8922,8923,8924,8925,8926,8927,8928,8929,8930,8931,8932,8933,8934,8940,8946,8952,8958,8964,8970,8976,8977,8978,8979,8980,8981,8982,8983,8984,8985,8986,8987,8988,8989,0,0,0,0,0,0,0,0,0,0,0,0,0,0,0,0,0,0,0,0,0,0,0,0,0,0,0,0,0,0,0,0,0,0,0,0,0,0,0,0,0,0,0,0,0,0,0,0,0,0,0,0,0,0,0,0,0,0,0,0,0,0,0,0,0,0,0,0,0,0,0,0,0,0,0,0,0,0,0,0,0,0,0,0,0,0,8913,8914,8915,8916,8917,8918,8919,8920,8921,8922,8923,8924,8925,8926,8927,8928,8929,8930,8931,8932,8933,8934,8940,8946,8952,8958,8964,8970,8976,8977,8978,8979,8980,8981,8982,8983,8984,8985,8986,8987,8988,8989,0,0,0,0,0,0,0,0,0,0,0,0,0,0,0,0,0,0,0,0,0,0,0,0,0,0,0,0,0,0,0,0,0,0,0,0,0,0,0,0,0,0,0,0,0,0,0,0,0,0,0,0,0,0,0,0,0,0,0,0,0,0,0,0,0,0,0,0,0,0,0,0,0,0,0,0,0,0,0,0,0,0,0,0,0,0,8990,8991,8992,8993,8994,8995,8996,8997,8998,8999,9000,9001,9002,9003,9004,9005,9006,9007,9008,9009,9010,9011,9017,9023,9029,9035,9041,9047,9053,9054,9055,9056,9057,9058,9059,9060,9061,9062,9063,9064,9065,9066,0,0,0,0,0,0,0,0,0,0,0,0,0,0,0,0,0,0,0,0,0,0,0,0,0,0,0,0,0,0,0,0,0,0,0,0,0,0,0,0,0,0,0,0,0,0,0,0,0,0,0,0,0,0,0,0,0,0,0,0,0,0,0,0,0,0,0,0,0,0,0,0,0,0,0,0,0,0,0,0,0,0,0,0,0,0,8990,8991,8992,8993,8994,8995,8996,8997,8998,8999,9000,9001,9002,9003,9004,9005,9006,9007,9008,9009,9010,9011,9017,9023,9029,9035,9041,9047,9053,9054,9055,9056,9057,9058,9059,9060,9061,9062,9063,9064,9065,9066,0,0,0,0,0,0,0,0,0,0,0,0,0,0,0,0,0,0,0,0,0,0,0,0,0,0,0,0,0,0,0,0,0,0,0,0,0,0,0,0,0,0,0,0,0,0,0,0,0,0,0,0,0,0,0,0,0,0,0,0,0,0,0,0,0,0,0,0,0,0,0,0,0,0,0,0,0,0,0,0,0,0,0,0,0,0,9067,9068,9069,9070,9071,9072,9073,9074,9075,9076,9077,9078,9079,9080,9081,9082,9083,9084,9085,9086,9087,9088,9094,9100,9106,9112,9118,9124,9130,9136,9137,9138,9139,9140,9141,9142,9143,9144,9145,9146,9147,9148,0,0,0,0,0,0,0,0,0,0,0,0,0,0,0,0,0,0,0,0,0,0,0,0,0,0,0,0,0,0,0,0,0,0,0,0,0,0,0,0,0,0,0,0,0,0,0,0,0,0,0,0,0,0,0,0,0,0,0,0,0,0,0,0,0,0,0,0,0,0,0,0,0,0,0,0,0,0,0,0,0,0,0,0,0,0,9067,9068,9069,9070,9071,9072,9073,9074,9075,9076,9077,9078,9079,9080,9081,9082,9083,9084,9085,9086,9087,9088,9094,9100,9106,9112,9118,9124,9130,9136,9137,9138,9139,9140,9141,9142,9143,9144,9145,9146,9147,9148,0,0,0,0,0,0,0,0,0,0,0,0,0,0,0,0,0,0,0,0,0,0,0,0,0,0,0,0,0,0,0,0,0,0,0,0,0,0,0,0,0,0,0,0,0,0,0,0,0,0,0,0,0,0,0,0,0,0,0,0,0,0,0,0,0,0,0,0,0,0,0,0,0,0,0,0,0,0,0,0,0,0,0,0,0,0,9149,9150,9151,9152,9153,9154,9155,9156,9157,9158,9159,9160,9161,9162,9163,9164,9165,9166,9167,9168,9169,9170,9176,9182,9188,9194,9200,9206,9212,9218,9219,9220,9221,9222,9223,9224,9225,9226,9227,9228,9229,9230,0,0,0,0,0,0,0,0,0,0,0,0,0,0,0,0,0,0,0,0,0,0,0,0,0,0,0,0,0,0,0,0,0,0,0,0,0,0,0,0,0,0,0,0,0,0,0,0,0,0,0,0,0,0,0,0,0,0,0,0,0,0,0,0,0,0,0,0,0,0,0,0,0,0,0,0,0,0,0,0,0,0,0,0,0,0,9149,9150,9151,9152,9153,9154,9155,9156,9157,9158,9159,9160,9161,9162,9163,9164,9165,9166,9167,9168,9169,9170,9176,9182,9188,9194,9200,9206,9212,9218,9219,9220,9221,9222,9223,9224,9225,9226,9227,9228,9229,9230,0,0,0,0,0,0,0,0,0,0,0,0,0,0,0,0,0,0,0,0,0,0,0,0,0,0,0,0,0,0,0,0,0,0,0,0,0,0,0,0,0,0,0,0,0,0,0,0,0,0,0,0,0,0,0,0,0,0,0,0,0,0,0,0,0,0,0,0,0,0,0,0,0,0,0,0,0,0,0,0,0,0,0,0,0,0,9231,9232,9233,9234,9235,9236,9237,9238,9239,9240,9241,9242,9243,9244,9245,9246,9247,9248,9249,9250,9251,9252,9253,9259,9265,9271,9277,9283,9289,9295,9296,9297,9298,9299,9300,9301,9302,9303,9304,9305,9306,9307,0,0,0,0,0,0,0,0,0,0,0,0,0,0,0,0,0,0,0,0,0,0,0,0,0,0,0,0,0,0,0,0,0,0,0,0,0,0,0,0,0,0,0,0,0,0,0,0,0,0,0,0,0,0,0,0,0,0,0,0,0,0,0,0,0,0,0,0,0,0,0,0,0,0,0,0,0,0,0,0,0,0,0,0,0,0,9231,9232,9233,9234,9235,9236,9237,9238,9239,9240,9241,9242,9243,9244,9245,9246,9247,9248,9249,9250,9251,9252,9253,9259,9265,9271,9277,9283,9289,9295,9296,9297,9298,9299,9300,9301,9302,9303,9304,9305,9306,9307,0,0,0,0,0,0,0,0,0,0,0,0,0,0,0,0,0,0,0,0,0,0,0,0,0,0,0,0,0,0,0,0,0,0,0,0,0,0,0,0,0,0,0,0,0,0,0,0,0,0,0,0,0,0,0,0,0,0,0,0,0,0,0,0,0,0,0,0,0,0,0,0,0,0,0,0,0,0,0,0,0,0,0,0,0,0,9308,9309,9310,9311,9312,9313,9314,9315,9316,9317,9318,9319,9320,9321,9322,9323,9324,9325,9326,9327,9328,9329,9330,9336,9342,9348,9354,9360,9366,9372,9373,9374,9375,9376,9377,9378,9379,9380,9381,9382,9383,9384,0,0,0,0,0,0,0,0,0,0,0,0,0,0,0,0,0,0,0,0,0,0,0,0,0,0,0,0,0,0,0,0,0,0,0,0,0,0,0,0,0,0,0,0,0,0,0,0,0,0,0,0,0,0,0,0,0,0,0,0,0,0,0,0,0,0,0,0,0,0,0,0,0,0,0,0,0,0,0,0,0,0,0,0,0,0,9308,9309,9310,9311,9312,9313,9314,9315,9316,9317,9318,9319,9320,9321,9322,9323,9324,9325,9326,9327,9328,9329,9330,9336,9342,9348,9354,9360,9366,9372,9373,9374,9375,9376,9377,9378,9379,9380,9381,9382,9383,9384,0,0,0,0,0,0,0,0,0,0,0,0,0,0,0,0,0,0,0,0,0,0,0,0,0,0,0,0,0,0,0,0,0,0,0,0,0,0,0,0,0,0,0,0,0,0,0,0,0,0,0,0,0,0,0,0,0,0,0,0,0,0,0,0,0,0,0,0,0,0,0,0,0,0,0,0,0,0,0,0,0,0,0,0,0,0,9385,9386,9387,9388,9389,9390,9391,9392,9393,9394,9395,9396,9397,9398,9399,9400,9401,9402,9403,9404,9405,9406,9407,9413,9419,9425,9431,9437,9443,9444,9445,9446,9447,9448,9449,9450,9451,9452,9453,9454,9455,9456,0,0,0,0,0,0,0,0,0,0,0,0,0,0,0,0,0,0,0,0,0,0,0,0,0,0,0,0,0,0,0,0,0,0,0,0,0,0,0,0,0,0,0,0,0,0,0,0,0,0,0,0,0,0,0,0,0,0,0,0,0,0,0,0,0,0,0,0,0,0,0,0,0,0,0,0,0,0,0,0,0,0,0,0,0,0,9385,9386,9387,9388,9389,9390,9391,9392,9393,9394,9395,9396,9397,9398,9399,9400,9401,9402,9403,9404,9405,9406,9407,9413,9419,9425,9431,9437,9443,9444,9445,9446,9447,9448,9449,9450,9451,9452,9453,9454,9455,9456,0,0,0,0,0,0,0,0,0,0,0,0,0,0,0,0,0,0,0,0,0,0,0,0,0,0,0,0,0,0,0,0,0,0,0,0,0,0,0,0,0,0,0,0,0,0,0,0,0,0,0,0,0,0,0,0,0,0,0,0,0,0,0,0,0,0,0,0,0,0,0,0,0,0,0,0,0,0,0,0,0,0,0,0,0,0,9457,9458,9459,9460,9461,9462,9463,9464,9465,9466,9467,9468,9469,9470,9471,9472,9473,9474,9475,9476,9477,9478,9479,9485,9491,9497,9503,9509,9515,9516,9517,9518,9519,9520,9521,9522,9523,9524,9525,9526,9527,9528,0,0,0,0,0,0,0,0,0,0,0,0,0,0,0,0,0,0,0,0,0,0,0,0,0,0,0,0,0,0,0,0,0,0,0,0,0,0,0,0,0,0,0,0,0,0,0,0,0,0,0,0,0,0,0,0,0,0,0,0,0,0,0,0,0,0,0,0,0,0,0,0,0,0,0,0,0,0,0,0,0,0,0,0,0,0,9457,9458,9459,9460,9461,9462,9463,9464,9465,9466,9467,9468,9469,9470,9471,9472,9473,9474,9475,9476,9477,9478,9479,9485,9491,9497,9503,9509,9515,9516,9517,9518,9519,9520,9521,9522,9523,9524,9525,9526,9527,9528,0,0,0,0,0,0,0,0,0,0,0,0,0,0,0,0,0,0,0,0,0,0,0,0,0,0,0,0,0,0,0,0,0,0,0,0,0,0,0,0,0,0,0,0,0,0,0,0,0,0,0,0,0,0,0,0,0,0,0,0,0,0,0,0,0,0,0,0,0,0,0,0,0,0,0,0,0,0,0,0,0,0,0,0,0,0,9529,9530,9531,9532,9533,9534,9535,9536,9537,9538,9539,9540,9541,9542,9543,9544,9545,9546,9547,9548,9549,9550,9556,9562,9568,9574,9580,9586,9592,9598,9599,9600,9601,9602,9603,9604,9605,9606,9607,9608,9609,9610,0,0,0,0,0,0,0,0,0,0,0,0,0,0,0,0,0,0,0,0,0,0,0,0,0,0,0,0,0,0,0,0,0,0,0,0,0,0,0,0,0,0,0,0,0,0,0,0,0,0,0,0,0,0,0,0,0,0,0,0,0,0,0,0,0,0,0,0,0,0,0,0,0,0,0,0,0,0,0,0,0,0,0,0,0,0,9529,9530,9531,9532,9533,9534,9535,9536,9537,9538,9539,9540,9541,9542,9543,9544,9545,9546,9547,9548,9549,9550,9556,9562,9568,9574,9580,9586,9592,9598,9599,9600,9601,9602,9603,9604,9605,9606,9607,9608,9609,9610,0,0,0,0,0,0,0,0,0,0,0,0,0,0,0,0,0,0,0,0,0,0,0,0,0,0,0,0,0,0,0,0,0,0,0,0,0,0,0,0,0,0,0,0,0,0,0,0,0,0,0,0,0,0,0,0,0,0,0,0,0,0,0,0,0,0,0,0,0,0,0,0,0,0,0,0,0,0,0,0,0,0,0,0,0,0,9611,9612,9613,9614,9615,9616,9617,9618,9619,9620,9621,9622,9623,9624,9625,9626,9627,9628,9629,9630,9631,9632,9638,9644,9650,9656,9662,9668,9674,9680,9681,9682,9683,9684,9685,9686,9687,9688,9689,9690,9691,9692,0,0,0,0,0,0,0,0,0,0,0,0,0,0,0,0,0,0,0,0,0,0,0,0,0,0,0,0,0,0,0,0,0,0,0,0,0,0,0,0,0,0,0,0,0,0,0,0,0,0,0,0,0,0,0,0,0,0,0,0,0,0,0,0,0,0,0,0,0,0,0,0,0,0,0,0,0,0,0,0,0,0,0,0,0,0,9611,9612,9613,9614,9615,9616,9617,9618,9619,9620,9621,9622,9623,9624,9625,9626,9627,9628,9629,9630,9631,9632,9638,9644,9650,9656,9662,9668,9674,9680,9681,9682,9683,9684,9685,9686,9687,9688,9689,9690,9691,9692,0,0,0,0,0,0,0,0,0,0,0,0,0,0,0,0,0,0,0,0,0,0,0,0,0,0,0,0,0,0,0,0,0,0,0,0,0,0,0,0,0,0,0,0,0,0,0,0,0,0,0,0,0,0,0,0,0,0,0,0,0,0,0,0,0,0,0,0,0,0,0,0,0,0,0,0,0,0,0,0,0,0,0,0,0,0,9693,9694,9695,9696,9697,9698,9699,9700,9701,9702,9703,9704,9705,9706,9707,9708,9709,9710,9711,9712,9713,9714,9720,9726,9732,9738,9744,9750,9756,9762,9763,9764,9765,9766,9767,9768,9769,9770,9771,9772,9773,9774,0,0,0,0,0,0,0,0,0,0,0,0,0,0,0,0,0,0,0,0,0,0,0,0,0,0,0,0,0,0,0,0,0,0,0,0,0,0,0,0,0,0,0,0,0,0,0,0,0,0,0,0,0,0,0,0,0,0,0,0,0,0,0,0,0,0,0,0,0,0,0,0,0,0,0,0,0,0,0,0,0,0,0,0,0,0,9693,9694,9695,9696,9697,9698,9699,9700,9701,9702,9703,9704,9705,9706,9707,9708,9709,9710,9711,9712,9713,9714,9720,9726,9732,9738,9744,9750,9756,9762,9763,9764,9765,9766,9767,9768,9769,9770,9771,9772,9773,9774,0,0,0,0,0,0,0,0,0,0,0,0,0,0,0,0,0,0,0,0,0,0,0,0,0,0,0,0,0,0,0,0,0,0,0,0,0,0,0,0,0,0,0,0,0,0,0,0,0,0,0,0,0,0,0,0,0,0,0,0,0,0,0,0,0,0,0,0,0,0,0,0,0,0,0,0,0,0,0,0,0,0,0,0,0,0,9775,9776,9777,9778,9779,9780,9781,9782,9783,9784,9785,9786,9787,9788,9789,9790,9791,9792,9793,9794,9795,9796,9802,9808,9814,9820,9826,9832,9838,9844,9845,9846,9847,9848,9849,9850,9851,9852,9853,9854,9855,9856,0,0,0,0,0,0,0,0,0,0,0,0,0,0,0,0,0,0,0,0,0,0,0,0,0,0,0,0,0,0,0,0,0,0,0,0,0,0,0,0,0,0,0,0,0,0,0,0,0,0,0,0,0,0,0,0,0,0,0,0,0,0,0,0,0,0,0,0,0,0,0,0,0,0,0,0,0,0,0,0,0,0,0,0,0,0,9775,9776,9777,9778,9779,9780,9781,9782,9783,9784,9785,9786,9787,9788,9789,9790,9791,9792,9793,9794,9795,9796,9802,9808,9814,9820,9826,9832,9838,9844,9845,9846,9847,9848,9849,9850,9851,9852,9853,9854,9855,9856,0,0,0,0,0,0,0,0,0,0,0,0,0,0,0,0,0,0,0,0,0,0,0,0,0,0,0,0,0,0,0,0,0,0,0,0,0,0,0,0,0,0,0,0,0,0,0,0,0,0,0,0,0,0,0,0,0,0,0,0,0,0,0,0,0,0,0,0,0,0,0,0,0,0,0,0,0,0,0,0,0,0,0,0,0,0,0,0,0,0,0,0,0,0,0,0,0,0,0,0,0,0,0,0,0,0,0,0,0,0,0,0,0,0,0,0,0,0,0,0,0,0,0,0,0,0,0,0,0,0,0,0,0,0,0,0,0,0,0,0,0,0,0,0,0,0,0,0,0,0,0,0,0,0,0,0,0,0,0,0,0,0,0,0,0,0,0,0,0,0,0,0,0,0,0,0,0,0,0,0,0,0,0,0,0,0,0,0,0,0,0,0,0,0,0,0,0,0,0,0,0,0,0,0,0,0,0,0,0,0,0,0,0,0,0,0,0,0,0,0,0,0,0,0,0,0,0,0,0,0,0,0,0,0,0,0,0,0,0,0,0,0,0,0,0,0,0,0,0,0,0,0,0,0,0,0,0,0,0,0,0,0,0,0,0,0,0,0,0,0,0,0,0,0,0,0,0,0,0,0,0,0,0,0,0,0,0,0,0,0,0,0,0,0,0,0,0,0,0,0,0,0,0,0,0,0,0,0,0,0,0,0,0,0,0,0,0,0,0,0,0,0,0,0,0,0,0,0,0,0,0,0,0,0,0,0,0,0,0,0,0,0,0,0,0,0,0,0,0,0,0,0,0,0,0,0,0,0,0,0,0,0,0,0,0,0,0,0,0,0,0,0,0,0,0,0,0,0,0,0,0,0,0,0,0,0,0,0,0,0,0,0,0,0,0,0,0,0,0,0,0,0,0,0,0,0,0,0,0,0,0,0,0,0,0,0,0,0,0,0,0,0,0,0,0,0,0,0,0,0,0,0,0,0,0,0,0,0,0,0,0,0,0,0,0,0,0,0,0,0,0,0,0,0,0,0,0,0,0,0,0,0,0,0,0,0,0,0,0,0,0,0,0,0,0,0,0,0,0,0,0,0,0,0,0,0,0,0,0,0,0,0,0,0,0,0,0,0,0,0,0,0,0,0,0,0,0,0,0,0,0,0,0,0,0,0,0,0,0,0,0,0,0,0,0,0,0,0,0,0,0,0,0,0,0,0,0,0,0,0,0,0,0,0,0,0,0,0,0,0,0,0,0,0,0,0,0,0,0,0,0,0,0,0,0,0,0,0,0,0,0,0,0,0,0,0,0,0,0,0,0,0,0,0,0,0,0,0,0,0,0,0,0,0,0,0,0,0,0,0,0,0,0,0,0,0,0,0,0,0,0,0,0,0,0,0,0,0,0,0,0,0,0,0,0,0,0,0,0,0,0,0,0,0,0,0,0,0,0,0,0,0,0,0,0,0,0,0,0,0,0,0,0,0,0,0,0,0,0,0,0,0,0,0,0,0,0,0,0,0,0,0,0,0,0,0,0,0,0,0,0,0,0,0,0,0,0,0,0,0,0,0,0,0,0,0,0,0,0,0,0,0,0,0,0,0,0,0,0,0,0,0,0,0,0,0,0,0,0,0,0,0,0,0,0,0,0,0,0,0,0,0,0,0,0,0,0,0,0,0,0,0,0,0,0,0,0,0,0,0,0,0,0,0,0,0,0,0,0,0,0,0,0,0,0,0,0,0,0,0,0,0,0,0,0,0,0,0,0,0,0,0,0,0,0,0,0,0,0,0,0,0,0,0,0,0,0,0,0,0,0,0,0,0,0,0,0,0,0,0,0,0,0,0,0,0,0,0,0,0,0,0,0,0,0,0,0,0,0,0,0,0,0,0,0,0,0,0,0,0,0,0,0,0,0,0,0,0,0,0,0,0,0,0,0,0,0,0,0,0,0,0,0,0,0,0,0,0,0,0,0,0,0,0,0,0,0,0,0,0,0,0,0,0,0,0,0,0,0,0,0,0,0,0,0,0,0,0,0,0,0,0,0,0,0,0,0,0,0,0,0,0,0,0,0,0,0,0,0,0,0,0,0,0,0,0,0,0,0,0,0,0,0,0,0,0,0,0,0,0,0,0,0,0,0,0,0,0,0,0,0,0,0,0,0,0,0,0,0,0,0,0,0,0,0,0,0,0,0,0,0,0,0,0,0,0,0,0,0,0,0,0,0,0,0,0,0,0,0,0,0,0,0,0,0,0,0,0,0,0,0,0,0,0,0,0,0,0,0,0,0,0,0,0,0,0,0,0,0,0,0,0,0,0,0,0,0,0,0,0,0,0,0,0,0,0,0,0,0,0,0,0,0,0,0,0,0,0,0,0,0,0,0,0,0,0,0,0,0,0,0,0,0,0,0,0,0,0,0,0,0,0,0,0,0,0,0,0,0,0,0,0,0,0,0,0,0,0,0,0,0,0,0,0,0,0,0,0,0,0,0,0,0,0,0,0,0,0,0,0,0,0,0,0,0,0,0,0,0,0,0,0,0,0,0,0,0,0,0,0,0,0,0,0,0,0,0,0,0,0,0,0,0,0,0,0,0,0,0,0,0,0,0,0,0,0,0,0,0,0,0,0,0,0,0,0,0,0,0,0,0,0,0,0,0,0,0,0,0,0,0,0,0,0,0,0,0,0,0,0,0,0,0,0,0,0,0,0,0,0,0,0,0,0,0,0,0,0,0,0,0,0,0,0,0,0,0,0,0,0,0,0,0,0,0,0,0,0,0,0,0,0,0,0,0,0,0,0,0,0,0,0,0,0,0,0,0,0,0,0,0,0,0,0,0,0,0,0,0,0,0,0,0,0,0,0,0,0,0,0,0,0,0,0,0,0,0,0,0,0,0,0,0,0,0,0,0,0,0,0,0,0,0,0,0,0,0,0,0,0,0,0,0,0,0,0,0,0,0,0,0,0,0,0,0,0,0,0,0,0,0,0,0,0,0,0,0,0,0,0,0,0,0,0,0,0,0,0,0,0,0,0,0,0,0,0,0,0,0,0,0,0,0,0,0,0,0,0,0,0,0,0,0,0,0,0,0,0,0,0,0,0,0,0,0,0,0,0,0,0,0,0,0,0,0,0,0,0,0,0,0,0,0,0,0,0,0,0,0,0,0,0,0,0,0,0,0,0,0,0,0,0,0,0,0,0,0,0,0,0,0,0,0,0,0,0,0,0,0,0,0,0,0,0,0,0,0,0,0,0,0,0,0,0,0,0,0,0,0,0,0,0,0,0,0,0,0,0,0,0,0,0,0,0,0,0,0,0,0,0,0,0,0,0,0,0,0,0,0,0,0,0,0,0,0,0,0,0,0,0,0,0,0,0,0,0,0,0,0,0,0,0,0,0,0,0,0,0,0,0,0,0,0,0,0,0,0,0,0,0,0,0,0,0,0,0,0,0,0,0,0,0,0,0,0,0,0,0,0,0,0,0,0,0,0,0,0,0,0,0,0,0,0,0,0,0,0,0,0,0,0,0,0,0,0,0,0,0,0,0,0,0,0,0,0,0,0,0,0,0,0,0,0,0,0,0,0,0,0,0,0,0,0,0,0,0,0,0,0,0,0,0,0,0,0,0,0,0,0,0,0,0,0,0,0,0,0,0,0,0,0,0,0,0,0,0,0,0,0,0,0,0,0,0,0,0,0,0,0,0,0,0,0,0,0,0,0,0,0,0,0,0,0,0,0,0,0,0,0,0,0,0,0,0,0,0,0,0,0,0,0,0,0,0,0,0,0,0,0,0,0,0,0,0,0,0,0,0,0,0,0,0,0,0,0,0,0,0,0,0,0,0,0,0,0,0,0,0,0,0,0,0,0,0,0,0,0,0,0,0,0,0,0,0,0,0,0,0,0,0,0,0,0,0,0,0,0,0,0,0,0,0,0,0,0,0,0,0,0,0,0,0,0,0,0,0,0,0,0,0,0,0,0,0,0,0,0,0,0,0,0,0,0,0,0,0,0,0,0,0,0,0,0,0,0,0,0,0,0,0,0,0,0,0,0,0,0,0,0,0,0,0,0,0,0,0,0,0,0,0,0,0,0,0,0,0,0,0,0,0,0,0,0,0,0,0,0,0,0,0,0,0,0,0,0,0,0,0,0,0,0,0,0,0,0,0,0,0,0,0,0,0,0,0,0,0,0,0,0,0,0,0,0,0,0,0,0,0,0,0,0,0,0,0,0,0,0,0,0,0,0,0,0,0,0,0,0,0,0,0,0,0,0,0,0,0,0,0,0,0,0,0,0,0,0,0,0,0,0,0,0,0,0,0,0,0,0,0,0,0,0,0,0,0,0,0,0,0,0,0,0,0,0,0,0,0,0,0,0,0,0,0,0,0,0,0,0,0,0,0,0,0,0,0,0,0,0,0,0,0,0,0,0,0,0,0,0,0,0,0,0,0,0,0,0,0,0,0,0,0,0,0,0,0,0,0,0,0,0,0,0,0,0,0,0,0,0,0,0,0,0,0,0,0,0,0,0,0,0,0,0,0,0,0,0,0,0,0,0,0,0,0,0,0,0,0,0,0,0,0,0,0,0,0,0,0,0,0,0,0,0,0,0,0,0,0,0,0,0,0,0,0,0,0,0,0,0,0,0,0,0,0,0,0,0,0,0,0,0,0,0,0,0,0,0,0,0,0,0,0,0,0,0,0,0,0,0,0,0,0,0,0,0,0,0,0,0,0,0,0,0,0,0,0,0,0,0,0,0,0,0,0,0,0,0,0,0,0,0,0,0,0,0,0,0,0,0,0,0,0,0,0,0,0,0,0,0,0,0,0,0,0,0,0,0,0,0,0,0,0,0,0,0,0,0,0,0,0,0,0,0,0,0,0,0,0,0,0,0,0,0,0,0,0,0,0,0,0,0,0,0,0,0,0,0,0,0,0,0,0,0,0,0,0,0,0,0,0,0,0,0,0,0,0,0,0,0,0,0,0,0,0,0,0,0,0,0,0,0,0,0,0,0,0,0,0,0,0,0,0,0,0,0,0,0,0,0,0,0,0,0,0,0,0,0,0,0,0,0,0,0,0,0,0,0,0,0,0,0,0,0,0,0,0,0,0,0,0,0,0,0,0,0,0,0,0,0,0,0,0,0,0,0,0,0,0,0,0,0,0,0,0,0,0,0,0,0,0,0,0,0,0,0,0,0,0,0,0,0,0,0,0,0,0,0,0,0,0,0,0,0,0,0,0,0,0,0,0,0,0,0,0,0,0,0,0,0,0,0,0,0,0,0,0,0,0,0,0,0,0,0,0,0,0,0,0,0,0,0,0,0,0,0,0,0,0,0,0,0,0,0,0,0,0,0,0,0,0,0,0,0,0,0,0,0,0,0,0,0,0,0,0,0,0,0,0,0,0,0,0,0,0,0,0,0,0,0,0,0,0,0,0,0,0,0,0,0,0,0,0,0,0,0,0,0,0,0,0,0,0,0,0,0,0,0,0,0,0,0,0,0,0,0,0,0,0,0,0,0,0,0,0,0,0,0,0,0,0,0,0,0,0,0,0,0,0,0,0,0,0,0,0,0,0,0,0,0,0,0,0,0,0,0,0,0,0,0,0,0,0,0,0,0,0,0,0,0,0,0,0,0,0,0,0,0,0,0,0,0,0,0,0,0,0,0,0,0,0,0,0,0,0,0,0,0,0,0,0,0,0,0,0,0,0,0,0,0,0,0,0,0,0,0,0,0,0,0,0,0,0,0,0,0,0,0,0,0,0,0,0,0,0,0,0,0,0,0,0,0,0,0,0,0,0,0,0,0,0,0,0,0,0,0,0,0,0,0,0,0,0,0,0,0,0,0,0,0,0,0,0,0,0,0,0,0,0,0,0,0,0,0,0,0,0,0,0,0,0,0,0,0,0,0,0,0,0,0,0,0,0,0,0,0,0,0,0,0,0,0,0,0,0,0,0,0,0,0,0,0,0,0,0,0,0,0,0,0,0,0,0,0,0,0,0,0,0,0,0,0,0,0,0,0,0,0,0,0,0,0,0,0,0,0,0,0,0,0,0,0,0,0,0,0,0,0,0,0,0,0,0,0,0,0,0,0,0,0,0,0,0,0,0,0,0,0,0,0,0,0,0,0,0,0,0,0,0,0,0,0,0,0,0,0,0,0,0,0,0,0,0,0,0,0,0,0,0,0,0,0,0,0,0,0,0,0,0,0,0,0,0,0,0,0,0,0,0,0,0,0,0,0,0,0,0,0,0,0,0,0,0,0,0,0,0,0,0,0,0,0,0,0,0,0,0,0,0,0,0,0,0,0,0,0,0,0,0,0,0,0,0,0,0,0,0,0,0,0,0,0,0,0,0,0,0,0,0,0,0,0,0,0,0,0,0,0,0,0,0,0,0,0,0,0,0,0,0,0,0,0,0,0,0,0,0,0,0,0,0,0,0,0,0,0,0,0,0,0,0,0,0,0,0,0,0,0,0,0,0,0,0,0,0,0,0,0,0,0,0,0,0,0,0,0,0,0,0,0,0,0,0,0,0,0,0,0,0,0,0,0,0,0,0,0,0,0,0,0,0,0,0,0,0,0,0,0,0,0,0,0,0,0,0,0,0,0,0,0,0,0,0,0,0,0,0,0,0,0,0,0,0,0,0,0,0,0,0,0,0,0,0,0,0,0,0,0,0,0,0,0,0,0,0,0,0,0,0,0,0,0,0,0,0,0,0,0,0,0,0,0,0,0,0,0,0,0,0,0,0,0,0,0,0,0,0,0,0,0,0,0,0,0,0,0,0,0,0,0,0,0,0,0,0,0,0,0,0,0,0,0,0,0,0,0,0,0,0,0,0,0,0,0,0,0,0,0,0,0,0,0,0,0,0,0,0,0,0,0,0,0,0,0,0,0,0,0,0,0,0,0,0,0,0,0,0,0,0,0,0,0,0,0,0,0,0,0,0,0,0,0,0,0,0,0,0,0,0,0,0,0,0,0,0,0,0,0,0,0,0,0,0,0,0,0,0,0,0,0,0,0,0,0,0,0,0,0,0,0,0,0,0,0,0,0,0,0,0,0,0,0,0,0,0,0,0,0,0,0,0,0,0,0,0,0,0,0,0,0,0,0,0,0,0,0,0,0,0,0,0,0,0,0,0,0,0,0,0,0,0,0,0,0,0,0,0,0,0,0,0,0,0,0,0,0,0,0,0,0,0,0,0,0,0,0,0,0,0,0,0,0,0,0,0,0,0,0,0,0,0,0,0,0,0,0,0,0,0,0,0,0,0,0,0,0,0,0,0,0,0,0,0,0,0,0,0,0,0,0,0,0,0,0,0,0,0,0,0,0,0,0,0,0,0,0,0,0,0,0,0,0,0,0,0,0,0,0,0,0,0,0,0,0,0,0,0,0,0,0,0,0,0,0,0,0,0,0,0,0,0,0,0,0,0,0,0,0,0,0,0,0,0,0,0,0,0,0,0,0,0,0,0,0,0,0,0,0,0,0,0,0,0,0,0,0,0,0,0,0,0,0,0,0,0,0,0,0,0,0,0,0,0,0,0,0,0,0,0,0,0,0,0,0,0,0,0,0,0,0,0,0,0,0,0,0,0,0,0,0,0,0,0,0,0,0,0,0,0,0,0,0,0,0,0,0,0,0,0,0,0,0,0,0,0,0,0,0,0,0,0,0,0,0,0,0,0,0,0,0,0,0,0,0,0,0,0,0,0,0,0,0,0,0,0,0,0,0,0,0,0,0,0,0,0,0,0,0,0,0,0,0,0,0,0,0,0,0,0,0,0,0,0,0,0,0,0,0,0,0,0,0,0,0,0,0,0,0,0,0,0,0,0,0,0,0,0,0,0,0,0,0,0,0,0,0,0,0,0,0,0,0,0,0,0,0,0,0,0,0,0,0,0,0,0,0,0,0,0,0,0,0,0,0,0,0,0,0,0,0,0,0,0,0,0,0,0,0,0,0,0,0,0,0,0,0,0,0,0,0,0,0,0,0,0,0,0,0,0,0,0,0,0,0,0,0,0,0,0,0,0,0,0,0,0,0,0,0,0,0,0,0,0,0,0,0,0,0,0,0,0,0,0,0,0,0,0,0,0,0,0,0,0,0,0,0,0,0,0,0,0,0,0,0,0,0,0,0,0,0,0,0,0,0,0,0,0,0,0,0,0,0,0,0,0,0,0,0,0,0,0,0,0,0,0,0,0,0,0,0,0,0,0,0,0,0,0,0,0,0,0,0,0,0,0,0,0,0,0,0,0,0,0,0,0,0,0,0,0,0,0,0,0,0,0,0,0,0,0,0,0,0,0,0,0,0,0,0,0,0,0,0,0,0,0,0,0,0,0,0,0,0,0,0,0,0,0,0,0,0,0,0,0,0,0,0,0,0,0,0,0,0,0,0,0,0,0,0,0,0,0,0,0,0,0,0,0,0,0,0,0,0,0,0,0,0,0,0,0,0,0,0,0,0,0,0,0,0,0,0,0,0,0,0,0,0,0,0,0,0,0,0,0,0,0,0,0,0,0,0,0,0,0,0,0,0,0,0,0,0,0,0,0,0,0,0,0,0,0,0,0,0,0,0,0,0,0,0,0,0,0,0,0,0,0,0,0,0,0,0,0,0,0,0,0,0,0,0,0,0,0,0,0,0,0,0,0,0,0,0,0,0,0,0,0,0,0,0,0,0,0,0,0,0,0,0,0,0,0,0,0,0,0,0,0,0,0,0,0,0,0,0,0,0,0,0,0,0,0,0,0,0,0,0,0,0,0,0,0,0,0,0,0,0,0,0,0,0,0,0,0,0,0,0,0,0,0,0,0,0,0,0,0,0,0,0,0,0,0,0,0,0,0,0,0,0,0,0,0,0,0,0,0,0,0,0,0,0,0,0,0,0,0,0,0,0,0,0,0,0,0,0,0,0,0,0,0,0,0,0,0,0,0,0,0,0,0,0,0,0,0,0,0,0,0,0,0,0,0,0,0,0,0,0,0,0,0,0,0,0,0,0,0,0,0,0,0,0,0,0,0,0,0,0,0,0,0,0,0,0,0,0,0,0,0,0,0,0,0,0,0,0,0,0,0,0,0,0,0,0,0,0,0,0,0,0,0,0,0,0,0,0,0,0,0,0,0,0,0,0,0,0,0,0,0,0,0,0,0,0,0,0,0,0,0,0,0,0,0,0,0,0,0,0,0,0,0,0,0,0,0,0,0,0,0,0,0,0,0,0,0,0,0,0,0,0,0,0,0,0,0,0,0,0,0,0,0,0,0,0,0,0,0,0,0,0,0,0,0,0,0,0,0,0,0,0,0,0,0,0,0,0,0,0,0,0,0,0,0,0,0,0,0,0,0,0,0,0,0,0,0,0,0,0,0,0,0,0,0,0,0,0,0,0,0,0,0,0,0,0,0,0,0,0,0,0,0,0,0,0,0,0,0,0,0,0,0,0,0,0,0,0,0,0,0,0,0,0,0,0,0,0,0,0,0,0,0,0,0,0,0,0,0,0,0,0,0,0,0,0,0,0,0,0,0,0,0,0,0,0,0,0,0,0,0,0,0,0,0,0,0,0,0,0,0,0,0,0,0,0,0,0,0,0,0,0,0,0,0,0,0,0,0,0,0,0,0,0,0,0,0,0,0,0,0,0,0,0,0,0,0,0,0,0,0,0,0,0,0,0,0,0,0,0,0,0,0,0,0,0,0,0,0,0,0,0,0,0,0,0,0,0,0,0,0,0,0,0,0,0,0,0,0,0,0,0,0,0,0,0,0,0,0,0,0,0,0,0,0,0,0,0,0,0,0,0,0,0,0,0,0,0,0,0,0,0,0,0,0,0,0,0,0,0,0,0,0,0,0,0,0,0,0,0,0,0,0,0,0,0,0,0,0,0,0,0,0,0,0,0,0,0,0,0,0,0,0,0,0,0,0,0,0,0,0,0,0,0,0,0,0,0,0,0,0,0,0,0,0,0,0,0,0,0,0,0,0,0,0,0,0,0,0,0,0,0,0,0,0,0,0,0,0,0,0,0,0,0,0,0,0,0,0,0,0,0,0,0,0,0,0,0,0,0,0,0,0,0,0,0,0,0,0,0,0,0,0,0,0,0,0,0,0,0,0,0,0,0,0,0,0,0,0,0,0,0,0,0,0,0,0,0,0,0,0,0,0,0,0,0,0,0,0,0,0,0,0,0,0,0,0,0,0,0,0,0,0,0,0,0,0,0,0,0,0,0,0,0,0,0,0,0,0,0,0,0,0,0,0,0,0,0,0,0,0,0,0,0,0,0,0,0,0,0,0,0,0,0,0,0,0,0,0,0,0,0,0,0,0,0,0,0,0,0,0,0,0,0,0,0,0,0,0,0,0,0,0,0,0,0,0,0,0,0,0,0,0,0,0,0,0,0,0,0,0,0,0,0,0,0,0,0,0,0,0,0,0,0,0,0,0,0,0,0,0,0,0,0,0,0,0,0,0,0,0,0,0,0,0,0,0,0,0,0,0,0,0,0,0,0,0,0,0,0,0,0,0,0,0,0,0,0,0,0,0,0,0,0,0,0,0,0,0,0,0,0,0,0,0,0,0,0,0,0,0,0,0,0,0,0,0,0,0,0,0,0,0,0,0,0,0,0,0,0,0,0,0,0,0,0,0,0,0,0,0,0,0,0,0,0,0,0,0,0,0,0,0,0,0,0,0,0,0,0,0,0,0,0,0,0,0,0,0,0,0,0,0,0,0,0,0,0,0,0,0,0,0,0,0,0,0,0,0,0,0,0,0,0,0,0,0,0,0,0,0,0,0,0,0,0,0,0,0,0,0,0,0,0,0,0,0,0,0,0,0,0,0,0,0,0,0,0,0,0,0,0,0,0,0,0,0,0,0,0,0,0,0,0,0,0,0,0,0,0,0,0,0,0,0,0,0,0,0,0,0,0,0,0,0,0,0,0,0,0,0,0,0,0,0,0,0,0,0,0,0,0,0,0,0,0,0,0,0,0,0,0,0,0,0,0,0,0,0,0,0,0,0,0,0,0,0,0,0,0,0,0,0,0,0,0,0,0,0,0,0,0,0,0,0,0,0,0,0,0,0,0,0,0,0,0,0,0,0,0,0,0,0,0,0,0,0,0,0,0,0,0,0,0,0,0,0,0,0,0,0,0,0,0,0,0,0,0,0,0,0,0,0,0,0,0,0,0,0,0,0,0,0,0,0,0,0,0,0,0,0,0,0,0,0,0,0,0,0,0,0,0,0,0,0,0,0,0,0,0,0,0,0,0,0,0,0,0,0,0,0,0,0,0,0,0,0,0,0,0,0,0,0,0,0,0,0,0,0,0,0,0,0,0,0,0,0,0,0,0,0,0,0,0,0,0,0,0,0,0,0,0,0,0,0,0,0,0,0,0,0,0,0,0,0,0,0,0,0,0,0,0,0,0,0,0,0,0,0,0,0,0,0,0,0,0,0,0,0,0,0,0,0,0,0,0,0,0,0,0,0,0,0,0,0,0,0,0,0,0,0,0,0,0,0,0,0,0,0,0,0,0,0,0,0,0,0,0,0,0,0,0,0,0,0,0,0,0,0,0,0,0,0,0,0,0,0,0,0,0,0,0,0,0,0,0,0,0,0,0,0,0,0,0,0,0,0,0,0,0,0,0,0,0,0,0,0,0,0,0,0,0,0,0,0,0,0,0,0,0,0,0,0,0,0,0,0,0,0,0,0,0,0,0,0,0,0,0,0,0,0,0,0,0,0,0,0,0,0,0,0,0,0,0,0,0,0,0,0,0,0,0,0,0,0,0,0,0,0,0,0,0,0,0,0,0,0,0,0,0,0,0,0,0,0,0,0,0,0,0,0,0,0,0,0,0,0,0,0,0,0,0,0,0,0,0,0,0,0,0,0,0,0,0,0,0,0,0,0,0,0,0,0,0,0,0,0,0,0,0,0,0,0,0,0,0,0,0,0,0,0,0,0,0,0,0,0,0,0,0,0,0,0,0,0,0,0,0,0,0,0,0,0,0,0,0,0,0,0,0,0,0,0,0,0,0,0,0,0,0,0,0,0,0,0,0,0,0,0,0,0,0,0,0,0,0,0,0,0,0,0,0,0,0,0,0,0,0,0,0,0,0,0,0,0,0,0,0,0,0,0,0,0,0,0,0,0,0,0,0,0,0,0,0,0,0,0,0,0,0,0,0,0,0,0,0,0,0,0,0,0,0,0,0,0,0,0,0,0,0,0,0,0,0,0,0,0,0,0,0,0,0,0,0,0,0,0,0,0,0,0,0,0,0,0,0,0,0,0,0,0,0,0,0,0,0,0,0,0,0,0,0,0,0,0,0,0,0,0,0,0,0,0,0,0,0,0,0,0,0,0,0,0,0,0,0,0,0,0,0,0,0,0,0,0,0,0,0,0,0,0,0,0,0,0,0,0,0,0,0,0,0,0,0,0,0,0,0,0,0,0,0,0,0,0,0,0,0,0,0,0,0,0,0,0,0,0,0,0,0,0,0,0,0,0,0,0,0,0,0,0,0,0,0,0,0,0,0,0,0,0,0,0,0,0,0,0,0,0,0,0,0,0,0,0,0,0,0,0,0,0,0,0,0,0,0,0,0,0,0,0,0,0,0,0,0,0,0,0,0,0,0,0,0,0,0,0,0,0,0,0,0,0,0,0,0,0,0,0,0,0,0,0,0,0,0,0,0,0,0,0,0,0,0,0,0,0,0,0,0,0,0,0,0,0,0,0,0,0,0,0,0,0,0,0,0,0,0,0,0,0,0,0,0,0,0,0,0,0,0,0,0,0,0,0,0,0,0,0,0,0,0,0,0,0,0,0,0,0,0,0,0,0,0,0,0,0,0,0,0,0,0,0,0,0,0,0,0,0,0,0,0,0,0,0,0,0,0,0,0,0,0,0,0,0,0,0,0,0,0,0,0,0,0,0,0,0,0,0,0,0,0,0,0,0,0,0,0,0,0,0,0,0,0,0,0,0,0,0,0,0,0,0,0,0,0,0,0,0,0,0,0,0,0,0,0,0,0,0,0,0,0,0,0,0,0,0,0,0,0,0,0,0,0,0,0,0,0,0,0,0,0,0,0,0,0,0,0,0,0,0,0,0,0,0,0,0,0,0,0,0,0,0,0,0,0,0,0,0,0,0,0,0,0,0,0,0,0,0,0,0,0,0,0,0,0,0,0,0,0,0,0,0,0,0,0,0,0,0,0,0,0,0,0,0,0,0,0,0,0,0,0,0,0,0,0,0,0,0,0,0,0,0,0,0,0,0,0,0,0,0,0,0,0,0,0,0,0,0,0,0,0,0,0,0,0,0,0,0,0,0,0,0,0,0,0,0,0,0,0,0,0,0,0,0,0,0,0,0,0,0,0,0,0,0,0,0,0,0,0,0,0,0,0,0,0,0,0,0,0,0,0,0,0,0,0,0,0,0,0,0,0,0,0,0,0,0,0,0,0,0,0,0,0,0,0,0,0,0,0,0,0,0,0,0,0,0,0,0,0,0,0,0,0,0,0,0,0,0,0,0,0,0,0,0,0,0,0,0,0,0,0,0,0,0,0,0,0,0,0,0,0,0,0,0,0,0,0,0,0,0,0,0,0,0,0,0,0,0,0,0,0,0,0,0,0,0,0,0,0,0,0,0,0,0,0,0,0,0,0,0,0,0,0,0,0,0,0,0,0,0,0,0,0,0,0,0,0,0,0,0,0,0,0,0,0,0,0,0,0,0,0,0,0,0,0,0,0,0,0,0,0,0,0,0,0,0,0,0,0,0,0,0,0,0,0,0,0,0,0,0,0,0,0,0,0,0,0,0,0,0,0,0,0,0,0,0,0,0,0,0,0,0,0,0,0,0,0,0,0,0,0,0,0,0,0,0,0,0,0,0,0,0,0,0,0,0,0,0,0,0,0,0,0,0,0,0,0,0,0,0,0,0,0,0,0,0,0,0,0,0,0,0,0,0,0,0,0,0,0,0,0,0,0,0,0,0,0,0,0,0,0,0,0,0,0,0,0,0,0,0,0,0,0,0,0,0,0,0,0,0,0,0,0,0,0,0,0,0,0,0,0,0,0,0,0,0,0,0,0,0,0,0,0,0,0,0,0,0,0,0,0,0,0,0,0,0,0,0,0,0,0,0,0,0,0,0,0,0,0,0,0,0,0,0,0,0,0,0,0,0,0,0,0,0,0,0,0,0,0,0,0,0,0,0,0,0,0,0,0,0,0,0,0,0,0,0,0,0,0,0,0,0,0,0,0,0,0,0,0,0,0,0,0,0,0,0,0,0,0,0,0,0,0,0,0,0,0,0,0,0,0,0,0,0,0,0,0,0,0,0,0,0,0,0,0,0,0,0,0,0,0,0,0,0,0,0,0,0,0,0,0,0,0,0,0,0,0,0,0,0,0,0,0,0,0,0,0,0,0,0,0,0,0,0,0,0,0,0,0,0,0,0,0,0,0,0,0,0,0,0,0,0,0,0,0,0,0,0,0,0,0,0,0,0,0,0,0,0,0,0,0,0,0,0,0,0,0,0,0,0,0,0,0,0,0,0,0,0,0,0,0,0,0,0,0,0,0,0,0,0,0,0,0,0,0,0,0,0,0,0,0,0,0,0,0,0,0,0,0,0,0,0,0,0,0,0,0,0,0,0,0,0,0,0,0,0,0,0,0,0,0,0,0,0,0,0,0,0,0,0,0,0,0,0,0,0,0,0,0,0,0,0,0,0,0,0,0,0,0,0,0,0,0,0,0,0,0,0,0,0,0,0,0,0,0,0,0,0,0,0,0,0,0,0,0,0,0,0,0,0,0,0,0,0,0,0,0,0,0,0,0,0,0,0,0,0,0,0,0,0,0,0,0,0,0,0,0,0,0,0,0,0,0,0,0,0,0,0,0,0,0,0,0,0,0,0,0,0,0,0,0,0,0,0,0,0,0,0,0,0,0,0,0,0,0,0,0,0,0,0,0,0,0,0,0,0,0,0,0,0,0,0,0,0,0,0,0,0,0,0,0,0,0,0,0,0,0,0,0,0,0,0,0,0,0,0,0,0,0,0,0,0,0,0,0,0,0,0,0,0,0,0,0,0,0,0,0,0,0,0,0,0,0,0,0,0,0,0,0,0,0,0,0,0,0,0,0,0,0,0,0,0,0,0,0,0,0,0,0,0,0,0,0,0,0,0,0,0,0,0,0,0,0,0,0,0,0,0,0,0,9328,9329,9330,9336,9342,9348,9354,9360,9366,9372,9373,0,0,0,0,0,0,0,0,0,0,0,0,0,0,0,0,0,0,0,0,0,0,0,0,0,0,0,0,0,0,0,0,0,0,0,0,0,0,0,0,0,0,0,0,0,0,0,0,0,0,0,0,0,0,0,0,0,0,0,0,0,0,0,0,0,0,0,0,0,0,0,0,0,0,0,0,0,0,0,0,0,0,0,0,0,0,0,0,0,0,0,0,0,0,0,0,0,0,0,0,0,0,0,0,0,0,0,0,0,0,0,0,0,0,0,0,0,9328,9329,9330,9336,9342,9348,9354,9360,9366,9372,9373,0,0,0,0,0,0,0,0,0,0,0,0,0,0,0,0,0,0,0,0,0,0,0,0,0,0,0,0,0,0,0,0,0,0,0,0,0,0,0,0,0,0,0,0,0,0,0,0,0,0,0,0,0,0,0,0,0,0,0,0,0,0,0,0,0,0,0,0,0,0,0,0,0,0,0,0,0,0,0,0,0,0,0,0,0,0,0,0,0,0,0,0,0,0,0,0,0,0,0,0,0,0,0,0,0,0,0,0,0,0,0,0,0,0,0,0,0,9405,9406,9407,9413,9419,9425,9431,9437,9443,9444,9445,0,0,0,0,0,0,0,0,0,0,0,0,0,0,0,0,0,0,0,0,0,0,0,0,0,0,0,0,0,0,0,0,0,0,0,0,0,0,0,0,0,0,0,0,0,0,0,0,0,0,0,0,0,0,0,0,0,0,0,0,0,0,0,0,0,0,0,0,0,0,0,0,0,0,0,0,0,0,0,0,0,0,0,0,0,0,0,0,0,0,0,0,0,0,0,0,0,0,0,0,0,0,0,0,0,0,0,0,0,0,0,0,0,0,0,0,0,9405,9406,9407,9413,9419,9425,9431,9437,9443,9444,9445,0,0,0,0,0,0,0,0,0,0,0,0,0,0,0,0,0,0,0,0,0,0,0,0,0,0,0,0,0,0,0,0,0,0,0,0,0,0,0,0,0,0,0,0,0,0,0,0,0,0,0,0,0,0,0,0,0,0,0,0,0,0,0,0,0,0,0,0,0,0,0,0,0,0,0,0,0,0,0,0,0,0,0,0,0,0,0,0,0,0,0,0,0,0,0,0,0,0,0,0,0,0,0,0,0,0,0,0,0,0,0,0,0,0,0,0,0,9328,9329,9330,9336,9342,9348,9354,9360,9366,9372,9373,0,0,0,0,0,0,0,0,0,0,0,0,0,0,0,0,0,0,0,0,0,0,0,0,0,0,0,0,0,0,0,0,0,0,0,0,0,0,0,0,0,0,0,0,0,0,0,0,0,0,0,0,0,0,0,0,0,0,0,0,0,0,0,0,0,0,0,0,0,0,0,0,0,0,0,0,0,0,0,0,0,0,0,0,0,0,0,0,0,0,0,0,0,0,0,0,0,0,0,0,0,0,0,0,0,0,0,0,0,0,0,0,0,0,0,0,0,9328,9329,9330,9336,9342,9348,9354,9360,9366,9372,9373,0,0,0,0,0,0,0,0,0,0,0,0,0,0,0,0,0,0,0,0,0,0,0,0,0,0,0,0,0,0,0,0,0,0,0,0,0,0,0,0,0,0,0,0,0,0,0,0,0,0,0,0,0,0,0,0,0,0,0,0,0,0,0,0,0,0,0,0,0,0,0,0,0,0,0,0,0,0,0,0,0,0,0,0,0,0,0,0,0,0,0,0,0,0,0,0,0,0,0,0,0,0,0,0,0,0,0,0,0,0,0,0,0,0,0,0,0,9405,9406,9407,9413,9419,9425,9431,9437,9443,9444,9445,0,0,0,0,0,0,0,0,0,0,0,0,0,0,0,0,0,0,0,0,0,0,0,0,0,0,0,0,0,0,0,0,0,0,0,0,0,0,0,0,0,0,0,0,0,0,0,0,0,0,0,0,0,0,0,0,0,0,0,0,0,0,0,0,0,0,0,0,0,0,0,0,0,0,0,0,0,0,0,0,0,0,0,0,0,0,0,0,0,0,0,0,0,0,0,0,0,0,0,0,0,0,0,0,0,0,0,0,0,0,0,0,0,0,0,0,0,9405,9406,9407,9413,9419,9425,9431,9437,9443,9444,9445,0,0,0,0,0,0,0,0,0,0,0,0,0,0,0,0,0,0,0,0,0,0,0,0,0,0,0,0,0,0,0,0,0,0,0,0,0,0,0,0,0,0,0,0,0,0,0,0,0,0,0,0,0,0,0,0,0,0,0,0,0,0,0,0,0,0,0,0,0,0,0,0,0,0,0,0,0,0,0,0,0,0,0,0,0,0,0,0,0,0,0,0,0,0,0,0,0,0,0,0,0,0,0,0,0,0,0,0,0,0,0,0,0,0,0,0,0,9328,9329,9330,9336,9342,9348,9354,9360,9366,9372,9373,0,0,0,0,0,0,0,0,0,0,0,0,0,0,0,0,0,0,0,0,0,0,0,0,0,0,0,0,0,0,0,0,0,0,0,0,0,0,0,0,0,0,0,0,0,0,0,0,0,0,0,0,0,0,0,0,0,0,0,0,0,0,0,0,0,0,0,0,0,0,0,0,0,0,0,0,0,0,0,0,0,0,0,0,0,0,0,0,0,0,0,0,0,0,0,0,0,0,0,0,0,0,0,0,0,0,0,0,0,0,0,0,0,0,0,0,0,9328,9329,9330,9336,9342,9348,9354,9360,9366,9372,9373,0,0,0,0,0,0,0,0,0,0,0,0,0,0,0,0,0,0,0,0,0,0,0,0,0,0,0,0,0,0,0,0,0,0,0,0,0,0,0,0,0,0,0,0,0,0,0,0,0,0,0,0,0,0,0,0,0,0,0,0,0,0,0,0,0,0,0,0,0,0,0,0,0,0,0,0,0,0,0,0,0,0,0,0,0,0,0,0,0,0,0,0,0,0,0,0,0,0,0,0,0,0,0,0,0,0,0,0,0,0,0,0,0,0,0,0,0,9405,9406,9407,9413,9419,9425,9431,9437,9443,9444,9445,0,0,0,0,0,0,0,0,0,0,0,0,0,0,0,0,0,0,0,0,0,0,0,0,0,0,0,0,0,0,0,0,0,0,0,0,0,0,0,0,0,0,0,0,0,0,0,0,0,0,0,0,0,0,0,0,0,0,0,0,0,0,0,0,0,0,0,0,0,0,0,0,0,0,0,0,0,0,0,0,0,0,0,0,0,0,0,0,0,0,0,0,0,0,0,0,0,0,0,0,0,0,0,0,0,0,0,0,0,0,0,0,0,0,0,0,0,9405,9406,9407,9413,9419,9425,9431,9437,9443,9444,9445,0,0,0,0,0,0,0,0,0,0,0,0,0,0,0,0,0,0,0,0,0,0,0,0,0,0,0,0,0,0,0,0,0,0,0,0,0,0,0,0,0,0,0,0,0,0,0,0,0,0,0,0,0,0,0,0,0,0,0,0,0,0,0,0,0,0,0,0,0,0,0,0,0,0,0,0,0,0,0,0,0,0,0,0,0,0,0,0,0,0,0,0,0,0,0,0,0,0,0,0,0,0,0,0,0,0,0,0,0,0,0,0,0,0,0,0,0,9328,9329,9330,9336,9342,9348,9354,9360,9366,9372,9373,0,0,0,0,0,0,0,0,0,0,0,0,0,0,0,0,0,0,0,0,0,0,0,0,0,0,0,0,0,0,0,0,0,0,0,0,0,0,0,0,0,0,0,0,0,0,0,0,0,0,0,0,0,0,0,0,0,0,0,0,0,0,0,0,0,0,0,0,0,0,0,0,0,0,0,0,0,0,0,0,0,0,0,0,0,0,0,0,0,0,0,0,0,0,0,0,0,0,0,0,0,0,0,0,0,0,0,0,0,0,0,0,0,0,0,0,0,9328,9329,9330,9336,9342,9348,9354,9360,9366,9372,9373,0,0,0,0,0,0,0,0,0,0,0,0,0,0,0,0,0,0,0,0,0,0,0,0,0,0,0,0,0,0,0,0,0,0,0,0,0,0,0,0,0,0,0,0,0,0,0,0,0,0,0,0,0,0,0,0,0,0,0,0,0,0,0,0,0,0,0,0,0,0,0,0,0,0,0,0,0,0,0,0,0,0,0,0,0,0,0,0,0,0,0,0,0,0,0,0,0,0,0,0,0,0,0,0,0,0,0,0,0,0,0,0,0,0,0,0,0,9405,9406,9407,9413,9419,9425,9431,9437,9443,9444,9445,0,0,0,0,0,0,0,0,0,0,0,0,0,0,0,0,0,0,0,0,0,0,0,0,0,0,0,0,0,0,0,0,0,0,0,0,0,0,0,0,0,0,0,0,0,0,0,0,0,0,0,0,0,0,0,0,0,0,0,0,0,0,0,0,0,0,0,0,0,0,0,0,0,0,0,0,0,0,0,0,0,0,0,0,0,0,0,0,0,0,0,0,0,0,0,0,0,0,0,0,0,0,0,0,0,0,0,0,0,0,0,0,0,0,0,0,0,9405,9406,9407,9413,9419,9425,9431,9437,9443,9444,9445,0,0,0,0,0,0,0,0,0,0,0,0,0,0,0,0,0,0,0,0,0,0,0,0,0,0,0,0,0,0,0,0,0,0,0,0,0,0,0,0,0,0,0,0,0,0,0,0,0,0,0,0,0,0,0,0,0,0,0,0,0,0,0,0,0,0,0,0,0,0,0,0,0,0,0,0,0,0,0,0,0,0,0,0,0,0,0,0,0,0,0,0,0,0,0,0,0,0,0,0,0,0,0,0,0,0,0,0,0,0,0,0,0,0,0,0,0,9328,9329,9330,9336,9342,9348,9354,9360,9366,9372,9373,0,0,0,0,0,0,0,0,0,0,0,0,0,0,0,0,0,0,0,0,0,0,0,0,0,0,0,0,0,0,0,0,0,0,0,0,0,0,0,0,0,0,0,0,0,0,0,0,0,0,0,0,0,0,0,0,0,0,0,0,0,0,0,0,0,0,0,0,0,0,0,0,0,0,0,0,0,0,0,0,0,0,0,0,0,0,0,0,0,0,0,0,0,0,0,0,0,0,0,0,0,0,0,0,0,0,0,0,0,0,0,0,0,0,0,0,0,9328,9329,9330,9336,9342,9348,9354,9360,9366,9372,9373,0,0,0,0,0,0,0,0,0,0,0,0,0,0,0,0,0,0,0,0,0,0,0,0,0,0,0,0,0,0,0,0,0,0,0,0,0,0,0,0,0,0,0,0,0,0,0,0,0,0,0,0,0,0,0,0,0,0,0,0,0,0,0,0,0,0,0,0,0,0,0,0,0,0,0,0,0,0,0,0,0,0,0,0,0,0,0,0,0,0,0,0,0,0,0,0,0,0,0,0,0,0,0,0,0,0,0,0,0,0,0,0,0,0,0,0,0,9405,9406,9407,9413,9419,9425,9431,9437,9443,9444,9445,0,0,0,0,0,0,0,0,0,0,0,0,0,0,0,0,0,0,0,0,0,0,0,0,0,0,0,0,0,0,0,0,0,0,0,0,0,0,0,0,0,0,0,0,0,0,0,0,0,0,0,0,0,0,0,0,0,0,0,0,0,0,0,0,0,0,0,0,0,0,0,0,0,0,0,0,0,0,0,0,0,0,0,0,0,0,0,0,0,0,0,0,0,0,0,0,0,0,0,0,0,0,0,0,0,0,0,0,0,0,0,0,0,0,0,0,0,9405,9406,9407,9413,9419,9425,9431,9437,9443,9444,9445,0,0,0,0,0,0,0,0,0,0,0,0,0,0,0,0,0,0,0,0,0,0,0,0,0,0,0,0,0,0,0,0,0,0,0,0,0,0,0,0,0,0,0,0,0,0,0,0,0,0,0,0,0,0,0,0,0,0,0,0,0,0,0,0,0,0,0,0,0,0,0,0,0,0,0,0,0,0,0,0,0,0,0,0,0,0,0,0,0,0,0,0,0,0,0,0,0,0,0,0,0,0,0,0,0,0,0,0,0,0,0,0,0,0,0,0,0,9328,9329,9330,9336,9342,9348,9354,9360,9366,9372,9373,0,0,0,0,0,0,0,0,0,0,0,0,0,0,0,0,0,0,0,0,0,0,0,0,0,0,0,0,0,0,0,0,0,0,0,0,0,0,0,0,0,0,0,0,0,0,0,0,0,0,0,0,0,0,0,0,0,0,0,0,0,0,0,0,0,0,0,0,0,0,0,0,0,0,0,0,0,0,0,0,0,0,0,0,0,0,0,0,0,0,0,0,0,0,0,0,0,0,0,0,0,0,0,0,0,0,0,0,0,0,0,0,0,0,0,0,0,9328,9329,9330,9336,9342,9348,9354,9360,9366,9372,9373,0,0,0,0,0,0,0,0,0,0,0,0,0,0,0,0,0,0,0,0,0,0,0,0,0,0,0,0,0,0,0,0,0,0,0,0,0,0,0,0,0,0,0,0,0,0,0,0,0,0,0,0,0,0,0,0,0,0,0,0,0,0,0,0,0,0,0,0,0,0,0,0,0,0,0,0,0,0,0,0,0,0,0,0,0,0,0,0,0,0,0,0,0,0,0,0,0,0,0,0,0,0,0,0,0,0,0,0,0,0,0,0,0,0,0,0,0,9405,9406,9407,9413,9419,9425,9431,9437,9443,9444,9445,0,0,0,0,0,0,0,0,0,0,0,0,0,0,0,0,0,0,0,0,0,0,0,0,0,0,0,0,0,0,0,0,0,0,0,0,0,0,0,0,0,0,0,0,0,0,0,0,0,0,0,0,0,0,0,0,0,0,0,0,0,0,0,0,0,0,0,0,0,0,0,0,0,0,0,0,0,0,0,0,0,0,0,0,0,0,0,0,0,0,0,0,0,0,0,0,0,0,0,0,0,0,0,0,0,0,0,0,0,0,0,0,0,0,0,0,0,9405,9406,9407,9413,9419,9425,9431,9437,9443,9444,9445,0,0,0,0,0,0,0,0,0,0,0,0,0,0,0,0,0,0,0,0,0,0,0,0,0,0,0,0,0,0,0,0,0,0,0,0,0,0,0,0,0,0,0,0,0,0,0,0,0,0,0,0,0,0,0,0,0,0,0,0,0,0,0,0,0,0,0,0,0,0,0,0,0,0,0,0,0,0,0,0,0,0,0,0,0,0,0,0,0,0,0,0,0,0,0,0,0,0,0,0,0,0,0,0,0,0,0,0,0,0,0,0,0,0,0,0,0,9328,9329,9330,9336,9342,9348,9354,9360,9366,9372,9373,0,0,0,0,0,0,0,0,0,0,0,0,0,0,0,0,0,0,0,0,0,0,0,0,0,0,0,0,0,0,0,0,0,0,0,0,0,0,0,0,0,0,0,0,0,0,0,0,0,0,0,0,0,0,0,0,0,0,0,0,0,0,0,0,0,0,0,0,0,0,0,0,0,0,0,0,0,0,0,0,0,0,0,0,0,0,0,0,0,0,0,0,0,0,0,0,0,0,0,0,0,0,0,0,0,0,0,0,0,0,0,0,0,0,0,0,0,9328,9329,9330,9336,9342,9348,9354,9360,9366,9372,9373,0,0,0,0,0,0,0,0,0,0,0,0,0,0,0,0,0,0,0,0,0,0,0,0,0,0,0,0,0,0,0,0,0,0,0,0,0,0,0,0,0,0,0,0,0,0,0,0,0,0,0,0,0,0,0,0,0,0,0,0,0,0,0,0,0,0,0,0,0,0,0,0,0,0,0,0,0,0,0,0,0,0,0,0,0,0,0,0,0,0,0,0,0,0,0,0,0,0,0,0,0,0,0,0,0,0,0,0,0,0,0,0,0,0,0,0,0,9405,9406,9407,9413,9419,9425,9431,9437,9443,9444,9445,0,0,0,0,0,0,0,0,0,0,0,0,0,0,0,0,0,0,0,0,0,0,0,0,0,0,0,0,0,0,0,0,0,0,0,0,0,0,0,0,0,0,0,0,0,0,0,0,0,0,0,0,0,0,0,0,0,0,0,0,0,0,0,0,0,0,0,0,0,0,0,0,0,0,0,0,0,0,0,0,0,0,0,0,0,0,0,0,0,0,0,0,0,0,0,0,0,0,0,0,0,0,0,0,0,0,0,0,0,0,0,0,0,0,0,0,0,9405,9406,9407,9413,9419,9425,9431,9437,9443,9444,9445,0,0,0,0,0,0,0,0,0,0,0,0,0,0,0,0,0,0,0,0,0,0,0,0,0,0,0,0,0,0,0,0,0,0,0,0,0,0,0,0,0,0,0,0,0,0,0,0,0,0,0,0,0,0,0,0,0,0,0,0,0,0,0,0,0,0,0,0,0,0,0,0,0,0,0,0,0,0,0,0,0,0,0,0,0,0,0,0,0,0,0,0,0,0,0,0,0,0,0,0,0,0,0,0,0,0,0,0,0,0,0,0,0,0,0,0,0,9328,9329,9330,9336,9342,9348,9354,9360,9366,9372,9373,0,0,0,0,0,0,0,0,0,0,0,0,0,0,0,0,0,0,0,0,0,0,0,0,0,0,0,0,0,0,0,0,0,0,0,0,0,0,0,0,0,0,0,0,0,0,0,0,0,0,0,0,0,0,0,0,0,0,0,0,0,0,0,0,0,0,0,0,0,0,0,0,0,0,0,0,0,0,0,0,0,0,0,0,0,0,0,0,0,0,0,0,0,0,0,0,0,0,0,0,0,0,0,0,0,0,0,0,0,0,0,0,0,0,0,0,0,9328,9329,9330,9336,9342,9348,9354,9360,9366,9372,9373,0,0,0,0,0,0,0,0,0,0,0,0,0,0,0,0,0,0,0,0,0,0,0,0,0,0,0,0,0,0,0,0,0,0,0,0,0,0,0,0,0,0,0,0,0,0,0,0,0,0,0,0,0,0,0,0,0,0,0,0,0,0,0,0,0,0,0,0,0,0,0,0,0,0,0,0,0,0,0,0,0,0,0,0,0,0,0,0,0,0,0,0,0,0,0,0,0,0,0,0,0,0,0,0,0,0,0,0,0,0,0,0,0,0,0,0,0,9405,9406,9407,9413,9419,9425,9431,9437,9443,9444,9445,0,0,0,0,0,0,0,0,0,0,0,0,0,0,0,0,0,0,0,0,0,0,0,0,0,0,0,0,0,0,0,0,0,0,0,0,0,0,0,0,0,0,0,0,0,0,0,0,0,0,0,0,0,0,0,0,0,0,0,0,0,0,0,0,0,0,0,0,0,0,0,0,0,0,0,0,0,0,0,0,0,0,0,0,0,0,0,0,0,0,0,0,0,0,0,0,0,0,0,0,0,0,0,0,0,0,0,0,0,0,0,0,0,0,0,0,0,9405,9406,9407,9413,9419,9425,9431,9437,9443,9444,9445,0,0,0,0,0,0,0,0,0,0,0,0,0,0,0,0,0,0,0,0,0,0,0,0,0,0,0,0,0,0,0,0,0,0,0,0,0,0,0,0,0,0,0,0,0,0,0,0,0,0,0,0,0,0,0,0,0,0,0,0,0,0,0,0,0,0,0,0,0,0,0,0,0,0,0,0,0,0,0,0,0,0,0,0,0,0,0,0,0,0,0,0,0,0,0,0,0,0,0,0,0,0,0,0,0,0,0,0,0,0,0,0,0,0,0,0,0,9328,9329,9330,9336,9342,9348,9354,9360,9366,9372,9373,0,0,0,0,0,0,0,0,0,0,0,0,0,0,0,0,0,0,0,0,0,0,0,0,0,0,0,0,0,0,0,0,0,0,0,0,0,0,0,0,0,0,0,0,0,0,0,0,0,0,0,0,0,0,0,0,0,0,0,0,0,0,0,0,0,0,0,0,0,0,0,0,0,0,0,0,0,0,0,0,0,0,0,0,0,0,0,0,0,0,0,0,0,0,0,0,0,0,0,0,0,0,0,0,0,0,0,0,0,0,0,0,0,0,0,0,0,9328,9329,9330,9336,9342,9348,9354,9360,9366,9372,9373,0,0,0,0,0,0,0,0,0,0,0,0,0,0,0,0,0,0,0,0,0,0,0,0,0,0,0,0,0,0,0,0,0,0,0,0,0,0,0,0,0,0,0,0,0,0,0,0,0,0,0,0,0,0,0,0,0,0,0,0,0,0,0,0,0,0,0,0,0,0,0,0,0,0,0,0,0,0,0,0,0,0,0,0,0,0,0,0,0,0,0,0,0,0,0,0,0,0,0,0,0,0,0,0,0,0,0,0,0,0,0,0,0,0,0,0,0,9405,9406,9407,9413,9419,9425,9431,9437,9443,9444,9445,0,0,0,0,0,0,0,0,0,0,0,0,0,0,0,0,0,0,0,0,0,0,0,0,0,0,0,0,0,0,0,0,0,0,0,0,0,0,0,0,0,0,0,0,0,0,0,0,0,0,0,0,0,0,0,0,0,0,0,0,0,0,0,0,0,0,0,0,0,0,0,0,0,0,0,0,0,0,0,0,0,0,0,0,0,0,0,0,0,0,0,0,0,0,0,0,0,0,0,0,0,0,0,0,0,0,0,0,0,0,0,0,0,0,0,0,0,9405,9406,9407,9413,9419,9425,9431,9437,9443,9444,9445,0,0,0,0,0,0,0,0,0,0,0,0,0,0,0,0,0,0,0,0,0,0,0,0,0,0,0,0,0,0,0,0,0,0,0,0,0,0,0,0,0,0,0,0,0,0,0,0,0,0,0,0,0,0,0,0,0,0,0,0,0,0,0,0,0,0,0,0,0,0,0,0,0,0,0,0,0,0,0,0,0,0,0,0,0,0,0,0,0,0,0,0,0,0,0,0,0,0,0,0,0,0,0,0,0,0,0,0,0,0,0,0,0,0,0,0,0,9328,9329,9330,9336,9342,9348,9354,9360,9366,9372,9373,0,0,0,0,0,0,0,0,0,0,0,0,0,0,0,0,0,0,0,0,0,0,0,0,0,0,0,0,0,0,0,0,0,0,0,0,0,0,0,0,0,0,0,0,0,0,0,0,0,0,0,0,0,0,0,0,0,0,0,0,0,0,0,0,0,0,0,0,0,0,0,0,0,0,0,0,0,0,0,0,0,0,0,0,0,0,0,0,0,0,0,0,0,0,0,0,0,0,0,0,0,0,0,0,0,0,0,0,0,0,0,0,0,0,0,0,0,9328,9329,9330,9336,9342,9348,9354,9360,9366,9372,9373,0,0,0,0,0,0,0,0,0,0,0,0,0,0,0,0,0,0,0,0,0,0,0,0,0,0,0,0,0,0,0,0,0,0,0,0,0,0,0,0,0,0,0,0,0,0,0,0,0,0,0,0,0,0,0,0,0,0,0,0,0,0,0,0,0,0,0,0,0,0,0,0,0,0,0,0,0,0,0,0,0,0,0,0,0,0,0,0,0,0,0,0,0,0,0,0,0,0,0,0,0,0,0,0,0,0,0,0,0,0,0,0,0,0,0,0,0,9405,9406,9407,9413,9419,9425,9431,9437,9443,9444,9445,0,0,0,0,0,0,0,0,0,0,0,0,0,0,0,0,0,0,0,0,0,0,0,0,0,0,0,0,0,0,0,0,0,0,0,0,0,0,0,0,0,0,0,0,0,0,0,0,0,0,0,0,0,0,0,0,0,0,0,0,0,0,0,0,0,0,0,0,0,0,0,0,0,0,0,0,0,0,0,0,0,0,0,0,0,0,0,0,0,0,0,0,0,0,0,0,0,0,0,0,0,0,0,0,0,0,0,0,0,0,0,0,0,0,0,0,0,9405,9406,9407,9413,9419,9425,9431,9437,9443,9444,9445,0,0,0,0,0,0,0,0,0,0,0,0,0,0,0,0,0,0,0,0,0,0,0,0,0,0,0,0,0,0,0,0,0,0,0,0,0,0,0,0,0,0,0,0,0,0,0,0,0,0,0,0,0,0,0,0,0,0,0,0,0,0,0,0,0,0,0,0,0,0,0,0,0,0,0,0,0,0,0,0,0,0,0,0,0,0,0,0,0,0,0,0,0,0,0,0,0,0,0,0,0,0,0,0,0,0,0,0,0,0,0,0,0,0,0,0,0,9328,9329,9330,9336,9342,9348,9354,9360,9366,9372,9373,0,0,0,0,0,0,0,0,0,0,0,0,0,0,0,0,0,0,0,0,0,0,0,0,0,0,0,0,0,0,0,0,0,0,0,0,0,0,0,0,0,0,0,0,0,0,0,0,0,0,0,0,0,0,0,0,0,0,0,0,0,0,0,0,0,0,0,0,0,0,0,0,0,0,0,0,0,0,0,0,0,0,0,0,0,0,0,0,0,0,0,0,0,0,0,0,0,0,0,0,0,0,0,0,0,0,0,0,0,0,0,0,0,0,0,0,0,9328,9329,9330,9336,9342,9348,9354,9360,9366,9372,9373,0,0,0,0,0,0,0,0,0,0,0,0,0,0,0,0,0,0,0,0,0,0,0,0,0,0,0,0,0,0,0,0,0,0,0,0,0,0,0,0,0,0,0,0,0,0,0,0,0,0,0,0,0,0,0,0,0,0,0,0,0,0,0,0,0,0,0,0,0,0,0,0,0,0,0,0,0,0,0,0,0,0,0,0,0,0,0,0,0,0,0,0,0,0,0,0,0,0,0,0,0,0,0,0,0,0,0,0,0,0,0,0,0,0,0,0,0,9405,9406,9407,9413,9419,9425,9431,9437,9443,9444,9445,0,0,0,0,0,0,0,0,0,0,0,0,0,0,0,0,0,0,0,0,0,0,0,0,0,0,0,0,0,0,0,0,0,0,0,0,0,0,0,0,0,0,0,0,0,0,0,0,0,0,0,0,0,0,0,0,0,0,0,0,0,0,0,0,0,0,0,0,0,0,0,0,0,0,0,0,0,0,0,0,0,0,0,0,0,0,0,0,0,0,0,0,0,0,0,0,0,0,0,0,0,0,0,0,0,0,0,0,0,0,0,0,0,0,0,0,0,9405,9406,9407,9413,9419,9425,9431,9437,9443,9444,9445,0,0,0,0,0,0,0,0,0,0,0,0,0,0,0,0,0,0,0,0,0,0,0,0,0,0,0,0,0,0,0,0,0,0,0,0,0,0,0,0,0,0,0,0,0,0,0,0,0,0,0,0,0,0,0,0,0,0,0,0,0,0,0,0,0,0,0,0,0,0,0,0,0,0,0,0,0,0,0,0,0,0,0,0,0,0,0,0,0,0,0,0,0,0,0,0,0,0,0,0,0,0,0,0,0,0,0,0,0,0,0,0,0,0,0,0,0,0,0,0,0,0,0,0,0,0,0,0,0,0,0,0,0,0,0,0,0,0,0,0,0,0,0,0,0,0,0,0,0,0,0,0,0,0,0,0,0,0,0,0,0,0,0,0,0,0,0,0,0,0,0,0,0,0,0,0,0,0,0,0,0,0,0,0,0,0,0,0,0,0,0,0,0,0,0,0,0,0,0,0,0,0,0,0,0,0,0,0,0,0,0,0,0,0,0,0,0,0,0,0,0,0,0,0,0,0,0,0,0,0,0,0,0,0,0,0,0,0,0,0,0,0,0,0,0,0,0,0,0,0,0,0,0,0,0,0,0,0,0,0,0,0,0,0,0,0,0,0,0,0,0,0,0,0,0,0,0,0,0,0,0,0,0,0,0,0,0,0,0,0,0,0,0,0,0,0,0,0,0,0,0,0,0,0,0,0,0,0,0,0,0,0,0,0,0,0,0,0,0,0,0,0,0,0,0,0,0,0,0,0,0,0,0,0,0,0,0,0,0,0,0,0,0,0,0,0,0,0,0,0,0,0,0,0,0,0,0,0,0,0,0,0,0,0,0,0,0,0,0,0,0,0,0,0,0,0,0,0,0,0,0,0,0,0,0,0,0,0,0,0,0,0,0,0,0,0,0,0,0,0,0,0,0,0,0,0,0,0,0,0,0,0,0,0,0,0,0,0,0,0,0,0,0,0,0,0,0,0,0,0,0,0,0,0,0,0,0,0,0,0,0,0,0,0,0,0,0,0,0,0,0,0,0,0,0,0,0,0,0,0,0,0,0,0,0,0,0,0,0,0,0,0,0,0,0,0,0,0,0,0,0,0,0,0,0,0,0,0,0,0,0,0,0,0,0,0,0,0,0,0,0,0,0,0,0,0,0,0,0,0,0,0,0,0,0,0,0,0,0,0,0,0,0,0,0,0,0,0,0,0,0,0,0,0,0,0,0,0,0,0,0,0,0,0,0,0,0,0,0,0,0,0,0,0,0,0,0,0,0,0,0,0,0,0,0,0,0,0,0,0,0,0,0,0,0,0,0,0,0,0,0,0,0,0,0,0,0,0,0,0,0,0,0,0,0,0,0,0,0,0,0,0,0,0,0,0,0,0,0,0,0,0,0,0,0,0,0,0,0,0,0,0,0,0,0,0,0,0,0,0,0,0,0,0,0,0,0,0,0,0,0,0,0,0,0,0,0,0,0,0,0,0,0,0,0,0,0,0,0,0,0,0,0,0,0,0,0,0,0,0,0,0,0,0,0,0,0,0,0,0,0,0,0,0,0,0,0,0,0,0,0,0,0,0,0,0,0,0,0,0,0,0,0,0,0,0,0,0,0,0,0,0,0,0,0,0,0,0,0,0,0,0,0,0,0,0,0,0,0,0,0,0,0,0,0,0,0,0,0,0,0,0,0,0,0,0,0,0,0,0,0,0,0,0,0,0,0,0,0,0,0,0,0,0,0,0,0,0,0,0,0,0,0,0,0,0,0,0,0,0,0,0,0,0,0,0,0,0,0,0,0,0,0,0,0,0,0,0,0,0,0,0,0,0,0,0,0,0,0,0,0,0,0,0,0,0,0,0,0,0,0,0,0,0,0,0,0,0,0,0,0,0,0,0,0,0,0,0,0,0,0,0,0,0,0,0,0,0,0,0,0,0,0,0,0,0,0,0,0,0,0,0,0,0,0,0,0,0,0,0,0,0,0,0,0,0,0,0,0,0,0,0,0,0,0,0,0,0,0,0,0,0,0,0,0,0,0,0,0,0,0,0,0,0,0,0,0,0,0,0,0,0,0,0,0,0,0,0,0,0,0,0,0,0,0,0,0,0,0,0,0,0,0,0,0,0,0,0,0,0,0,0,0,0,0,0,0,0,0,0,0,0,0,0,0,0,0,0,0,0,0,0,0,0,0,0,0,0,0,0,0,0,0,0,0,0,0,0,0,0,0,0,0,0,0,0,0,0,0,0,0,0,0,0,0,0,0,0,0,0,0,0,0,0,0,0,0,0,0,0,0,0,0,0,0,0,0,0,0,0,0,0,0,0,0,0,0,0,0,0,0,0,0,0,0,0,0,0,0,0,0,0,0,0,0,0,0,0,0,0,0,0,0,0,0,0,0,0,0,0,0,0,0,0,0,0,0,0,0,0,0,0,0,0,0,0,0,0,0,0,0,0,0,0,0,0,0,0,0,0,0,0,0,0,0,0,0,0,0,0,0,0,0,0,0,0,0,0,0,0,0,0,0,0,0,0,0,0,0,0,0,0,0,0,0,0,0,0,0,0,0,0,0,0,0,0,0,0,0,0,0,0,0,0,0,0,0,0,0,0,0,0,0,0,0,0,0,0,0,0,0,0,0,0,0,0,0,0,0,0,0,0,0,0,0,0,0,0,0,0,0,0,0,0,0,0,0,0,0,0,0,0,0,0,0,0,0,0,0,0,0,0,0,0,0,0,0,0,0,0,0,0,0,0,0,0,0,0,0,0,0,0,0,0,0,0,0,0,0,0,0,0,0,0,0,0,0,0,0,0,0,0,0,0,0,0,0,0,0,0,0,0,0,0,0,0,0,0,0,0,0,0,0,0,0,0,0,0,0,0,0,0,0,0,0,0,0,0,0,0,0,0,0,0,0,0,0,0,0,0,0,0,0,0,0,0,0,0,0,0,0,0,0,0,0,0,0,0,0,0,0,0,0,0,0,0,0,0,0,0,0,0,0,0,0,0,0,0,0,0,0,0,0,0,0,0,0,0,0,0,0,0,0,0,0,0,0,0,0,0,0,0,0,0,0,0,0,0,0,0,0,0,0,0,0,0,0,0,0,0,0,0,0,0,0,0,0,0,0,0,0,0,0,0,0,0,0,0,0,0,0,0,0,0,0,0,0,0,0,0,0,0,0,0,0,0,0,0,0,0,0,0,0,0,0,0,0,0,0,0,0,0,0,0,0,0,0,0,0,0,0,0,0,0,0,0,0,0,0,0,0,0,0,0,0,0,0,0,0,0,0,0,0,0,0,0,0,0,0,0,0,0,0,0,0,0,0,0,0,0,0,0,0,0,0,0,0,0,0,0,0,0,0,0,0,0,0,0,0,0,0,0,0,0,0,0,0,0,0,0,0,0,0,0,0,0,0,0,0,0,0,0,0,0,0,0,0,0,0,0,0,0,0,0,0,0,0,0,0,0,0,0,0,0,0,0,0,0,0,0,0,0,0,0,0,0,0,0,0,0,0,0,0,0,0,0,0,0,0,0,0,0,0,0,0,0,0,0,0,0,0,0,0,0,0,0,0,0,0,0,0,0,0,0,0,0,0,0,0,0,0,0,0,0,0,0,0,0,0,0,0,0,0,0,0,0,0,0,0,0,0,0,0,0,0,0,0,0,0,0,0,0,0,0,0,0,0,0,0,0,0,0,0,0,0,0,0,0,0,0,0,0,0,0,0,0,0,0,0,0,0,0,0,0,0,0,0,0,0,0,0,0,0,0,0,0,0,0,0,0,0,0,0,0,0,0,0,0,0,0,0,0,0,0,0,0,0,0,0,0,0,0,0,0,0,0,0,0,0,0,0,0,0,0,0,0,0,0,0,0,0,0,0,0,0,0,0,0,0,0,0,0,0,0,0,0,0,0,0,0,0,0,0,0,0,0,0,0,0,0,0,0,0,0,0,0,0,0,0,0,0,0,0,0,0,0,0,0,0,0,0,0,0,0,0,0,0,0,0,0,0,0,0,0,0,0,0,0,0,0,0,0,0,0,0,0,0,0,0,0,0,0,0,0,0,0,0,0,0,0,0,0,0,0,0,0,0,0,0,0,0,0,0,0,0,0,0,0,0,0,0,0,0,0,0,0,0,0,0,0,0,0,0,0,0,0,0,0,0,0,0,0,0,0,0,0,0,0,0,0,0,0,0,0,0,0,0,0,0,0,0,0,0,0,0,0,0,0,0,0,0,0,0,0,0,0,0,0,0,0,0,0,0,0,0,0,0,0,0,0,0,0,0,0,0,0,0,0,0,0,0,0,0,0,0,0,0,0,0,0,0,0,0,0,0,0,0,0,0,0,0,0,0,0,0,0,0,0,0,0,0,0,0,0,0,0,0,0,0,0,0,0,0,0,0,0,0,0,0,0,0,0,0,0,0,0,0,0,0,0,0,0,0,0,0,0,0,0,0,0,0,0,0,0,0,0,0,0,0,0,0,0,0,0,0,0,0,0,0,0,0,0,0,0,0,0,0,0,0,0,0,0,0,0,0,0,0,0,0,0,0,0,0,0,0,0,0,0,0,0,0,0,0,0,0,0,0,0,0,0,0,0,0,0,0,0,0,0,0,0,0,0,0,0,0,0,0,0,0,0,0,0,0,0,0,0,0,0,0,0,0,0,0,0,0,0,0,0,0,0,0,0,0,0,0,0,0,0,0,0,0,0,0,0,0,0,0,0,0,0,0,0,0,0,0,0,0,0,0,0,0,0,0,0,0,0,0,0,0,0,0,0,0,0,0,0,0,0,0,0,0,0,0,0,0,0,0,0,0,0,0,0,0,0,0,0,0,0,0,0,0,0,0,0,0,0,0,0,0,0,0,0,0,0,0,0,0,0,0,0,0,0,0,0,0,0,0,0,0,0,0,0,0,0,0,0,0,0,0,0,0,0,0,0,0,0,0,0,0,0,0,0,0,0,0,0,0,0,0,0,0,0,0,0,0,0,0,0,0,0,0,0,0,0,0,0,0,0,0,0,0,0,0,0,0,0,0,0,0,0,0,0,0,0,0,0,0,0,0,0,0,0,0,0,0,0,0,0,0,0,0,0,0,0,0,0,0,0,0,0,0,0,0,0,0,0,0,0,0,0,0,0,0,0,0,0,0,0,0,0,0,0,0,0,0,0,0,0,0,0,0,0,0,0,0,0,0,0,0,0,0,0,0,0,0,0,0,0,0,0,0,0,0,0,0,0,0,0,0,0,0,0,0,0,0,0,0,0,0,0,0,0,0,0,0,0,0,0,0,0,0,0,0,0,0,0,0,0,0,0,0,0,0,0,0,0,0,0,0,0,0,0,0,0,0,0,0,0,0,0,0,0,0,0,0,0,0,0,0,0,0,0,0,0,0,0,0,0,0,0,0,0,0,0,0,0,0,0,0,0,0,0,0,0,0,0,0,0,0,0,0,0,0,0,0,0,0,0,0,0,0,0,0,0,0,0,0,0,0,0,0,0,0,0,0,0,0,0,0,0,0,0,0,0,0,0,0,0,0,0,0,0,0,0,0,0,0,0,0,0,0,0,0,0,0,0,0,0,0,0,0,0,0,0,0,0,0,0,0,0,0,0,0,0,0,0,0,0,0,0,0,0,0,0,0,0,0,0,0,0,0,0,0,0,0,0,0,0,0,0,0,0,0,0,0,0,0,0,0,0,0,0,0,0,0,0,0,0,0,0,0,0,0,0,0,0,0,0,0,0,0,0,0,0,0,0,0,0,0,0,0,0,0,0,0,0,0,0,0,0,0,0,0,0,0,0,0,0,0,0,0,0,0,0,0,0,0,0,0,0,0,0,0,0,0,0,0,0,0,0,0,0,0,0,0,0,0,0,0,0,0,0,0,0,0,0,0,0,0,0,0,0,0,0,0,0,0,0,0,0,0,0,0,0,0,0,0,0,0,0,0,0,0,0,0,0,0,0,0,0,0,0,0,0,0,0,0,0,0,0,0,0,0,0,0,0,0,0,0,0,0,0,0,0,0,0,0,0,0,0,0,0,0,0,0,0,0,0,0,0,0,0,0,0,0,0,0,0,0,0,0,0,0,0,0,0,0,0,0,0,0,0,0,0,0,0,0,0,0,0,0,0,0,0,0,0,0,0,0,0,0,0,0,0,0,0,0,0,0,0,0,0,0,0,0,0,0,0,0,0,0,0,0,0,0,0,0,0,0,0,0,0,0,0,0,0,0,0,0,0,0,0,0,0,0,0,0,0,0,0,0,0,0,0,0,0,0,0,0,0,0,0,0,0,0,0,0,0,0,0,0,0,0,0,0,0,0,0,0,0,0,0,0,0,0,0,0,0,0,0,0,0,0,0,0,0,0,0,0,0,0,0,0,0,0,0,0,0,0,0,0,0,0,0,0,0,0,0,0,0,0,0,0,0,0,0,0,0,0,0,0,0,0,0,0,0,0,0,0,0,0,0,0,0,0,0,0,0,0,0,0,0,0,0,0,0,0,0,0,0,0,0,0,0,0,0,0,0,0,0,0,0,0,0,0,0,0,0,0,0,0,0,0,0,0,0,0,0,0,0,0,0,0,0,0,0,0,0,0,0,0,0,0,0,0,0,0,0,0,0,0,0,0,0,0,0,0,0,0,0,0,0,0,0,0,0,0,0,0,0,0,0,0,0,0,0,0,0,0,0,0,0,0,0,0,0,0,0,0,0,0,0,0,0,0,0,0,0,0,0,0,0,0,0,0,0,0,0,0,0,0,0,0,0,0,0,0,0,0,0,0,0,0,0,0,0,0,0,0,0,0,0,0,0,0,0,0,0,0,0,0,0,0,0,0,0,0,0,0,0,0,0,0,0,0,0,0,0,0,0,0,0,0,0,0,0,0,0,0,0,0,0,0,0,0,0,0,0,0,0,0,0,0,0,0,0,0,0,0,0,0,0,0,0,0,0,0,0,0,0,0,0,0,0,0,0,0,0,0,0,0,0,0,0,0,0,0,0,0,0,0,0,0,0,0,0,0,0,0,0,0,0,0,0,0,0,0,0,0,0,0,0,0,0,0,0,0,0,0,0,0,0,0,0,0,0,0,0,0,0,0,0,0,0,0,0,0,0,0,0,0,0,0,0,0,0,0,0,0,0,0,0,0,0,0,0,0,0,0,0,0,0,0,0,0,0,0,0,0,0,0,0,0,0,0,0,0,0,0,0,0,0,0,0,0,0,0,0,0,0,0,0,0,0,0,0,0,0,0,0,0,0,0,0,0,0,0,0,0,0,0,0,0,0,0,0,0,0,0,0,0,0,0,0,0,0,0,0,0,0,0,0,0,0,0,0,0,0,0,0,0,0,0,0,0,0,0,0,0,0,0,0,0,0,0,0,0,0,0,0,0,0,0,0,0,0,0,0,0,0,0,0,0,0,0,0,0,0,0,0,0,0,0,0,0,0,0,0,0,0,0,0,0,0,0,0,0,0,0,0,0,0,0,0,0,0,0,0,0,0,0,0,0,0,0,0,0,0,0,0,0,0,0,0,0,0,0,0,0,0,0,0,0,0,0,0,0,0,0,0,0,0,0,0,0,0,0,0,0,0,0,0,0,0,0,0,0,0,0,0,0,0,0,0,0,0,0,0,0,0,0,0,0,0,0,0,0,0,0,0,0,0,0,0,0,0,0,0,0,0,0,0,0,0,0,0,0,0,0,0,0,0,0,0,0,0,0,0,0,0,0,0,0,0,0,0,0,0,0,0,0,0,0,0,0,0,0,0,0,0,0,0,0,0,0,0,0,0,0,0,0,0,0,0,0,0,0,0,0,0,0,0,0,0,0,0,0,0,0,0,0,0,0,0,0,0,0,0,0,0,0,0,0,0,0,0,0,0,0,0,0,0,0,0,0,0,0,0,0,0,0,0,0,0,0,0,0,0,0,0,0,0,0,0,0,0,0,0,0,0,0,0,0,0,0,0,0,0,0,0,0,0,0,0,0,0,0,0,0,0,0,0,0,0,0,0,0,0,0,0,0,0,0,0,0,0,0,0,0,0,0,0,0,0,0,0,0,0,0,0,0,0,0,0,0,0,0,0,0,0,0,0,0,0,0,0,0,0,0,0,0,0,0,0,0,0,0,0,0,0,0,0,0,0,0,0,0,0,0,0,0,0,0,0,0,0,0,0,0,0,0,0,0,0,0,0,0,0,0,0,0,0,0,0,0,0,0,0,0,0,0,0,0,0,0,0,0,0,0,0,0,0,0,0,0,0,0,0,0,0,0,0,0,0,0,0,0,0,0,0,0,0,0,0,0,0,0,0,0,0,0,0,0,0,0,0,0,0,0,0,0,0,0,0,0,0,0,0,0,0,0,0,0,0,0,0,0,0,0,0,0,0,0,0,0,0,0,0,0,0,0,0,0,0,0,0,0,0,0,0,0,0,0,0,0,0,0,0,0,0,0,0,0,0,0,0,0,0,0,0,0,0,0,0,0,0,0,0,0,0,0,0,0,0,0,0,0,0,0,0,0,0,0,0,0,0,0,0,0,0,0,0,0,0,0,0,0,0,0,0,0,0,0,0,0,0,0,0,0,0,0,0,0,0,0,0,0,0,0,0,0,0,0,0,0,0,0,0,0,0,0,0,0,0,0,0,0,0,0,0,0,0,0,0,0,0,0,0,0,0,0,0,0,0,0,0,0,0,0,0,0,0,0,0,0,0,0,0,0,0,0,0,0,0,0,0,0,0,0,0,0,0,0,0,0,0,0,0,0,0,0,0,0,0,0,0,0,0,0,0,0,0,0,0,0,0,0,0,0,0,0,0,0,0,0,0,0,0,0,0,0,0,0,0,0,0,0,0,0,0,0,0,0,0,0,0,0,0,0,0,0,0,0,0,0,0,0,0,0,0,0,0,0,0,0,0,0,0,0,0,0,0,0,0,0,0,0,0,0,0,0,0,0,0,0,0,0,0,0,0,0,0,0,0,0,0,0,0,0,0,0,0,0,0,0,0,0,0,0,0,0,0,0,0,0,0,0,0,0,0,0,0,0,0,0,0,0,0,0,0,0,0,0,0,0,0,0,0,0,0,0,0,0,0,0,0,0,0,0,0,0,0,0,0,0,0,0,0,0,0,0,0,0,0,0,0,0,0,0,0,0,0,0,0,0,0,0,0,0,0,0,0,0,0,0,0,0,0,0,0,0,0,0,0,0,0,0,0,0,0,0,0,0,0,0,0,0,0,0,0,0,0,0,0,0,0,0,0,0,0,0,0,0,0,0,0,0,0,0,0,0,0,0,0,0,0,0,0,0,0,0,0,0,0,0,0,0,0,0,0,0,0,0,0,0,0,0,0,0,0,0,0,0,0,0,0,0,0,0,0,0,0,0,0,0,0,0,0,0,0,0,0,0,0,0,0,0,0,0,0,0,0,0,0,0,0,0,0,0,0,0,0,0,0,0,0,0,0,0,0,0,0,0,0,0,0,0,0,0,0,0,0,0,0,0,0,0,0,0,0,0,0,0,0,0,0,0,0,0,0,0,0,0,0,0,0,0,0,0,0,0,0,0,0,0,0,0,0,0,0,0,0,0,0,0,0,0,0,0,0,0,0,0,0,0,0,0,0,0,0,0,0,0,0,0,0,0,0,0,0,0,0,0,0,0,0,0,0,0,0,0,0,0,0,0,0,0,0,0,0,0,0,0,0,0,0,0,0,0,0,0,0,0,0,0,0,0,0,0,0,0,0,0,0,0,0,0,0,0,0,0,0,0,0,0,0,0,0,0,0,0,0,0,0,0,0,0,0,0,0,0,0,0,0,0,0,0,0,0,0,0,0,0,0,0,0,0,0,0,0,0,0,0,0,0,0,0,0,0,0,0,0,0,0,0,0,0,0,0,0,0,0,0,0,0,0,0,0,0,0,0,0,0,0,0,0,0,0,0,0,0,0,0,0,0,0,0,0,0,0,0,0,0,0,0,0,0,0,0,0,0,0,0,0,0,0,0,0,0,0,0,0,0,0,0,0,0,0,0,0,0,0,0,0,0,0,0,0,0,0,0,0,0,0,0,0,0,0,0,0,0,0,0,0,0,0,0,0,0,0,0,0,0,0,0,0,0,0,0,0,0,0,0,0,0,0,0,0,0,0,0,0,0,0,0,0,0,0,0,0,0,0,0,0,0,0,0,0,0,0,0,0,0,0,0,0,0,0,0,0,0,0,0,0,0,0,0,0,0,0,0,0,0,0,0,0,0,0,0,0,0,0,0,0,0,0,0,0,0,0,0,0,0,0,0,0,0,0,0,0,0,0,0,0,0,0,0,0,0,0,0,0,0,0,0,0,0,0,0,0,0,0,0,0,0,0,0,0,0,0,0,0,0,0,0,0,0,0,0,0,0,0,0,0,0,0,0,0,0,0,0,0,0,0,0,0,0,0,0,0,0,0,0,0,0,0,0,0,0,0,0,0,0,0,0,0,0,0,0,0,0,0,0,0,0,0,0,0,0,0,0,0,0,0,0,0,0,0,0,0,0,0,0,0,0,0,0,0,0,0,0,0,0,0,0,0,0,0,0,0,0,0,0,0,0,0,0,0,0,0,0,0,0,0,0,0,0,0,0,0,0,0,0,0,0,0,0,0,0,0,0,0,0,0,0,0,0,0,0,0,0,0,0,0,0,0,0,0,0,0,0,0,0,0,0,0,0,0,0,0,0,0,0,0,0,0,0,0,0,0,0,0,0,0,0,0,0,0,0,0,0,0,0,0,0,0,0,0,0,0,0,0,0,0,0,0,0,0,0,0,0,0,0,0,0,0,0,0,0,0,0,0,0,0,0,0,0,0,0,0,0,0,0,0,0,0,0,0,0,0,0,0,0,0,0,0,0,0,0,0,0,0,0,0,0,0,0,0,0,0,0,0,0,0,0,0,0,0,0,0,0,0,0,0,0,0,0,0,0,0,0,0,0,0,0,0,0,0,0,0,0,0,0,0,0,0,0,0,0,0,0,0,0,0,0,0,0,0,0,0,0,0,0,0,0,0,0,0,0,0,0,0,0,0,0,0,0,0,0,0,0,0,0,0,0,0,0,0,0,0,0,0,0,0,0,0,0,0,0,0,0,0,0,0,0,0,0,0,0,0,0,0,0,0,0,0,0,0,0,0,0,0,0,0,0,0,0,0,0,0,0,0,0,0,0,0,0,0,0,0,0,0,0,0,0,0,0,0,0,0,0,0,0,0,0,0,0,0,0,0,0,0,0,0,0,0,0,0,0,0,0,0,0,0,0,0,0,0,0,0,0,0,0,0,0,0,0,0,0,0,0,0,0,0,0,0,0,0,0,0,0,0,0,0,0,0,0,0,0,0,0,0,0,0,0,0,0,0,0,0,0,0,0,0,0,0,0,0,0,0,0,0,0,0,0,0,0,0,0,0,0,0,0,0,0,0,0,0,0,0,0,0,0,0,0,0,0,0,0,0,0,0,0,0,0,0,0,0,0,0,0,0,0,0,0,0,0,0,0,0,0,0,0,0,0,0,0,0,0,0,0,0,0,0,0,0,0,0,0,0,0,0,0,0,0,0,0,0,0,0,0,0,0,0,0,0,0,0,0,0,0,0,0,0,0,0,0,0,0,0,0,0,0,0,0,0,0,0,0,0,0,0,0,0,0,0,0,0,0,0,0,0,0,0,0,0,0,0,0,0,0,0,0,0,0,0,0,0,0,0,0,0,0,0,0,0,0,0,0,0,0,0,0,0,0,0,0,0,0,0,0,0,0,0,0,0,0,0,0,0,0,0,0,0,0,0,0,0,0,0,0,0,0,0,0,0,0,0,0,0,0,0,0,0,0,0,0,0,0,0,0,0,0,0,0,0,0,0,0,0,0,0,0,0,0,0,0,0,0,0,0,0,0,0,0,0,0,0,0,0,0,0,0,0,0,0,0,0,0,0,0,0,0,0,0,0,0,0,0,0,0,0,0,0,0,0,0,0,0,0,0,0,0,0,0,0,0,0,0,0,0,0,0,0,0,0,0,0,0,0,0,0,0,0,0,0,0,0,0,0,0,0,0,0,0,0,0,0,0,0,0,0,0,0,0,0,0,0,0,0,0,0,0,0,0,0,0,0,0,0,0,0,0,0,0,0,0,0,0,0,0,0,0,0,0,0,0,0,0,0,0,0,0,0,0,0,0,0,0,0,0,0,0,0,0,0,0,0,0,0,0,0,0,0,0,0,0,0,0,0,0,0,0,0,0,0,0,0,0,0,0,0,0,0,0,0,0,0,0,0,0,0,0,0,0,0,0,0,0,0,0,0,0,0,0,0,0,0,0,0,0,0,0,0,0,0,0,0,0,0,0,0,0,0,0,0,0,0,0,0,0,0,0,0,0,0,0,0,0,0,0,0,0,0,0,0,0,0,0,0,0,0,0,0,0,0,0,0,0,0,0,0,0,0,0,0,0,0,0,0,0,0,0,0,0,0,0,0,0,0,0,0,0,0,0,0,0,0,0,0,0,0,0,0,0,0,0,0,0,0,0,0,0,0,0,0,0,0,0,0,0,0,0,0,0,0,0,0,0,0,0,0,0,0,0,0,0,0,0,0,0,0,0,0,0,0,0,0,0,0,0,0,0,0,0,0,0,0,0,0,0,0,0,0,0,0,0,0,0,0,0,0,0,0,0,0,0,0,0,0,0,0,0,0,0,0,0,0,0,0,0,0,0,0,0,0,0,0,0,0,0,0,0,0,0,0,0,0,0,0,0,0,0,0,0,0,0,0,0,0,0,0,0,0,0,0,0,0,0,0,0,0,0,0,0,0,0,0,0,0,0,0,0,0,0,0,0,0,0,0,0,0,0,0,0,0,0,0,0,0,0,0,0,0,0,0,0,0,0,0,0,0,0,0,0,0,0,0,0,0,0,0,0,0,0,0,0,0,0,0,0,0,0,0,0,0,0,0,0,0,0,0,0,0,0,0,0,0,0,0,0,0,0,0,0,0,0,0,0,0,0,0,0,0,0,0,0,0,0,0,0,0,0,0,0,0,0,0,0,0,0,0,0,0,0,0,0,0,0,0,0,0,0,0,0,0,0,0,0,0,0,0,0,0,0,0,0,0,0,0,0,0,0,0,0,0,0,0,0,0,0,0,0,0,0,0,0,0,0,0,0,0,0,0,0,0,0,0,0,0,0,0,0,0,0,0,0,0,0,0,0,0,0,0,0,0,0,0,0,0,0,0,0,0,0,0,0,0,0,0,0,0,0,0,0,0,0,0,0,0,0,0,0,0,0,0,0,0,0,0,0,0,0,0,0,0,0,0,0,0,0,0,0,0,0,0,0,0,0,0,0,0,0,0,0,0,0,0,0,0,0,0,0,0,0,0,0,0,0,0,0,0,0,0,0,0,0,0,0,0,0,0,0,0,0,0,0,0,0,0,0,0,0,0,0,0,0,0,0,0,0,0,0,0,0,0,0,0,0,0,0,0,0,0,0,0,0,0,0,0,0,0,0,0,0,0,0,0,0,0,0,0,0,0,0,0,0,0,0,0,0,0,0,0,0,0,0,0,0,0,0,0,0,0,0,0,0,0,0,0,0,0,0,0,0,0,0,0,0,0,0,0,0,0,0,0,0,0,0,0,0,0,0,0,0,0,0,0,0,0,0,0,0,0,0,0,0,0,0,0,0,0,0,0,0,0,0,0,0,0,0,0,0,0,0,0,0,0,0,0,0,0,0,0,0,0,0,0,0,0,0,0,0,0,0,0,0,0,0,0,0,0,0,0,0,0,0,0,0,0,0,0,0,0,0,0,0,0,0,0,0,0,0,0,0,0,0,0,0,0,0,0,0,0,0,0,0,0,0,0,0,0,0,0,0,0,0,0,0,0,0,0,0,0,0,0,0,0,0,0,0,0,0,0,0,0,0,0,0,0,0,0,0,0,0,0,0,0,0,0,0,0,0,0,0,0,0,0,0,0,0,0,0,0,0,0,0,0,0,0,0,0,0,0,0,0,0,0,0,0,0,0,0,0,0,0,0,0,0,0,0,0,0,0,0,0,0,0,0,0,0,0,0,0,0,0,0,0,0,0,0,0,0,0,0,0,0,0,0,0,0,0,0,0,0,0,0,0,0,0,0,0,0,0,0,0,0,0,0,0,0,0,0,0,0,0,0,0,0,0,0,0,0,0,0,0,0,0,0,0,0,0,0,0,0,0,0,0,0,0,0,0,0,0,0,0,0,0,0,0,0,0,0,0,0,0,0,0,0,0,0,0,0,0,0,0,0,0,0,0,0,0,0,0,0,0,0,0,0,0,0,0,0,0,0,0,0,0,0,0,0,0,0,0,0,0,0,0,0,0,0,0,0,0,0,0,0,0,0,0,0,0,0,0,0,0,0,0,0,0,0,0,0,0,0,0,0,0,0,0,0,0,0,0,0,0,0,0,0,0,0,0,0,0,0,0,0,0,0,0,0,0,0,0,0,0,0,0,0,0,0,0,0,0,0,0,0,0,0,0,0,0,0,0,0,0,0,0,0,0,0,0,0,0,0,0,0,0,0,0,0,0,0,0,0,0,0,0,0,0,0,0,0,0,0,0,0,0,0,0,0,0,0,0,0,0,0,0,0,0,0,0,0,0,0,0,0,0,0,0,0,0,0,0,0,0,0,0,0,0,0,0,0,0,0,0,0,0,0,0,0,0,0,0,0,0,0,0,0,0,0,0,0,0,0,0,0,0,0,0,0,0,0,0,0,0,0,0,0,0,0,0,0,0,0,0,0,0,0,0,0,0,0,0,0,0,0,0,0,0,0,0,0,0,0,0,0,0,0,0,0,0,0,0,0,0,0,0,0,0,0,0,0,0,0,0,0,0,0,0,0,0,0,0,0,0,0,0,0,0,0,0,0,0,0,0,0,0,0,0,0,0,0,0,0,0,0,0,0,0,0,0,0,0,0,0,0,0,0,0,0,0,0,0,0,0,0,0,0,0,0,0,0,0,0,0,0,0,0,0,0,0,0,0,0,0,0,0,0,0,0,0,0,0,0,0,0,0,0,0,0,0,0,0,0,0,0,0,0,0,0,0,0,0,0,0,0,0,0,0,0,0,0,0,0,0,0,0,0,0,0,0,0,0,0,0,0,0,0,0,0,0,0,0,0,0,0,0,0,0,0,0,0,0,0,0,0,0,0,0,0,0,0,0,0,0,0,0,0,0,0,0,0,0,0,0,0,0,0,0,0,0,0,0,0,0,0,0,0,0,0,0,0,0,0,0,0,0,0,0,0,0,0,9328,9329,9330,9336,9342,9348,9354,9360,9366,9372,9373,0,0,0,0,0,0,0,0,0,0,0,0,0,0,0,0,0,0,0,0,0,0,0,0,0,0,0,0,0,0,0,0,0,0,0,0,0,0,0,0,0,0,0,0,0,0,0,0,0,0,0,0,0,0,0,0,0,0,0,0,0,0,0,0,0,0,0,0,0,0,0,0,0,0,0,0,0,0,0,0,0,0,0,0,0,0,0,0,0,0,0,0,0,0,0,0,0,0,0,0,0,0,0,0,0,0,0,0,0,0,0,0,0,0,0,0,0,9328,9329,9330,9336,9342,9348,9354,9360,9366,9372,9373,0,0,0,0,0,0,0,0,0,0,0,0,0,0,0,0,0,0,0,0,0,0,0,0,0,0,0,0,0,0,0,0,0,0,0,0,0,0,0,0,0,0,0,0,0,0,0,0,0,0,0,0,0,0,0,0,0,0,0,0,0,0,0,0,0,0,0,0,0,0,0,0,0,0,0,0,0,0,0,0,0,0,0,0,0,0,0,0,0,0,0,0,0,0,0,0,0,0,0,0,0,0,0,0,0,0,0,0,0,0,0,0,0,0,0,0,0,9405,9406,9407,9413,9419,9425,9431,9437,9443,9444,9445,0,0,0,0,0,0,0,0,0,0,0,0,0,0,0,0,0,0,0,0,0,0,0,0,0,0,0,0,0,0,0,0,0,0,0,0,0,0,0,0,0,0,0,0,0,0,0,0,0,0,0,0,0,0,0,0,0,0,0,0,0,0,0,0,0,0,0,0,0,0,0,0,0,0,0,0,0,0,0,0,0,0,0,0,0,0,0,0,0,0,0,0,0,0,0,0,0,0,0,0,0,0,0,0,0,0,0,0,0,0,0,0,0,0,0,0,0,9405,9406,9407,9413,9419,9425,9431,9437,9443,9444,9445,0,0,0,0,0,0,0,0,0,0,0,0,0,0,0,0,0,0,0,0,0,0,0,0,0,0,0,0,0,0,0,0,0,0,0,0,0,0,0,0,0,0,0,0,0,0,0,0,0,0,0,0,0,0,0,0,0,0,0,0,0,0,0,0,0,0,0,0,0,0,0,0,0,0,0,0,0,0,0,0,0,0,0,0,0,0,0,0,0,0,0,0,0,0,0,0,0,0,0,0,0,0,0,0,0,0,0,0,0,0,0,0,0,0,0,0,0,9328,9329,9330,9336,9342,9348,9354,9360,9366,9372,9373,0,0,0,0,0,0,0,0,0,0,0,0,0,0,0,0,0,0,0,0,0,0,0,0,0,0,0,0,0,0,0,0,0,0,0,0,0,0,0,0,0,0,0,0,0,0,0,0,0,0,0,0,0,0,0,0,0,0,0,0,0,0,0,0,0,0,0,0,0,0,0,0,0,0,0,0,0,0,0,0,0,0,0,0,0,0,0,0,0,0,0,0,0,0,0,0,0,0,0,0,0,0,0,0,0,0,0,0,0,0,0,0,0,0,0,0,0,9328,9329,9330,9336,9342,9348,9354,9360,9366,9372,9373,0,0,0,0,0,0,0,0,0,0,0,0,0,0,0,0,0,0,0,0,0,0,0,0,0,0,0,0,0,0,0,0,0,0,0,0,0,0,0,0,0,0,0,0,0,0,0,0,0,0,0,0,0,0,0,0,0,0,0,0,0,0,0,0,0,0,0,0,0,0,0,0,0,0,0,0,0,0,0,0,0,0,0,0,0,0,0,0,0,0,0,0,0,0,0,0,0,0,0,0,0,0,0,0,0,0,0,0,0,0,0,0,0,0,0,0,0,9405,9406,9407,9413,9419,9425,9431,9437,9443,9444,9445,0,0,0,0,0,0,0,0,0,0,0,0,0,0,0,0,0,0,0,0,0,0,0,0,0,0,0,0,0,0,0,0,0,0,0,0,0,0,0,0,0,0,0,0,0,0,0,0,0,0,0,0,0,0,0,0,0,0,0,0,0,0,0,0,0,0,0,0,0,0,0,0,0,0,0,0,0,0,0,0,0,0,0,0,0,0,0,0,0,0,0,0,0,0,0,0,0,0,0,0,0,0,0,0,0,0,0,0,0,0,0,0,0,0,0,0,0,9405,9406,9407,9413,9419,9425,9431,9437,9443,9444,9445,0,0,0,0,0,0,0,0,0,0,0,0,0,0,0,0,0,0,0,0,0,0,0,0,0,0,0,0,0,0,0,0,0,0,0,0,0,0,0,0,0,0,0,0,0,0,0,0,0,0,0,0,0,0,0,0,0,0,0,0,0,0,0,0,0,0,0,0,0,0,0,0,0,0,0,0,0,0,0,0,0,0,0,0,0,0,0,0,0,0,0,0,0,0,0,0,0,0,0,0,0,0,0,0,0,0,0,0,0,0,0,0,0,0,0,0,0,9328,9329,9330,9336,9342,9348,9354,9360,9366,9372,9373,0,0,0,0,0,0,0,0,0,0,0,0,0,0,0,0,0,0,0,0,0,0,0,0,0,0,0,0,0,0,0,0,0,0,0,0,0,0,0,0,0,0,0,0,0,0,0,0,0,0,0,0,0,0,0,0,0,0,0,0,0,0,0,0,0,0,0,0,0,0,0,0,0,0,0,0,0,0,0,0,0,0,0,0,0,0,0,0,0,0,0,0,0,0,0,0,0,0,0,0,0,0,0,0,0,0,0,0,0,0,0,0,0,0,0,0,0,9328,9329,9330,9336,9342,9348,9354,9360,9366,9372,9373,0,0,0,0,0,0,0,0,0,0,0,0,0,0,0,0,0,0,0,0,0,0,0,0,0,0,0,0,0,0,0,0,0,0,0,0,0,0,0,0,0,0,0,0,0,0,0,0,0,0,0,0,0,0,0,0,0,0,0,0,0,0,0,0,0,0,0,0,0,0,0,0,0,0,0,0,0,0,0,0,0,0,0,0,0,0,0,0,0,0,0,0,0,0,0,0,0,0,0,0,0,0,0,0,0,0,0,0,0,0,0,0,0,0,0,0,0,9405,9406,9407,9413,9419,9425,9431,9437,9443,9444,9445,0,0,0,0,0,0,0,0,0,0,0,0,0,0,0,0,0,0,0,0,0,0,0,0,0,0,0,0,0,0,0,0,0,0,0,0,0,0,0,0,0,0,0,0,0,0,0,0,0,0,0,0,0,0,0,0,0,0,0,0,0,0,0,0,0,0,0,0,0,0,0,0,0,0,0,0,0,0,0,0,0,0,0,0,0,0,0,0,0,0,0,0,0,0,0,0,0,0,0,0,0,0,0,0,0,0,0,0,0,0,0,0,0,0,0,0,0,9405,9406,9407,9413,9419,9425,9431,9437,9443,9444,9445,0,0,0,0,0,0,0,0,0,0,0,0,0,0,0,0,0,0,0,0,0,0,0,0,0,0,0,0,0,0,0,0,0,0,0,0,0,0,0,0,0,0,0,0,0,0,0,0,0,0,0,0,0,0,0,0,0,0,0,0,0,0,0,0,0,0,0,0,0,0,0,0,0,0,0,0,0,0,0,0,0,0,0,0,0,0,0,0,0,0,0,0,0,0,0,0,0,0,0,0,0,0,0,0,0,0,0,0,0,0,0,0,0,0,0,0,0,9328,9329,9330,9336,9342,9348,9354,9360,9366,9372,9373,0,0,0,0,0,0,0,0,0,0,0,0,0,0,0,0,0,0,0,0,0,0,0,0,0,0,0,0,0,0,0,0,0,0,0,0,0,0,0,0,0,0,0,0,0,0,0,0,0,0,0,0,0,0,0,0,0,0,0,0,0,0,0,0,0,0,0,0,0,0,0,0,0,0,0,0,0,0,0,0,0,0,0,0,0,0,0,0,0,0,0,0,0,0,0,0,0,0,0,0,0,0,0,0,0,0,0,0,0,0,0,0,0,0,0,0,0,9328,9329,9330,9336,9342,9348,9354,9360,9366,9372,9373,0,0,0,0,0,0,0,0,0,0,0,0,0,0,0,0,0,0,0,0,0,0,0,0,0,0,0,0,0,0,0,0,0,0,0,0,0,0,0,0,0,0,0,0,0,0,0,0,0,0,0,0,0,0,0,0,0,0,0,0,0,0,0,0,0,0,0,0,0,0,0,0,0,0,0,0,0,0,0,0,0,0,0,0,0,0,0,0,0,0,0,0,0,0,0,0,0,0,0,0,0,0,0,0,0,0,0,0,0,0,0,0,0,0,0,0,0,9405,9406,9407,9413,9419,9425,9431,9437,9443,9444,9445,0,0,0,0,0,0,0,0,0,0,0,0,0,0,0,0,0,0,0,0,0,0,0,0,0,0,0,0,0,0,0,0,0,0,0,0,0,0,0,0,0,0,0,0,0,0,0,0,0,0,0,0,0,0,0,0,0,0,0,0,0,0,0,0,0,0,0,0,0,0,0,0,0,0,0,0,0,0,0,0,0,0,0,0,0,0,0,0,0,0,0,0,0,0,0,0,0,0,0,0,0,0,0,0,0,0,0,0,0,0,0,0,0,0,0,0,0,9405,9406,9407,9413,9419,9425,9431,9437,9443,9444,9445,0,0,0,0,0,0,0,0,0,0,0,0,0,0,0,0,0,0,0,0,0,0,0,0,0,0,0,0,0,0,0,0,0,0,0,0,0,0,0,0,0,0,0,0,0,0,0,0,0,0,0,0,0,0,0,0,0,0,0,0,0,0,0,0,0,0,0,0,0,0,0,0,0,0,0,0,0,0,0,0,0,0,0,0,0,0,0,0,0,0,0,0,0,0,0,0,0,0,0,0,0,0,0,0,0,0,0,0,0,0,0,0,0,0,0,0,0,0,0,0,0,0,0,0,0,0,0,0,0,0,0,0,0,0,0,0,0,0,0,0,0,0,0,0,0,0,0,0,0,0,0,0,0,0,0,0,0,0,0,0,0,0,0,0,0,0,0,0,0,0,0,0,0,0,0,0,0,0,0,0,0,0,0,0,0,0,0,0,0,0,0,0,0,0,0,0,0,0,0,0,0,0,0,0,0,0,0,0,0,0,0,0,0,0,0,0,0,0,0,0,0,0,0,0,0,0,0,0,0,0,0,0,0,0,0,0,0,0,0,0,0,0,0,0,0,0,0,0,0,0,0,0,0,0,0,0,0,0,0,0,0,0,0,0,0,0,0,0,0,0,0,0,0,0,0,0,0,0,0,0,0,0,0,0,0,0,0,0,0,0,0,0,0,0,0,0,0,0,0,0,0,0,0,0,0,0,0,0,0,0,0,0,0,0,0,0,0,0,0,0,0,0,0,0,0,0,0,0,0,0,0,0,0,0,0,0,0,0,0,0,0,0,0,0,0,0,0,0,0,0,0,0,0,0,0,0,0,0,0,0,0,0,0,0,0,0,0,0,0,0,0,0,0,0,0,0,0,0,0,0,0,0,0,0,0,0,0,0,0,0,0,0,0,0,0,0,0,0,0,0,0,0,0,0,0,0,0,0,0,0,0,0,0,0,0,0,0,0,0,0,0,0,0,0,0,0,0,0,0,0,0,0,0,0,0,0,0,0,0,0,0,0,0,0,0,0,0,0,0,0,0,0,0,0,0,0,0,0,0,0,0,0,0,0,0,0,0,0,0,0,0,0,0,0,0,0,0,0,0,0,0,0,0,0,0,0,0,0,0,0,0,0,0,0,0,0,0,0,0,0,0,0,0,0,0,0,0,0,0,0,0,0,0,0,0,0,0,0,0,0,0,0,0,0,0,0,0,0,0,0,0,0,0,0,0,0,0,0,0,0,0,0,0,0,0,0,0,0,0,0,0,0,0,0,0,0,0,0,0,0,0,0,0,0,0,0,0,0,0,0,0,0,0,0,0,0,0,0,0,0,0,0,0,0,0,0,0,0,0,0,0,0,0,0,0,0,0,0,0,0,0,0,0,0,0,0,0,0,0,0,0,0,0,0,0,0,0,0,0,0,0,0,0,0,0,0,0,0,0,0,0,0,0,0,0,0,0,0,0,0,0,0,0,0,0,0,0,0,0,0,0,0,0,0,0,0,0,0,0,0,0,0,0,0,0,0,0,0,0,0,0,0,0,0,0,0,0,0,0,0,0,0,0,0,0,0,0,0,0,0,0,0,0,0,0,0,0,0,0,0,0,0,0,0,0,0,0,0,0,0,0,0,0,0,0,0,0,0,0,0,0,0,0,0,0,0,0,0,0,0,0,0,0,0,0,0,0,0,0,0,0,0,0,0,0,0,0,0,0,0,0,0,0,0,0,0,0,0,0,0,0,0,0,0,0,0,0,0,0,0,0,0,0,0,0,0,0,0,0,0,0,0,0,0,0,0,0,0,0,0,0,0,0,0,0,0,0,0,0,0,0,0,0,0,0,0,0,0,0,0,0,0,0,0,0,0,0,0,0,0,0,0,0,0,0,0,0,0,0,0,0,0,0,0,0,0,0,0,0,0,0,0,0,0,0,0,0,0,0,0,0,0,0,0,0,0,0,0,0,0,0,0,0,0,0,0,0,0,0,0,0,0,0,0,0,0,0,0,0,0,0,0,0,0,0,0,0,0,0,0,0,0,0,0,0,0,0,0,0,0,0,0,0,0,0,0,0,0,0,0,0,0,0,0,0,0,0,0,0,0,0,0,0,0,0,0,0,0,0,0,0,0,0,0,0,0,0,0,0,0,0,0,0,0,0,0,0,0,0,0,0,0,0,0,0,0,0,0,0,0,0,0,0,0,0,0,0,0,0,0,0,0,0,0,0,0,0,0,0,0,0,0,0,0,0,0,0,0,0,0,0,0,0,0,0,0,0,0,0,0,0,0,0,0,0,0,0,0,0,0,0,0,0,0,0,0,0,0,0,0,0,0,0,0,0,0,0,0,0,0,0,0,0,0,0,0,0,0,0,0,0,0,0,0,0,0,0,0,0,0,0,0,0,0,0,0,0,0,0,0,0,0,0,0,0,0,0,0,0,0,0,0,0,0,0,0,0,0,0,0,0,0,0,0,0,0,0,0,0,0,0,0,0,0,0,0,0,0,0,0,0,0,0,0,0,0,0,0,0,0,0,0,0,0,0,0,0,0,0,0,0,0,0,0,0,0,0,0,0,0,0,0,0,0,0,0,0,0,0,0,0,0,0,0,0,0,0,0,0,0,0,0,0,0,0,0,0,0,0,0,0,0,0,0,0,0,0,0,0,0,0,0,0,0,0,0,0,0,0,0,0,0,0,0,0,0,0,0,0,0,0,0,0,0,0,0,0,0,0,0,0,0,0,0,0,0,0,0,0,0,0,0,0,0,0,0,0,0,0,0,0,0,0,0,0,0,0,0,0,0,0,0,0,0,0,0,0,0,0,0,0,0,0,0,0,0,0,0,0,0,0,0,0,0,0,0,0,0,0,0,0,0,0,0,0,0,0,0,0,0,0,0,0,0,0,0,0,0,0,0,0,0,0,0,0,0,0,0,0,0,0,0,0,0,0,0,0,0,0,0,0,0,0,0,0,0,0,0,0,0,0,0,0,0,0,0,0,0,0,0,0,0,0,0,0,0,0,0,0,0,0,0,0,0,0,0,0,0,0,0,0,0,0,0,0,0,0,0,0,0,0,0,0,0,0,0,0,0,0,0,0,0,0,0,0,0,0,0,0,0,0,0,0,0,0,0,0,0,0,0,0,0,0,0,0,0,0,0,0,0,0,0,0,0,0,0,0,0,0,0,0,0,0,0,0,0,0,0,0,0,0,0,0,0,0,0,0,0,0,0,0,0,0,0,0,0,0,0,0,0,0,0,0,0,0,0,0,0,0,0,0,0,0,0,0,0,0,0,0,0,0,0,0,0,0,0,0,0,0,0,0,0,0,0,0,0,0,0,0,0,0,0,0,0,0,0,0,0,0,0,0,0,0,0,0,0,0,0,0,0,0,0,0,0,0,0,0,0,0,0,0,0,0,0,0,0,0,0,0,0,0,0,0,0,0,0,0,0,0,0,0,0,0,0,0,0,0,0,0,0,0,0,0,0,0,0,0,0,0,0,0,0,0,0,0,0,0,0,0,0,0,0,0,0,0,0,0,0,0,0,0,0,0,0,0,0,0,0,0,0,0,0,0,0,0,0,0,0,0,0,0,0,0,0,0,0,0,0,0,0,0,0,0,0,0,0,0,0,0,0,0,0,0,0,0,0,0,0,0,0,0,0,0,0,0,0,0,0,0,0,0,0,0,0,0,0,0,0,0,0,0,0,0,0,0,0,0,0,0,0,0,0,0,0,0,0,0,0,0,0,0,0,0,0,0,0,0,0,0,0,0,0,0,0,0,0,0,0,0,0,0,0,0,0,0,0,0,0,0,0,0,0,0,0,0,0,0,0,0,0,0,0,0,0,0,0,0,0,0,0,0,0,0,0,0,0,0,0,0,0,0,0,0,0,0,0,0,0,0,0,0,0,0,0,0,0,0,0,0,0,0,0,0,0,0,0,0,0,0,0,0,0,0,0,0,0,0,0,0,0,0,0,0,0,0,0,0,0,0,0,0,0,0,0,0,0,0,0,0,0,0,0,0,0,0,0,0,0,0,0,0,0,0,0,0,0,0,0,0,0,0,0,0,0,0,0,0,0,0,0,0,0,0,0,0,0,0,0,0,0,0,0,0,0,0,0,0,0,0,0,0,0,0,0,0,0,0,0,0,0,0,0,0,0,0,0,0,0,0,0,0,0,0,0,0,0,0,0,0,0,0,0,0,0,0,0,0,0,0,0,0,0,0,0,0,0,0,0,0,0,0,0,0,0,0,0,0,0,0,0,0,0,0,0,0,0,0,0,0,0,0,0,0,0,0,0,0,0,0,0,0,0,0,0,0,0,0,0,0,0,0,0,0,0,0,0,0,0,0,0,0,0,0,0,0,0,0,0,0,0,0,0,0,0,0,0,0,0,0,0,0,0,0,0,0,0,0,0,0,0,0,0,0,0,0,0,0,0,0,0,0,0,0,0,0,0,0,0,0,0,0,0,0,0,0,0,0,0,0,0,0,0,0,0,0,0,0,0,0,0,0,0,0,0,0,0,0,0,0,0,0,0,0,0,0,0,0,0,0,0,0,0,0,0,0,0,0,0,0,0,0,0,0,0,0,0,0,0,0,0,0,0,0,0,0,0,0,0,0,0,0,0,0,0,0,0,0,0,0,0,0,0,0,0,0,0,0,0,0,0,0,0,0,0,0,0,0,0,0,0,0,0,0,0,0,0,0,0,0,0,0,0,0,0,0,0,0,0,0,0,0,0,0,0,0,0,0,0,0,0,0,0,0,0,0,0,0,0,0,0,0,0,0,0,0,0,0,0,0,0,0,0,0,0,0,0,0,0,0,0,0,0,0,0,0,0,0,0,0,0,0,0,0,0,0,0,0,0,0,0,0,0,0,0,0,0,0,0,0,0,0,0,0,0,0,0,0,0,0,0,0,0,0,0,0,0,0,0,0,0,0,0,0,0,0,0,0,0,0,0,0,0,0,0,0,0,0,0,0,0,0,0,0,0,0,0,0,0,0,0,0,0,0,0,0,0,0,0,0,0,0,0,0,0,0,0,0,0,0,0,0,0,0,0,0,0,0,0,0,0,0,0,0,0,0,0,0,0,0,0,0,0,0,0,0,0,0,0,0,0,0,0,0,0,0,0,0,0,0,0,0,0,0,0,0,0,0,0,0,0,0,0,0,0,0,0,0,0,0,0,0,0,0,0,0,0,0,0,0,0,0,0,0,0,0,0,0,0,0,0,0,0,0,0,0,0,0,0,0,0,0,0,0,0,0,0,0,0,0,0,0,0,0,0,0,0,0,0,0,0,0,0,0,0,0,0,0,0,0,0,0,0,0,0,0,0,0,0,0,0,0,0,0,0,0,0,0,0,0,0,0,0,0,0,0,0,0,0,0,0,0,0,0,0,0,0,0,0,0,0,0,0,0,0,0,0,0,0,0,0,0,0,0,0,0,0,0,0,0,0,0,0,0,0,0,0,0,0,0,0,0,0,0,0,0,0,0,0,0,0,0,0,0,0,0,0,0,0,0,0,0,0,0,0,0,0,0,0,0,0,0,0,0,0,0,0,0,0,0,0,0,0,0,0,0,0,0,0,0,0,0,0,0,0,0,0,0,0,0,0,0,0,0,0,0,0,0,0,0,0,0,0,0,0,0,0,0,0,0,0,0,0,0,0,0,0,0,0,0,0,0,0,0,0,0,0,0,0,0,0,0,0,0,0,0,0,0,0,0,0,0,0,0,0,0,0,0,0,0,0,0,0,0,0,0,0,0,0,0,0,0,0,0,0,0,0,0,0,0,0,0,0,0,0,0,0,0,0,0,0,0,0,0,0,0,0,0,0,0,0,0,0,0,0,0,0,0,0,0,0,0,0,0,0,0,0,0,0,0,0,0,0,0,0,0,0,0,0,0,0,0,0,0,0,0,0,0,0,0,0,0,0,0,0,0,0,0,0,0,0,0,0,0,0,0,0,0,0,0,0,0,0,0,0,0,0,0,0,0,0,0,0,0,0,0,0,0,0,0,0,0,0,0,0,0,0,0,0,0,0,0,0,0,0,0,0,0,0,0,0,0,0,0,0,0,0,0,0,0,0,0,0,0,0,0,0,0,0,0,0,0,0,0,0,0,0,0,0,0,0,0,0,0,0,0,0,0,0,0,0,0,0,0,0,0,0,0,0,0,0,0,0,0,0,0,0,0,0,0,0,0,0,0,0,0,0,0,0,0,0,0,0,0,0,0,0,0,0,0,0,0,0,0,0,0,0,0,0,0,0,0,0,0,0,0,0,0,0,0,0,0,0,0,0,0,0,0,0,0,0,0,0,0,0,0,0,0,0,0,0,0,0,0,0,0,0,0,0,0,0,0,0,0,0,0,0,0,0,0,0,0,0,0,0,0,0,0,0,0,0,0,0,0,0,0,0,0,0,0,0,0,0,0,0,0,0,0,0,0,0,0,0,0,0,0,0,0,0,0,0,0,0,0,0,0,0,0,0,0,0,0,0,0,0,0,0,0,0,0,0,0,0,0,0,0,0,0,0,0,0,0,0,0,0,0,0,0,0,0,0,0,0,0,0,0,0,0,0,0,0,0,0,0,0,0,0,0,0,0,0,0,0,0,0,0,0,0,0,0,0,0,0,0,0,0,0,0,0,0,0,0,0,0,0,0,0,0,0,0,0,0,0,0,0,0,0,0,0,0,0,0,0,0,0,0,0,0,0,0,0,0,0,0,0,0,0,0,0,0,0,0,0,0,0,0,0,0,0,0,0,0,0,0,0,0,0,0,0,0,0,0,0,0,0,0,0,0,0,0,0,0,0,0,0,0,0,0,0,0,0,0,0,0,0,0,0,0,0,0,0,0,0,0,0,0,0,0,0,0,0,0,0,0,0,0,0,0,0,0,0,0,0,0,0,0,0,0,0,0,0,0,0,0,0,0,0,0,0,0,0,0,0,0,0,0,0,0,0,0,0,0,0,0,0,0,0,0,0,0,0,0,0,0,0,0,0,0,0,0,0,0,0,0,0,0,0,0,0,0,0,0,0,0,0,0,0,0,0,0,0,0,0,0,0,0,0,0,0,0,0,0,0,0,0,0,0,0,0,0,0,0,0,0,0,0,0,0,0,0,0,0,0,0,0,0,0,0,0,0,0,0,0,0,0,0,0,0,0,0,0,0,0,0,0,0,0,0,0,0,0,0,0,0,0,0,0,0,0,0,0,0,0,0,0,0,0,0,0,0,0,0,0,0,0,0,0,0,0,0,0,0,0,0,0,0,0,0,0,0,0,0,0,0,0,0,0,0,0,0,0,0,0,0,0,0,0,0,0,0,0,0,0,0,0,0,0,0,0,0,0,0,0,0,0,0,0,0,0,0,0,0,0,0,0,0,0,0,0,0,0,0,0,0,0,0,0,0,0,0,0,0,0,0,0,0,0,0,0,0,0,0,0,0,0,0,0,0,0,0,0,0,0,0,0,0,0,0,0,0,0,0,0,0,0,0,0,0,0,0,0,0,0,0,0,0,0,0,0,0,0,0,0,0,0,0,0,0,0,0,0,0,0,0,0,0,0,0,0,0,0,0,0,0,0,0,0,0,0,0,0,0,0,0,0,0,0,0,0,0,0,0,0,0,0,0,0,0,0,0,0,0,0,0,0,0,0,0,0,0,0,0,0,0,0,0,0,0,0,0,0,0,0,0,0,0,0,0,0,0,0,0,0,0,0,0,0,0,0,0,0,0,0,0,0,0,0,0,0,0,0,0,0,0,0,0,0,0,0,0,0,0,0,0,0,0,0,0,0,0,0,0,0,0,0,0,0,0,0,0,0,0,0,0,0,0,0,0,0,0,0,0,0,0,0,0,0,0,0,0,0,0,0,0,0,0,0,0,0,0,0,0,0,0,0,0,0,0,0,0,0,0,0,0,0,0,0,0,0,0,0,0,0,0,0,0,0,0,0,0,0,0,0,0,0,0,0,0,0,0,0,0,0,0,0,0,0,0,0,0,0,0,0,0,0,0,0,0,0,0,0,0,0,0,0,0,0,0,0,0,0,0,0,0,0,0,0,0,0,0,0,0,0,0,0,0,0,0,0,0,0,0,0,0,0,0,0,0,0,0,0,0,0,0,0,0,0,0,0,0,0,0,0,0,0,0,0,0,0,0,0,0,0,0,0,0,0,0,0,0,0,0,0,0,0,0,0,0,0,0,0,0,0,0,0,0,0,0,0,0,0,0,0,0,0,0,0,0,0,0,0,0,0,0,0,0,0,0,0,0,0,0,0,0,0,0,0,0,0,0,0,0,0,0,0,0,0,0,0,0,0,0,0,0,0,0,0,0,0,0,0,0,0,0,0,0,0,0,0,0,0,0,0,0,0,0,0,0,0,0,0,0,0,0,0,0,0,0,0,0,0,0,0,0,0,0,0,0,0,0,0,0,0,0,0,0,0,0,0,0,0,0,0,0,0,0,0,0,0,0,0,0,0,0,0,0,0,0,0,0,0,0,0,0,0,0,0,0,0,0,0,0,0,0,0,0,0,0,0,0,0,0,0,0,0,0,0,0,0,0,0,0,0,0,0,0,0,0,0,0,0,0,0,0,0,0,0,0,0,0,0,0,0,0,0,0,0,0,0,0,0,0,0,0,0,0,0,0,0,0,0,0,0,0,0,0,0,0,0,0,0,0,0,0,0,0,0,0,0,0,0,0,0,0,0,0,0,0,0,0,0,0,0,0,0,0,0,0,0,0,0,0,0,0,0,0,0,0,0,0,0,0,0,0,0,0,0,0,0,0,0,0,0,0,0,0,0,0,0,0,0,0,0,0,0,0,0,0,0,0,0,0,0,0,0,0,0,0,0,0,0,0,0,0,0,0,0,0,0,0,0,0,0,0,0,0,0,0,0,0,0,0,0,0,0,0,0,0,0,0,0,0,0,0,0,0,0,0,0,0,0,0,0,0,0,0,0,0,0,0,0,0,0,0,0,0,0,0,0,0,0,0,0,0,0,0,0,0,0,0,0,0,0,0,0,0,0,0,0,0,0,0,0,0,0,0,0,0,0,0,0,0,0,0,0,0,0,0,0,0,0,0,0,0,0,0,0,0,0,0,0,0,0,0,0,0,0,0,0,0,0,0,0,0,0,0,0,0,0,0,0,0,0,0,0,0,0,0,0,0,0,0,0,0,0,0,0,0,0,0,0,0,0,0,0,0,0,0,0,0,0,0,0,0,0,0,0,0,0,0,0,0,0,0,0,0,0,0,0,0,0,0,0,0,0,0,0,0,0,0,0,0,0,0,0,0,0,0,0,0,0,0,0,0,0,0,0,0,0,0,0,0,0,0,0,0,0,0,0,0,0,0,0,0,0,0,0,0,0,0,0,0,0,0,0,0,0,0,0,0,0,0,0,0,0,0,0,0,0,0,0,0,0,0,0,0,0,0,0,0,0,0,0,0,0,0,0,0,0,0,0,0,0,0,0,0,0,0,0,0,0,0,0,0,0,0,0,0,0,0,0,0,0,0,0,0,0,0,0,0,0,0,0,0,0,0,0,0,0,0,0,0,0,0,0,0,0,0,0,0,0,0,0,0,0,0,0,0,0,0,0,0,0,0,0,0,0,0,0,0,0,0,0,0,0,0,0,0,0,0,0,0,0,0,0,0,0,0,0,0,0,0,0,0,0,0,0,0,0,0,0,0,0,0,0,0,0,0,0,0,0,0,0,0,0,0,0,0,0,0,0,0,0,0,0,0,0,0,0,0,0,0,0,0,0,0,0,0,0,0,0,0,0,0,0,0,0,0,0,0,0,0,0,0,0,0,0,0,0,0,0,0,0,0,0,0,0,0,0,0,0,0,0,0,0,0,0,0,0,0,0,0,0,0,0,0,0,0,0,0,0,0,0,0,0,0,0,0,0,0,0,0,0,0,0,0,0,0,0,0,0,0,0,0,0,0,0,0,0,0,0,0,0,0,0,0,0,0,0,0,0,0,0,0,0,0,0,0,0,0,0,0,0,0,0,0,0,0,0,0,0,0,0,0,0,0,0,0,0,0,0,0,0,0,0,0,0,0,0,0,0,0,0,0,0,0,0,0,0,0,0,0,0,0,0,0,0,0,0,0,0,0,0,0,0,0,0,0,0,0,0,0,0,0,0,0,0,0,0,0,0,0,0,0,0,0,0,0,0,0,0,0,0,0,0,0,0,0,0,0,0,0,0,0,0,0,0,0,0,0,0,0,0,0,0,0,0,0,0,0,0,0,0,0,0,0,0,0,0,0,0,0,0,0,0,0,0,0,0,0,0,0,0,0,0,0,0,0,0,0,0,0,0,0,0,0,0,0,0,0,0,0,0,0,0,0,0,0,0,0,0,0,0,0,0,0,0,0,0,0,0,0,0,0,0,0,0,0,0,0,0,0,0,0,0,0,0,0,0,0,0,0,0,0,0,0,0,0,0,0,0,0,0,0,0,0,0,0,0,0,0,0,0,0,0,0,0,0,0,0,0,0,0,0,0,0,0,0,0,0,0,0,0,0,0,0,0,0,0,0,0,0,0,0,0,0,0,0,0,0,0,0,0,0,0,0,0,0,0,0,0,0,0,0,0,0,0,0,0,0,0,0,0,0,0,0,0,0,0,0,0,0,0,0,0,0,0,0,0,0,0,0,0,0,0,0,0,0,0,0,0,0,0,0,0,0,0,0,0,0,0,0,0,0,0,0,0,0,0,0,0,0,0,0,0,0,0,0,0,0,0,0,0,0,0,0,0,0,0,0,0,0,0,0,0,0,0,0,0,0,0,0,0,0,0,0,0,0,0,0,0,0,0,0,0,0,0,0,0,0,0,0,0,0,0,0,0,0,0,0,0,0,0,0,0,0,0,0,0,0,0,0,0,0,0,0,0,0,0,0,0,0,0,0,0,0,0,0,0,0,0,0,0,0,0,0,0,0,0,0,0,0,0,0,0,0,0,0,0,0,0,0,0,0,0,0,0,0,0,0,0,0,0,0,0,0,0,0,0,0,0,0,0,0,0,0,0,0,0,0,0,0,0,0,0,0,0,0,0,0,0,0,0,0,0,0,0,0,0,0,0,0,0,0,0,0,0,0,0,0,0,0,0,0,0,0,0,0,0,0,0,0,0,0,0,0,0,0,0,0,0,0,0,0,0,0,0,0,0,0,0,0,0,0,0,0,0,0,0,0,0,0,0,0,0,0,0,0,0,0,0,0,0,0,0,0,0,0,0,0,0,0,0,0,0,0,0,0,0,0,0,0,0,0,0,0,0,0,0,0,0,0,0,0,0,0,0,0,0,0,0,0,0,0,0,0,0,0,0,0,0,0,0,0,0,0,0,0,0,0,0,0,0,0,0,0,0,0,0,0,0,0,0,0,0,0,0,0,0,0,0,0,0,0,0,0,0,0,0,0,0,0,0,0,0,0,0,0,0,0,0,0,0,0,0,0,0,0,0,0,0,0,0,0,0,0,0,0,0,0,0,0,0,0,0,0,0,0,0,0,0,0,0,0,0,0,0,0,0,0,0,0,0,0,0,0,0,0,0,0,0,0,0,0,0,0,0,0,0,0,0,0,0,0,0,0,0,0,0,0,0,0,0,0,0,0,0,0,0,0,0,0,0,0,0,0,0,0,0,0,0,0,0,0,0,0,0,0,0,0,0,0,0,0,0,0,0,0,0,0,0,0,0,0,0,0,0,0,0,0,0,0,0,0,0,0,0,0,0,0,0,0,0,0,0,0,0,0,0,0,0,0,0,0,0,0,0,0,0,0,0,0,0,0,0,0,0,0,0,0,0,0,0,0,0,0,0,0,0,0,0,0,0,0,0,0,0,0,0,0,0,0,0,0,0,0,0,0,0,0,0,0,0,0,0,0,0,0,0,0,0,0,0,0,0,0,0,0,0,0,0,0,0,0,0,0,0,0,0,0,0,0,0,0,0,0,0,0,0,0,0,0,0,0,0,0,0,0,0,0,0,0,0,0,0,0,0,0,0,0,0,0,0,0,0,0,0,0,0,0,0,0,0,0,0,0,0,0,0,0,0,0,0,0,0,0,0,0,0,0,0,0,0,0,0,0,0,0,0,0,0,0,0,0,0,0,0,0,0,0,0,0,0,0,0,0,0,0,0,0,0,0,0,0,0,0,0,0,0,0,0,0,0,0,0,0,0,0,0,0,0,0,0,0,0,0,0,0,0,0,0,0,0,0,0,0,0,0,0,0,0,0,0,0,0,0,0,0,0,0,0,0,0,0,0,0,0,0,0,0,0,0,0,0,0,0,0,0,0,0,0,0,0,0,0,0,0,0,0,0,0,0,0,0,0,0,0,0,0,0,0,0,0,0,0,0,0,0,0,0,0,0,0,0,0,0,0,0,0,0,0,0,0,0,0,0,0,0,0,0,0,0,0,0,0,0,0,0,0,0,0,0,0,0,0,0,0,0,0,0,0,0,0,0,0,0,0,0,0,0,0,0,0,0,0,0,0,0,0,0,0,0,0,0,0,0,0,0,0,0,0,0,0,0,0,0,0,0,0,0,0,0,0,0,0,0,0,0,0,0,0,0,0,0,0,0,0,0,0,0,0,0,0,0,0,0,0,0,0,0,0,0,0,0,0,0,0,0,0,0,0,0,0,0,0,0,0,0,0,0,0,0,0,0,0,0,0,0,0,0,0,0,0,0,0,0,0,0,0,0,0,0,0,0,0,0,0,0,0,0,0,0,0,0,0,0,0,0,0,0,0,0,0,0,0,0,0,0,0,0,0,0,0,0,0,0,0,0,0,0,0,0,0,0,0,0,0,0,0,0,0,0,0,0,0,0,0,0,0,0,0,0,0,0,0,0,0,0,0,0,0,0,0,0,0,0,0,0,0,0,0,0,0,0,0,0,0,0,0,0,0,0,0,0,0,0,0,0,0,0,0,0,0,0,0,0,0,0,0,0,0,0,0,0,0,0,0,0,0,0,9328,9329,9330,9336,9342,9348,9354,9360,9366,9372,9373,0,0,0,0,0,0,0,0,0,0,0,0,0,0,0,0,0,0,0,0,0,0,0,0,0,0,0,0,0,0,0,0,0,0,0,0,0,0,0,0,0,0,0,0,0,0,0,0,0,0,0,0,0,0,0,0,0,0,0,0,0,0,0,0,0,0,0,0,0,0,0,0,0,0,0,0,0,0,0,0,0,0,0,0,0,0,0,0,0,0,0,0,0,0,0,0,0,0,0,0,0,0,0,0,0,0,0,0,0,0,0,0,0,0,0,0,0,9328,9329,9330,9336,9342,9348,9354,9360,9366,9372,9373,0,0,0,0,0,0,0,0,0,0,0,0,0,0,0,0,0,0,0,0,0,0,0,0,0,0,0,0,0,0,0,0,0,0,0,0,0,0,0,0,0,0,0,0,0,0,0,0,0,0,0,0,0,0,0,0,0,0,0,0,0,0,0,0,0,0,0,0,0,0,0,0,0,0,0,0,0,0,0,0,0,0,0,0,0,0,0,0,0,0,0,0,0,0,0,0,0,0,0,0,0,0,0,0,0,0,0,0,0,0,0,0,0,0,0,0,0,9405,9406,9407,9413,9419,9425,9431,9437,9443,9444,9445,0,0,0,0,0,0,0,0,0,0,0,0,0,0,0,0,0,0,0,0,0,0,0,0,0,0,0,0,0,0,0,0,0,0,0,0,0,0,0,0,0,0,0,0,0,0,0,0,0,0,0,0,0,0,0,0,0,0,0,0,0,0,0,0,0,0,0,0,0,0,0,0,0,0,0,0,0,0,0,0,0,0,0,0,0,0,0,0,0,0,0,0,0,0,0,0,0,0,0,0,0,0,0,0,0,0,0,0,0,0,0,0,0,0,0,0,0,9405,9406,9407,9413,9419,9425,9431,9437,9443,9444,9445,0,0,0,0,0,0,0,0,0,0,0,0,0,0,0,0,0,0,0,0,0,0,0,0,0,0,0,0,0,0,0,0,0,0,0,0,0,0,0,0,0,0,0,0,0,0,0,0,0,0,0,0,0,0,0,0,0,0,0,0,0,0,0,0,0,0,0,0,0,0,0,0,0,0,0,0,0,0,0,0,0,0,0,0,0,0,0,0,0,0,0,0,0,0,0,0,0,0,0,0,0,0,0,0,0,0,0,0,0,0,0,0,0,0,0,0,0,9328,9329,9330,9336,9342,9348,9354,9360,9366,9372,9373,0,0,0,0,0,0,0,0,0,0,0,0,0,0,0,0,0,0,0,0,0,0,0,0,0,0,0,0,0,0,0,0,0,0,0,0,0,0,0,0,0,0,0,0,0,0,0,0,0,0,0,0,0,0,0,0,0,0,0,0,0,0,0,0,0,0,0,0,0,0,0,0,0,0,0,0,0,0,0,0,0,0,0,0,0,0,0,0,0,0,0,0,0,0,0,0,0,0,0,0,0,0,0,0,0,0,0,0,0,0,0,0,0,0,0,0,0,9328,9329,9330,9336,9342,9348,9354,9360,9366,9372,9373,0,0,0,0,0,0,0,0,0,0,0,0,0,0,0,0,0,0,0,0,0,0,0,0,0,0,0,0,0,0,0,0,0,0,0,0,0,0,0,0,0,0,0,0,0,0,0,0,0,0,0,0,0,0,0,0,0,0]},{"id":4,"name":"eau_animee","type":"tilelayer","x":0,"y":0,"width":256,"height":192,"opacity":1,"visible":true,"data":[0,0,0,0,0,0,0,0,0,0,0,0,0,0,0,0,0,0,0,0,0,0,0,0,0,0,0,0,0,0,0,0,0,0,0,0,0,0,0,0,0,0,0,0,0,0,0,0,0,1073,1079,1085,1091,1097,1103,1109,1115,1121,1127,1133,1139,1145,1151,1157,1163,1169,1175,1181,1187,1193,1199,1205,1211,1217,0,0,0,0,0,0,0,0,0,0,0,0,0,0,0,0,0,0,0,0,0,0,0,0,0,0,0,0,0,0,0,0,0,0,0,0,0,0,0,0,0,0,0,0,0,0,0,0,0,0,0,0,0,0,0,0,0,0,0,0,0,0,0,0,0,0,0,0,0,0,0,0,0,0,0,0,0,0,0,0,0,0,0,0,0,0,0,0,0,0,0,0,0,0,0,0,0,0,0,0,0,0,0,1073,1079,1085,1091,1097,1103,1109,1115,1121,1127,1133,1139,1145,1151,1157,1163,1169,1175,1181,1187,1193,1199,1205,1211,1217,0,0,0,0,0,0,0,0,0,0,0,0,0,0,0,0,0,0,0,0,0,0,0,0,0,0,0,0,0,0,0,0,0,0,0,0,0,0,0,0,0,0,0,0,0,0,0,0,0,0,0,0,0,0,0,0,0,0,0,0,0,0,0,0,0,0,0,0,0,0,0,0,0,0,0,0,0,0,0,0,0,0,0,0,0,0,0,0,0,0,0,0,0,0,0,0,0,0,0,0,0,0,0,1073,1079,1085,1091,1097,1103,1109,1115,1121,1127,1133,1139,1145,1151,1157,1163,1169,1175,1181,1187,1193,1199,1205,1211,1217,0,0,0,0,0,0,0,0,0,0,0,0,0,0,0,0,0,0,0,0,0,0,0,0,0,0,0,0,0,0,0,0,0,0,0,0,0,0,0,0,0,0,0,0,0,0,0,0,0,0,0,0,0,0,0,0,0,0,0,0,0,0,0,0,0,0,0,0,0,0,0,0,0,0,0,0,0,0,0,0,0,0,0,0,0,0,0,0,0,0,0,0,0,0,0,0,0,0,0,0,0,0,0,1073,1079,1085,1091,1097,1103,1109,1115,1121,1127,1133,1139,1145,1151,1157,1163,1169,1175,1181,1187,1193,1199,1205,1211,1217,0,0,0,0,0,0,0,0,0,0,0,0,0,0,0,0,0,0,0,0,0,0,0,0,0,0,0,0,0,0,0,0,0,0,0,0,0,0,0,0,0,0,0,0,0,0,0,0,0,0,0,0,0,0,0,0,0,0,0,0,0,0,0,0,0,0,0,0,0,0,0,0,0,0,0,0,0,0,0,0,0,0,0,0,0,0,0,0,0,0,0,0,0,0,0,0,0,0,0,0,0,0,0,1073,1079,1085,1091,1097,1103,1109,1115,1121,1127,1133,1139,1145,1151,1157,1163,1169,1175,1181,1187,1193,1199,1205,1211,1217,0,0,0,0,0,0,0,0,0,0,0,0,0,0,0,0,0,0,0,0,0,0,0,0,0,0,0,0,0,0,0,0,0,0,0,0,0,0,0,0,0,0,0,0,0,0,0,0,0,0,0,0,0,0,0,0,0,0,0,0,0,0,0,0,0,0,0,0,0,0,0,0,0,0,0,0,0,0,0,0,0,0,0,0,0,0,0,0,0,0,0,0,0,0,0,0,0,0,0,0,0,0,0,1073,1079,1085,1091,1097,1103,1109,1115,1121,1127,1133,1139,1145,1151,1157,1163,1169,1175,1181,1187,1193,1199,1205,1211,1217,0,0,0,0,0,0,0,0,0,0,0,0,0,0,0,0,0,0,0,0,0,0,0,0,0,0,0,0,0,0,0,0,0,0,0,0,0,0,0,0,0,0,0,0,0,0,0,0,0,0,0,0,0,0,0,0,0,0,0,0,0,0,0,0,0,0,0,0,0,0,0,0,0,0,0,0,0,0,0,0,0,0,0,0,0,0,0,0,0,0,0,0,0,0,0,0,0,0,0,0,0,0,0,1073,1079,1085,1091,1097,1103,1109,1115,1121,1127,1133,1139,1145,1151,1157,1163,1169,1175,1181,1187,1193,1199,1205,1211,1217,0,0,0,0,0,0,0,0,0,0,0,0,0,0,0,0,0,0,0,0,0,0,0,0,0,0,0,0,0,0,0,0,0,0,0,0,0,0,0,0,0,0,0,0,0,0,0,0,0,0,0,0,0,0,0,0,0,0,0,0,0,0,0,0,0,0,0,0,0,0,0,0,0,0,0,0,0,0,0,0,0,0,0,0,0,0,0,0,0,0,0,0,0,0,0,0,0,0,0,0,0,0,0,1073,1079,1085,1091,1097,1103,1109,1115,1121,1127,1133,1139,1145,1151,1157,1163,1169,1175,1181,1187,1193,1199,1205,1211,1217,0,0,0,0,0,0,0,0,0,0,0,0,0,0,0,0,0,0,0,0,0,0,0,0,0,0,0,0,0,0,0,0,0,0,0,0,0,0,0,0,0,0,0,0,0,0,0,0,0,0,0,0,0,0,0,0,0,0,0,0,0,0,0,0,0,0,0,0,0,0,0,0,0,0,0,0,0,0,0,0,0,0,0,0,0,0,0,0,0,0,0,0,0,0,0,0,0,0,0,0,0,0,0,1073,1079,1085,1091,1097,1103,1109,1115,1121,1127,1133,1139,1145,1151,1157,1163,1169,1175,1181,1187,1193,1199,1205,1211,1217,0,0,0,0,0,0,0,0,0,0,0,0,0,0,0,0,0,0,0,0,0,0,0,0,0,0,0,0,0,0,0,0,0,0,0,0,0,0,0,0,0,0,0,0,0,0,0,0,0,0,0,0,0,0,0,0,0,0,0,0,0,0,0,0,0,0,0,0,0,0,0,0,0,0,0,0,0,0,0,0,0,0,0,0,0,0,0,0,0,0,0,0,0,0,0,0,0,0,0,0,0,0,0,1073,1079,1085,1091,1097,1103,1109,1115,1121,1127,1133,1139,1145,1151,1157,1163,1169,1175,1181,1187,1193,1199,1205,1211,1217,0,0,0,0,0,0,0,0,0,0,0,0,0,0,0,0,0,0,0,0,0,0,0,0,0,0,0,0,0,0,0,0,0,0,0,0,0,0,0,0,0,0,0,0,0,0,0,0,0,0,0,0,0,0,0,0,0,0,0,0,0,0,0,0,0,0,0,0,0,0,0,0,0,0,0,0,0,0,0,0,0,0,0,0,0,0,0,0,0,0,0,0,0,0,0,0,0,0,0,0,0,0,0,1073,1079,1085,1091,1097,1103,1109,1115,1121,1127,1133,1139,1145,1151,1157,1163,1169,1175,1181,1187,1193,1199,1205,1211,1217,0,0,0,0,0,0,0,0,0,0,0,0,0,0,0,0,0,0,0,0,0,0,0,0,0,0,0,0,0,0,0,0,0,0,0,0,0,0,0,0,0,0,0,0,0,0,0,0,0,0,0,0,0,0,0,0,0,0,0,0,0,0,0,0,0,0,0,0,0,0,0,0,0,0,0,0,0,0,0,0,0,0,0,0,0,0,0,0,0,0,0,0,0,0,0,0,0,0,0,0,0,0,0,1073,1079,1085,1091,1097,1103,1109,1115,1121,1127,1133,1139,1145,1151,1157,1163,1169,1175,1181,1187,1193,1199,1205,1211,1217,0,0,0,0,0,0,0,0,0,0,0,0,0,0,0,0,0,0,0,0,0,0,0,0,0,0,0,0,0,0,0,0,0,0,0,0,0,0,0,0,0,0,0,0,0,0,0,0,0,0,0,0,0,0,0,0,0,0,0,0,0,0,0,0,0,0,0,0,0,0,0,0,0,0,0,0,0,0,0,0,0,0,0,0,0,0,0,0,0,0,0,0,0,0,0,0,0,0,0,0,0,0,0,1073,1079,1085,1091,1097,1103,1109,1115,1121,1127,1133,1139,1145,1151,1157,1163,1169,1175,1181,1187,1193,1199,1205,1211,1217,0,0,0,0,0,0,0,0,0,0,0,0,0,0,0,0,0,0,0,0,0,0,0,0,0,0,0,0,0,0,0,0,0,0,0,0,0,0,0,0,0,0,0,0,0,0,0,0,0,0,0,0,0,0,0,0,0,0,0,0,0,0,0,0,0,0,0,0,0,0,0,0,0,0,0,0,0,0,0,0,0,0,0,0,0,0,0,0,0,0,0,0,0,0,0,0,0,0,0,0,0,0,0,1073,1079,1085,1091,1097,1103,1109,1115,1121,1127,1133,1139,1145,1151,1157,1163,1169,1175,1181,1187,1193,1199,1205,1211,1217,0,0,0,0,0,0,0,0,0,0,0,0,0,0,0,0,0,0,0,0,0,0,0,0,0,0,0,0,0,0,0,0,0,0,0,0,0,0,0,0,0,0,0,0,0,0,0,0,0,0,0,0,0,0,0,0,0,0,0,0,0,0,0,0,0,0,0,0,0,0,0,0,0,0,0,0,0,0,0,0,0,0,0,0,0,0,0,0,0,0,0,0,0,0,0,0,0,0,0,0,0,0,0,1073,1079,1085,1091,1097,1103,1109,1115,1121,1127,1133,1139,1145,1151,1157,1163,1169,1175,1181,1187,1193,1199,1205,1211,1217,0,0,0,0,0,0,0,0,0,0,0,0,0,0,0,0,0,0,0,0,0,0,0,0,0,0,0,0,0,0,0,0,0,0,0,0,0,0,0,0,0,0,0,0,0,0,0,0,0,0,0,0,0,0,0,0,0,0,0,0,0,0,0,0,0,0,0,0,0,0,0,0,0,0,0,0,0,0,0,0,0,0,0,0,0,0,0,0,0,0,0,0,0,0,0,0,0,0,0,0,0,0,0,1073,1079,1085,1091,1097,1103,1109,1115,1121,1127,1133,1139,1145,1151,1157,1163,1169,1175,1181,1187,1193,1199,1205,1211,1217,0,0,0,0,0,0,0,0,0,0,0,0,0,0,0,0,0,0,0,0,0,0,0,0,0,0,0,0,0,0,0,0,0,0,0,0,0,0,0,0,0,0,0,0,0,0,0,0,0,0,0,0,0,0,0,0,0,0,0,0,0,0,0,0,0,0,0,0,0,0,0,0,0,0,0,0,0,0,0,0,0,0,0,0,0,0,0,0,0,0,0,0,0,0,0,0,0,0,0,0,0,0,0,1073,1079,1085,1091,1097,1103,1109,1115,1121,1127,1133,1139,1145,1151,1157,1163,1169,1175,1181,1187,1193,1199,1205,1211,1217,0,0,0,0,0,0,0,0,0,0,0,0,0,0,0,0,0,0,0,0,0,0,0,0,0,0,0,0,0,0,0,0,0,0,0,0,0,0,0,0,0,0,0,0,0,0,0,0,0,0,0,0,0,0,0,0,0,0,0,0,0,0,0,0,0,0,0,0,0,0,0,0,0,0,0,0,0,0,0,0,0,0,0,0,0,0,0,0,0,0,0,0,0,0,0,0,0,0,0,0,0,0,0,1073,1079,1085,1091,1097,1103,1109,1115,1121,1127,1133,1139,1145,1151,1157,1163,1169,1175,1181,1187,1193,1199,1205,1211,1217,0,0,0,0,0,0,0,0,0,0,0,0,0,0,0,0,0,0,0,0,0,0,0,0,0,0,0,0,0,0,0,0,0,0,0,0,0,0,0,0,0,0,0,0,0,0,0,0,0,0,0,0,0,0,0,0,0,0,0,0,0,0,0,0,0,0,0,0,0,0,0,0,0,0,0,0,0,0,0,0,0,0,0,0,0,0,0,0,0,0,0,0,0,0,0,0,0,0,0,0,0,0,0,1073,1079,1085,1091,1097,1103,1109,1115,1121,1127,1133,1139,1145,1151,1157,1163,1169,1175,1181,1187,1193,1199,1205,1211,1217,0,0,0,0,0,0,0,0,0,0,0,0,0,0,0,0,0,0,0,0,0,0,0,0,0,0,0,0,0,0,0,0,0,0,0,0,0,0,0,0,0,0,0,0,0,0,0,0,0,0,0,0,0,0,0,0,0,0,0,0,0,0,0,0,0,0,0,0,0,0,0,0,0,0,0,0,0,0,0,0,0,0,0,0,0,0,0,0,0,0,0,0,0,0,0,0,0,0,0,0,0,0,0,1073,1079,1085,1091,1097,1103,1109,1115,1121,1127,1133,1139,1145,1151,1157,1163,1169,1175,1181,1187,1193,1199,1205,1211,1217,0,0,0,0,0,0,0,0,0,0,0,0,0,0,0,0,0,0,0,0,0,0,0,0,0,0,0,0,0,0,0,0,0,0,0,0,0,0,0,0,0,0,0,0,0,0,0,0,0,0,0,0,0,0,0,0,0,0,0,0,0,0,0,0,0,0,0,0,0,0,0,0,0,0,0,0,0,0,0,0,0,0,0,0,0,0,0,0,0,0,0,0,0,0,0,0,0,0,0,0,0,0,0,1073,1079,1085,1091,1097,1103,1109,1115,1121,1127,1133,1139,1145,1151,1157,1163,1169,1175,1181,1187,1193,1199,1205,1211,1217,0,0,0,0,0,0,0,0,0,0,0,0,0,0,0,0,0,0,0,0,0,0,0,0,0,0,0,0,0,0,0,0,0,0,0,0,0,0,0,0,0,0,0,0,0,0,0,0,0,0,0,0,0,0,0,0,0,0,0,0,0,0,0,0,0,0,0,0,0,0,0,0,0,0,0,0,0,0,0,0,0,0,0,0,0,0,0,0,0,0,0,0,0,0,0,0,0,0,0,0,0,0,0,1073,1079,1085,1091,1097,1103,1109,1115,1121,1127,1133,1139,1145,1151,1157,1163,1169,1175,1181,1187,1193,1199,1205,1211,1217,0,0,0,0,0,0,0,0,0,0,0,0,0,0,0,0,0,0,0,0,0,0,0,0,0,0,0,0,0,0,0,0,0,0,0,0,0,0,0,0,0,0,0,0,0,0,0,0,0,0,0,0,0,0,0,0,0,0,0,0,0,0,0,0,0,0,0,0,0,0,0,0,0,0,0,0,0,0,0,0,0,0,0,0,0,0,0,0,0,0,0,0,0,0,0,0,0,0,0,0,0,0,0,1073,1079,1085,1091,1097,1103,1109,1115,1121,1127,1133,1139,1145,1151,1157,1163,1169,1175,1181,1187,1193,1199,1205,1211,1217,0,0,0,0,0,0,0,0,0,0,0,0,0,0,0,0,0,0,0,0,0,0,0,0,0,0,0,0,0,0,0,0,0,0,0,0,0,0,0,0,0,0,0,0,0,0,0,0,0,0,0,0,0,0,0,0,0,0,0,0,0,0,0,0,0,0,0,0,0,0,0,0,0,0,0,0,0,0,0,0,0,0,0,0,0,0,0,0,0,0,0,0,0,0,0,0,0,0,0,0,0,0,0,1073,1079,1085,1091,1097,1103,1109,1115,1121,1127,1133,1139,1145,1151,1157,1163,1169,1175,1181,1187,1193,1199,1205,1211,1217,0,0,0,0,0,0,0,0,0,0,0,0,0,0,0,0,0,0,0,0,0,0,0,0,0,0,0,0,0,0,0,0,0,0,0,0,0,0,0,0,0,0,0,0,0,0,0,0,0,0,0,0,0,0,0,0,0,0,0,0,0,0,0,0,0,0,0,0,0,0,0,0,0,0,0,0,0,0,0,0,0,0,0,0,0,0,0,0,0,0,0,0,0,0,0,0,0,0,0,0,0,0,0,1073,1079,1085,1091,1097,1103,1109,1115,1121,1127,1133,1139,1145,1151,1157,1163,1169,1175,1181,1187,1193,1199,1205,1211,1217,0,0,0,0,0,0,0,0,0,0,0,0,0,0,0,0,0,0,0,0,0,0,0,0,0,0,0,0,0,0,0,0,0,0,0,0,0,0,0,0,0,0,0,0,0,0,0,0,0,0,0,0,0,0,0,0,0,0,0,0,0,0,0,0,0,0,0,0,0,0,0,0,0,0,0,0,0,0,0,0,0,0,0,0,0,0,0,0,0,0,0,0,0,0,0,0,0,0,0,0,0,0,0,1073,1079,1085,1091,1097,1103,1109,1115,1121,1127,1133,1139,1145,1151,1157,1163,1169,1175,1181,1187,1193,1199,1205,1211,1217,0,0,0,0,0,0,0,0,0,0,0,0,0,0,0,0,0,0,0,0,0,0,0,0,0,0,0,0,0,0,0,0,0,0,0,0,0,0,0,0,0,0,0,0,0,0,0,0,0,0,0,0,0,0,0,0,0,0,0,0,0,0,0,0,0,0,0,0,0,0,0,0,0,0,0,0,0,0,0,0,0,0,0,0,0,0,0,0,0,0,0,0,0,0,0,0,0,0,0,0,0,0,0,1073,1079,1085,1091,1097,1103,1109,1115,1121,1127,1133,1139,1145,1151,1157,1163,1169,1175,1181,1187,1193,1199,1205,1211,1217,0,0,0,0,0,0,0,0,0,0,0,0,0,0,0,0,0,0,0,0,0,0,0,0,0,0,0,0,0,0,0,0,0,0,0,0,0,0,0,0,0,0,0,0,0,0,0,0,0,0,0,0,0,0,0,0,0,0,0,0,0,0,0,0,0,0,0,0,0,0,0,0,0,0,0,0,0,0,0,0,0,0,0,0,0,0,0,0,0,0,0,0,0,0,0,0,0,0,0,0,0,0,0,1073,1079,1085,1091,1097,1103,1109,1115,1121,1127,1133,1139,1145,1151,1157,1163,1169,1175,1181,1187,1193,1199,1205,1211,1217,0,0,0,0,0,0,0,0,0,0,0,0,0,0,0,0,0,0,0,0,0,0,0,0,0,0,0,0,0,0,0,0,0,0,0,0,0,0,0,0,0,0,0,0,0,0,0,0,0,0,0,0,0,0,0,0,0,0,0,0,0,0,0,0,0,0,0,0,0,0,0,0,0,0,0,0,0,0,0,0,0,0,0,0,0,0,0,0,0,0,0,0,0,0,0,0,0,0,0,0,0,0,0,1073,1079,1085,1091,1097,1103,1109,1115,1121,1127,1133,1139,1145,1151,1157,1163,1169,1175,1181,1187,1193,1199,1205,1211,1217,0,0,0,0,0,0,0,0,0,0,0,0,0,0,0,0,0,0,0,0,0,0,0,0,0,0,0,0,0,0,0,0,0,0,0,0,0,0,0,0,0,0,0,0,0,0,0,0,0,0,0,0,0,0,0,0,0,0,0,0,0,0,0,0,0,0,0,0,0,0,0,0,0,0,0,0,0,0,0,0,0,0,0,0,0,0,0,0,0,0,0,0,0,0,0,0,0,0,0,0,0,0,0,1073,1079,1085,1091,1097,1103,1109,1115,1121,1127,1133,1139,1145,1151,1157,1163,1169,1175,1181,1187,1193,1199,1205,1211,1217,0,0,0,0,0,0,0,0,0,0,0,0,0,0,0,0,0,0,0,0,0,0,0,0,0,0,0,0,0,0,0,0,0,0,0,0,0,0,0,0,0,0,0,0,0,0,0,0,0,0,0,0,0,0,0,0,0,0,0,0,0,0,0,0,0,0,0,0,0,0,0,0,0,0,0,0,0,0,0,0,0,0,0,0,0,0,0,0,0,0,0,0,0,0,0,0,0,0,0,0,0,0,0,1073,1079,1085,1091,1097,1103,1109,1115,1121,1127,1133,1139,1145,1151,1157,1163,1169,1175,1181,1187,1193,1199,1205,1211,1217,0,0,0,0,0,0,0,0,0,0,0,0,0,0,0,0,0,0,0,0,0,0,0,0,0,0,0,0,0,0,0,0,0,0,0,0,0,0,0,0,0,0,0,0,0,0,0,0,0,0,0,0,0,0,0,0,0,0,0,0,0,0,0,0,0,0,0,0,0,0,0,0,0,0,0,0,0,0,0,0,0,0,0,0,0,0,0,0,0,0,0,0,0,0,0,0,0,0,0,0,0,0,0,1073,1079,1085,1091,1097,1103,1109,1115,1121,1127,1133,1139,1145,1151,1157,1163,1169,1175,1181,1187,1193,1199,1205,1211,1217,0,0,0,0,0,0,0,0,0,0,0,0,0,0,0,0,0,0,0,0,0,0,0,0,0,0,0,0,0,0,0,0,0,0,0,0,0,0,0,0,0,0,0,0,0,0,0,0,0,0,0,0,0,0,0,0,0,0,0,0,0,0,0,0,0,0,0,0,0,0,0,0,0,0,0,0,0,0,0,0,0,0,0,0,0,0,0,0,0,0,0,0,0,0,0,0,0,0,0,0,0,0,0,1073,1079,1085,1091,1097,1103,1109,1115,1121,1127,1133,1139,1145,1151,1157,1163,1169,1175,1181,1187,1193,1199,1205,1211,1217,0,0,0,0,0,0,0,0,0,0,0,0,0,0,0,0,0,0,0,0,0,0,0,0,0,0,0,0,0,0,0,0,0,0,0,0,0,0,0,0,0,0,0,0,0,0,0,0,0,0,0,0,0,0,0,0,0,0,0,0,0,0,0,0,0,0,0,0,0,0,0,0,0,0,0,0,0,0,0,0,0,0,0,0,0,0,0,0,0,0,0,0,0,0,0,0,0,0,0,0,0,0,0,1073,1079,1085,1091,1097,1103,1109,1115,1121,1127,1133,1139,1145,1151,1157,1163,1169,1175,1181,1187,1193,1199,1205,1211,1217,0,0,0,0,0,0,0,0,0,0,0,0,0,0,0,0,0,0,0,0,0,0,0,0,0,0,0,0,0,0,0,0,0,0,0,0,0,0,0,0,0,0,0,0,0,0,0,0,0,0,0,0,0,0,0,0,0,0,0,0,0,0,0,0,0,0,0,0,0,0,0,0,0,0,0,0,0,0,0,0,0,0,0,0,0,0,0,0,0,0,0,0,0,0,0,0,0,0,0,0,0,0,0,1073,1079,1085,1091,1097,1103,1109,1115,1121,1127,1133,1139,1145,1151,1157,1163,1169,1175,1181,1187,1193,1199,1205,1211,1217,0,0,0,0,0,0,0,0,0,0,0,0,0,0,0,0,0,0,0,0,0,0,0,0,0,0,0,0,0,0,0,0,0,0,0,0,0,0,0,0,0,0,0,0,0,0,0,0,0,0,0,0,0,0,0,0,0,0,0,0,0,0,0,0,0,0,0,0,0,0,0,0,0,0,0,0,0,0,0,0,0,0,0,0,0,0,0,0,0,0,0,0,0,0,0,0,0,0,0,0,0,0,0,1073,1079,1085,1091,1097,1103,1109,1115,1121,1127,1133,1139,1145,1151,1157,1163,1169,1175,1181,1187,1193,1199,1205,1211,1217,0,0,0,0,0,0,0,0,0,0,0,0,0,0,0,0,0,0,0,0,0,0,0,0,0,0,0,0,0,0,0,0,0,0,0,0,0,0,0,0,0,0,0,0,0,0,0,0,0,0,0,0,0,0,0,0,0,0,0,0,0,0,0,0,0,0,0,0,0,0,0,0,0,0,0,0,0,0,0,0,0,0,0,0,0,0,0,0,0,0,0,0,0,0,0,0,0,0,0,0,0,0,0,1073,1079,1085,1091,1097,1103,1109,1115,1121,1127,1133,1139,1145,1151,1157,1163,1169,1175,1181,1187,1193,1199,1205,1211,1217,0,0,0,0,0,0,0,0,0,0,0,0,0,0,0,0,0,0,0,0,0,0,0,0,0,0,0,0,0,0,0,0,0,0,0,0,0,0,0,0,0,0,0,0,0,0,0,0,0,0,0,0,0,0,0,0,0,0,0,0,0,0,0,0,0,0,0,0,0,0,0,0,0,0,0,0,0,0,0,0,0,0,0,0,0,0,0,0,0,0,0,0,0,0,0,0,0,0,0,0,0,0,0,1073,1079,1085,1091,1097,1103,1109,1115,1121,1127,1133,1139,1145,1151,1157,1163,1169,1175,1181,1187,1193,1199,1205,1211,1217,0,0,0,0,0,0,0,0,0,0,0,0,0,0,0,0,0,0,0,0,0,0,0,0,0,0,0,0,0,0,0,0,0,0,0,0,0,0,0,0,0,0,0,0,0,0,0,0,0,0,0,0,0,0,0,0,0,0,0,0,0,0,0,0,0,0,0,0,0,0,0,0,0,0,0,0,0,0,0,0,0,0,0,0,0,0,0,0,0,0,0,0,0,0,0,0,0,0,0,0,0,0,0,1073,1079,1085,1091,1097,1103,1109,1115,1121,1127,1133,1139,1145,1151,1157,1163,1169,1175,1181,1187,1193,1199,1205,1211,1217,0,0,0,0,0,0,0,0,0,0,0,0,0,0,0,0,0,0,0,0,0,0,0,0,0,0,0,0,0,0,0,0,0,0,0,0,0,0,0,0,0,0,0,0,0,0,0,0,0,0,0,0,0,0,0,0,0,0,0,0,0,0,0,0,0,0,0,0,0,0,0,0,0,0,0,0,0,0,0,0,0,0,0,0,0,0,0,0,0,0,0,0,0,0,0,0,0,0,0,0,0,0,0,1073,1079,1085,1091,1097,1103,1109,1115,1121,1127,1133,1139,1145,1151,1157,1163,1169,1175,1181,1187,1193,1199,1205,1211,1217,0,0,0,0,0,0,0,0,0,0,0,0,0,0,0,0,0,0,0,0,0,0,0,0,0,0,0,0,0,0,0,0,0,0,0,0,0,0,0,0,0,0,0,0,0,0,0,0,0,0,0,0,0,0,0,0,0,0,0,0,0,0,0,0,0,0,0,0,0,0,0,0,0,0,0,0,0,0,0,0,0,0,0,0,0,0,0,0,0,0,0,0,0,0,0,0,0,0,0,0,0,0,0,1073,1079,1085,1091,1097,1103,1109,1115,1121,1127,1133,1139,1145,1151,1157,1163,1169,1175,1181,1187,1193,1199,1205,1211,1217,0,0,0,0,0,0,0,0,0,0,0,0,0,0,0,0,0,0,0,0,0,0,0,0,0,0,0,0,0,0,0,0,0,0,0,0,0,0,0,0,0,0,0,0,0,0,0,0,0,0,0,0,0,0,0,0,0,0,0,0,0,0,0,0,0,0,0,0,0,0,0,0,0,0,0,0,0,0,0,0,0,0,0,0,0,0,0,0,0,0,0,0,0,0,0,0,0,0,0,0,0,0,0,1073,1079,1085,1091,1097,1103,1109,1115,1121,1127,1133,1139,1145,1151,1157,1163,1169,1175,1181,1187,1193,1199,1205,1211,1217,0,0,0,0,0,0,0,0,0,0,0,0,0,0,0,0,0,0,0,0,0,0,0,0,0,0,0,0,0,0,0,0,0,0,0,0,0,0,0,0,0,0,0,0,0,0,0,0,0,0,0,0,0,0,0,0,0,0,0,0,0,0,0,0,0,0,0,0,0,0,0,0,0,0,0,0,0,0,0,0,0,0,0,0,0,0,0,0,0,0,0,0,0,0,0,0,0,0,0,0,0,0,0,1073,1079,1085,1091,1097,1103,1109,1115,1121,1127,1133,1139,1145,1151,1157,1163,1169,1175,1181,1187,1193,1199,1205,1211,1217,0,0,0,0,0,0,0,0,0,0,0,0,0,0,0,0,0,0,0,0,0,0,0,0,0,0,0,0,0,0,0,0,0,0,0,0,0,0,0,0,0,0,0,0,0,0,0,0,0,0,0,0,0,0,0,0,0,0,0,0,0,0,0,0,0,0,0,0,0,0,0,0,0,0,0,0,0,0,0,0,0,0,0,0,0,0,0,0,0,0,0,0,0,0,0,0,0,0,0,0,0,0,0,1073,1079,1085,1091,1097,1103,1109,1115,1121,1127,1133,1139,1145,1151,1157,1163,1169,1175,1181,1187,1193,1199,1205,1211,1217,0,0,0,0,0,0,0,0,0,0,0,0,0,0,0,0,0,0,0,0,0,0,0,0,0,0,0,0,0,0,0,0,0,0,0,0,0,0,0,0,0,0,0,0,0,0,0,0,0,0,0,0,0,0,0,0,0,0,0,0,0,0,0,0,0,0,0,0,0,0,0,0,0,0,0,0,0,0,0,0,0,0,0,0,0,0,0,0,0,0,0,0,0,0,0,0,0,0,0,0,0,0,0,1073,1079,1085,1091,1097,1103,1109,1115,1121,1127,1133,1139,1145,1151,1157,1163,1169,1175,1181,1187,1193,1199,1205,1211,1217,0,0,0,0,0,0,0,0,0,0,0,0,0,0,0,0,0,0,0,0,0,0,0,0,0,0,0,0,0,0,0,0,0,0,0,0,0,0,0,0,0,0,0,0,0,0,0,0,0,0,0,0,0,0,0,0,0,0,0,0,0,0,0,0,0,0,0,0,0,0,0,0,0,0,0,0,0,0,0,0,0,0,0,0,0,0,0,0,0,0,0,0,0,0,0,0,0,0,0,0,0,0,0,1073,1079,1085,1091,1097,1103,1109,1115,1121,1127,1133,1139,1145,1151,1157,1163,1169,1175,1181,1187,1193,1199,1205,1211,1217,0,0,0,0,0,0,0,0,0,0,0,0,0,0,0,0,0,0,0,0,0,0,0,0,0,0,0,0,0,0,0,0,0,0,0,0,0,0,0,0,0,0,0,0,0,0,0,0,0,0,0,0,0,0,0,0,0,0,0,0,0,0,0,0,0,0,0,0,0,0,0,0,0,0,0,0,0,0,0,0,0,0,0,0,0,0,0,0,0,0,0,0,0,0,0,0,0,0,0,0,0,0,0,1073,1079,1085,1091,1097,1103,1109,1115,1121,1127,1133,1139,1145,1151,1157,1163,1169,1175,1181,1187,1193,1199,1205,1211,1217,0,0,0,0,0,0,0,0,0,0,0,0,0,0,0,0,0,0,0,0,0,0,0,0,0,0,0,0,0,0,0,0,0,0,0,0,0,0,0,0,0,0,0,0,0,0,0,0,0,0,0,0,0,0,0,0,0,0,0,0,0,0,0,0,0,0,0,0,0,0,0,0,0,0,0,0,0,0,0,0,0,0,0,0,0,0,0,0,0,0,0,0,0,0,0,0,0,0,0,0,0,0,0,1073,1079,1085,1091,1097,1103,1109,1115,1121,1127,1133,1139,1145,1151,1157,1163,1169,1175,1181,1187,1193,1199,1205,1211,1217,0,0,0,0,0,0,0,0,0,0,0,0,0,0,0,0,0,0,0,0,0,0,0,0,0,0,0,0,0,0,0,0,0,0,0,0,0,0,0,0,0,0,0,0,0,0,0,0,0,0,0,0,0,0,0,0,0,0,0,0,0,0,0,0,0,0,0,0,0,0,0,0,0,0,0,0,0,0,0,0,0,0,0,0,0,0,0,0,0,0,0,0,0,0,0,0,0,0,0,0,0,0,0,1073,1079,1085,1091,1097,1103,1109,1115,1121,1127,1133,1139,1145,1151,1157,1163,1169,1175,1181,1187,1193,1199,1205,1211,1217,0,0,0,0,0,0,0,0,0,0,0,0,0,0,0,0,0,0,0,0,0,0,0,0,0,0,0,0,0,0,0,0,0,0,0,0,0,0,0,0,0,0,0,0,0,0,0,0,0,0,0,0,0,0,0,0,0,0,0,0,0,0,0,0,0,0,0,0,0,0,0,0,0,0,0,0,0,0,0,0,0,0,0,0,0,0,0,0,0,0,0,0,0,0,0,0,0,0,0,0,0,0,0,1073,1079,1085,1091,1097,1103,1109,1115,1121,1127,1133,1139,1145,1151,1157,1163,1169,1175,1181,1187,1193,1199,1205,1211,1217,0,0,0,0,0,0,0,0,0,0,0,0,0,0,0,0,0,0,0,0,0,0,0,0,0,0,0,0,0,0,0,0,0,0,0,0,0,0,0,0,0,0,0,0,0,0,0,0,0,0,0,0,0,0,0,0,0,0,0,0,0,0,0,0,0,0,0,0,0,0,0,0,0,0,0,0,0,0,0,0,0,0,0,0,0,0,0,0,0,0,0,0,0,0,0,0,0,0,0,0,0,0,0,1073,1079,1085,1091,1097,1103,1109,1115,1121,1127,1133,1139,1145,1151,1157,1163,1169,1175,1181,1187,1193,1199,1205,1211,1217,0,0,0,0,0,0,0,0,0,0,0,0,0,0,0,0,0,0,0,0,0,0,0,0,0,0,0,0,0,0,0,0,0,0,0,0,0,0,0,0,0,0,0,0,0,0,0,0,0,0,0,0,0,0,0,0,0,0,0,0,0,0,0,0,0,0,0,0,0,0,0,0,0,0,0,0,0,0,0,0,0,0,0,0,0,0,0,0,0,0,0,0,0,0,0,0,0,0,0,0,0,0,0,1073,1079,1085,1091,1097,1103,1109,1115,1121,1127,1133,1139,1145,1151,1157,1163,1169,1175,1181,1187,1193,1199,1205,1211,1217,0,0,0,0,0,0,0,0,0,0,0,0,0,0,0,0,0,0,0,0,0,0,0,0,0,0,0,0,0,0,0,0,0,0,0,0,0,0,0,0,0,0,0,0,0,0,0,0,0,0,0,0,0,0,0,0,0,0,0,0,0,0,0,0,0,0,0,0,0,0,0,0,0,0,0,0,0,0,0,0,0,0,0,0,0,0,0,0,0,0,0,0,0,0,0,0,0,0,0,0,0,0,0,1073,1079,1085,1091,1097,1103,1109,1115,1121,1127,1133,1139,1145,1151,1157,1163,1169,1175,1181,1187,1193,1199,1205,1211,1217,0,0,0,0,0,0,0,0,0,0,0,0,0,0,0,0,0,0,0,0,0,0,0,0,0,0,0,0,0,0,0,0,0,0,0,0,0,0,0,0,0,0,0,0,0,0,0,0,0,0,0,0,0,0,0,0,0,0,0,0,0,0,0,0,0,0,0,0,0,0,0,0,0,0,0,0,0,0,0,0,0,0,0,0,0,0,0,0,0,0,0,0,0,0,0,0,0,0,0,0,0,0,0,1073,1079,1085,1091,1097,1103,1109,1115,1121,1127,1133,1139,1145,1151,1157,1163,1169,1175,1181,1187,1193,1199,1205,1211,1217,0,0,0,0,0,0,0,0,0,0,0,0,0,0,0,0,0,0,0,0,0,0,0,0,0,0,0,0,0,0,0,0,0,0,0,0,0,0,0,0,0,0,0,0,0,0,0,0,0,0,0,0,0,0,0,0,0,0,0,0,0,0,0,0,0,0,0,0,0,0,0,0,0,0,0,0,0,0,0,0,0,0,0,0,0,0,0,0,0,0,0,0,0,0,0,0,0,0,0,0,0,0,0,1073,1079,1085,1091,1097,1103,1109,1115,1121,1127,1133,1139,1145,1151,1157,1163,1169,1175,1181,1187,1193,1199,1205,1211,1217,0,0,0,0,0,0,0,0,0,0,0,0,0,0,0,0,0,0,0,0,0,0,0,0,0,0,0,0,0,0,0,0,0,0,0,0,0,0,0,0,0,0,0,0,0,0,0,0,0,0,0,0,0,0,0,0,0,0,0,0,0,0,0,0,0,0,0,0,0,0,0,0,0,0,0,0,0,0,0,0,0,0,0,0,0,0,0,0,0,0,0,0,0,0,0,0,0,0,0,0,0,0,0,1073,1079,1085,1091,1097,1103,1109,1115,1121,1127,1133,1139,1145,1151,1157,1163,1169,1175,1181,1187,1193,1199,1205,1211,1217,0,0,0,0,0,0,0,0,0,0,0,0,0,0,0,0,0,0,0,0,0,0,0,0,0,0,0,0,0,0,0,0,0,0,0,0,0,0,0,0,0,0,0,0,0,0,0,0,0,0,0,0,0,0,0,0,0,0,0,0,0,0,0,0,0,0,0,0,0,0,0,0,0,0,0,0,0,0,0,0,0,0,0,0,0,0,0,0,0,0,0,0,0,0,0,0,0,0,0,0,0,0,0,1073,1079,1085,1091,1097,1103,1109,1115,1121,1127,1133,1139,1145,1151,1157,1163,1169,1175,1181,1187,1193,1199,1205,1211,1217,0,0,0,0,0,0,0,0,0,0,0,0,0,0,0,0,0,0,0,0,0,0,0,0,0,0,0,0,0,0,0,0,0,0,0,0,0,0,0,0,0,0,0,0,0,0,0,0,0,0,0,0,0,0,0,0,0,0,0,0,0,0,0,0,0,0,0,0,0,0,0,0,0,0,0,0,0,0,0,0,0,0,0,0,0,0,0,0,0,0,0,0,0,0,0,0,0,0,0,0,0,0,0,1073,1079,1085,1091,1097,1103,1109,1115,1121,1127,1133,1139,1145,1151,1157,1163,1169,1175,1181,1187,1193,1199,1205,1211,1217,0,0,0,0,0,0,0,0,0,0,0,0,0,0,0,0,0,0,0,0,0,0,0,0,0,0,0,0,0,0,0,0,0,0,0,0,0,0,0,0,0,0,0,0,0,0,0,0,0,0,0,0,0,0,0,0,0,0,0,0,0,0,0,0,0,0,0,0,0,0,0,0,0,0,0,0,0,0,0,0,0,0,0,0,0,0,0,0,0,0,0,0,0,0,0,0,0,0,0,0,0,1238,1244,1250,1256,1262,1268,1274,1280,1286,1292,1298,1304,1310,1316,1322,1328,1334,1340,1346,1352,1358,1364,1370,1376,1382,1388,1394,0,0,0,0,0,0,0,0,0,0,0,0,0,0,0,0,0,0,0,0,0,0,0,0,0,0,0,0,0,0,0,0,0,0,0,0,0,0,0,0,0,0,0,0,0,0,0,0,0,0,0,0,0,0,0,0,0,0,0,0,0,0,0,0,0,0,0,0,0,0,0,0,0,0,0,0,0,0,0,0,0,0,0,0,0,0,0,0,0,0,0,0,0,0,0,0,0,0,0,0,0,1238,1244,1250,1256,1262,1268,1274,1280,1286,1292,1298,1304,1310,1316,1322,1328,1334,1340,1346,1352,1358,1364,1370,1376,1382,1388,1394,0,0,0,0,0,0,0,0,0,0,0,0,0,0,0,0,0,0,0,0,0,0,0,0,0,0,0,0,0,0,0,0,0,0,0,0,0,0,0,0,0,0,0,0,0,0,0,0,0,0,0,0,0,0,0,0,0,0,0,0,0,0,0,0,0,0,0,0,0,0,0,0,0,0,0,0,0,0,0,0,0,0,0,0,0,0,0,0,0,0,0,0,0,0,0,0,0,0,0,0,1414,1420,1426,1432,1438,1444,1450,1456,1462,1468,1474,1480,1486,1492,1498,1504,1510,1516,1522,1528,1534,1540,1546,1552,1558,1564,1570,1576,0,0,0,0,0,0,0,0,0,0,0,0,0,0,0,0,0,0,0,0,0,0,0,0,0,0,0,0,0,0,0,0,0,0,0,0,0,0,0,0,0,0,0,0,0,0,0,0,0,0,0,0,0,0,0,0,0,0,0,0,0,0,0,0,0,0,0,0,0,0,0,0,0,0,0,0,0,0,0,0,0,0,0,0,0,0,0,0,0,0,0,0,0,0,0,0,0,0,0,0,1414,1420,1426,1432,1438,1444,1450,1456,1462,1468,1474,1480,1486,1492,1498,1504,1510,1516,1522,1528,1534,1540,1546,1552,1558,1564,1570,1576,0,0,0,0,0,0,0,0,0,0,0,0,0,0,0,0,0,0,0,0,0,0,0,0,0,0,0,0,0,0,0,0,0,0,0,0,0,0,0,0,0,0,0,0,0,0,0,0,0,0,0,0,0,0,0,0,0,0,0,0,0,0,0,0,0,0,0,0,0,0,0,0,0,0,0,0,0,0,0,0,0,0,0,0,0,0,0,0,0,0,0,0,0,0,0,0,0,0,0,0,1596,1602,1608,1614,1620,1626,1632,1638,1644,1650,1656,1662,1668,1674,1680,1686,1692,1698,1704,1710,1716,1722,1728,1734,1740,1746,1752,0,0,0,0,0,0,0,0,0,0,0,0,0,0,0,0,0,0,0,0,0,0,0,0,0,0,0,0,0,0,0,0,0,0,0,0,0,0,0,0,0,0,0,0,0,0,0,0,0,0,0,0,0,0,0,0,0,0,0,0,0,0,0,0,0,0,0,0,0,0,0,0,0,0,0,0,0,0,0,0,0,0,0,0,0,0,0,0,0,0,0,0,0,0,0,0,0,0,0,0,0,1596,1602,1608,1614,1620,1626,1632,1638,1644,1650,1656,1662,1668,1674,1680,1686,1692,1698,1704,1710,1716,1722,1728,1734,1740,1746,1752,0,0,0,0,0,0,0,0,0,0,0,0,0,0,0,0,0,0,0,0,0,0,0,0,0,0,0,0,0,0,0,0,0,0,0,0,0,0,0,0,0,0,0,0,0,0,0,0,0,0,0,0,0,0,0,0,0,0,0,0,0,0,0,0,0,0,0,0,0,0,0,0,0,0,0,0,0,0,0,0,0,0,0,0,0,0,0,0,0,0,0,0,0,0,0,0,0,0,0,1771,1777,1783,1789,1795,1801,1807,1813,1819,1825,1831,1837,1843,1849,1855,1861,1867,1873,1879,1885,1891,1897,1903,1909,1915,1921,1927,1933,1939,0,0,0,0,0,0,0,0,0,0,0,0,0,0,0,0,0,0,0,0,0,0,0,0,0,0,0,0,0,0,0,0,0,0,0,0,0,0,0,0,0,0,0,0,0,0,0,0,0,0,0,0,0,0,0,0,0,0,0,0,0,0,0,0,0,0,0,0,0,0,0,0,0,0,0,0,0,0,0,0,0,0,0,0,0,0,0,0,0,0,0,0,0,0,0,0,0,0,0,1771,1777,1783,1789,1795,1801,1807,1813,1819,1825,1831,1837,1843,1849,1855,1861,1867,1873,1879,1885,1891,1897,1903,1909,1915,1921,1927,1933,1939,0,0,0,0,0,0,0,0,0,0,0,0,0,0,0,0,0,0,0,0,0,0,0,0,0,0,0,0,0,0,0,0,0,0,0,0,0,0,0,0,0,0,0,0,0,0,0,0,0,0,0,0,0,0,0,0,0,0,0,0,0,0,0,0,0,0,0,0,0,0,0,0,0,0,0,0,0,0,0,0,0,0,0,0,0,0,0,0,0,0,0,0,0,0,0,0,0,0,1957,1963,1969,1975,1981,1987,1993,1999,2005,2011,2017,2023,2029,2035,2041,2047,2053,2059,2065,2071,2077,2083,2089,2095,2101,2107,2113,2119,2125,2131,0,0,0,0,0,0,0,0,0,0,0,0,0,0,0,0,0,0,0,0,0,0,0,0,0,0,0,0,0,0,0,0,0,0,0,0,0,0,0,0,0,0,0,0,0,0,0,0,0,0,0,0,0,0,0,0,0,0,0,0,0,0,0,0,0,0,0,0,0,0,0,0,0,0,0,0,0,0,0,0,0,0,0,0,0,0,0,0,0,0,0,0,0,0,0,0,0,0,1957,1963,1969,1975,1981,1987,1993,1999,2005,2011,2017,2023,2029,2035,2041,2047,2053,2059,2065,2071,2077,2083,2089,2095,2101,2107,2113,2119,2125,2131,0,0,0,0,0,0,0,0,0,0,0,0,0,0,0,0,0,0,0,0,0,0,0,0,0,0,0,0,0,0,0,0,0,0,0,0,0,0,0,0,0,0,0,0,0,0,0,0,0,0,0,0,0,0,0,0,0,0,0,0,0,0,0,0,0,0,0,0,0,0,0,0,0,0,0,0,0,0,0,0,0,0,0,0,0,0,0,0,0,0,0,0,0,0,0,0,0,0,2149,2155,2161,2167,2173,2179,2185,2191,2197,2203,2209,2215,2221,2227,2233,2239,2245,2251,2257,2263,2269,2275,2281,2287,2293,2299,2305,2311,2317,2323,2329,0,0,0,0,0,0,0,0,0,0,0,0,0,0,0,0,0,0,0,0,0,0,0,0,0,0,0,0,0,0,0,0,0,0,0,0,0,0,0,0,0,0,0,0,0,0,0,0,0,0,0,0,0,0,0,0,0,0,0,0,0,0,0,0,0,0,0,0,0,0,0,0,0,0,0,0,0,0,0,0,0,0,0,0,0,0,0,0,0,0,0,0,0,0,0,0,0,2149,2155,2161,2167,2173,2179,2185,2191,2197,2203,2209,2215,2221,2227,2233,2239,2245,2251,2257,2263,2269,2275,2281,2287,2293,2299,2305,2311,2317,2323,2329,0,0,0,0,0,0,0,0,0,0,0,0,0,0,0,0,0,0,0,0,0,0,0,0,0,0,0,0,0,0,0,0,0,0,0,0,0,0,0,0,0,0,0,0,0,0,0,0,0,0,0,0,0,0,0,0,0,0,0,0,0,0,0,0,0,0,0,0,0,0,0,0,0,0,0,0,0,0,0,0,0,0,0,0,0,0,0,0,0,0,0,0,0,0,0,0,2345,2351,2357,2363,2369,2375,2381,2387,2393,2399,2405,2411,2417,2423,2429,2435,2441,2447,2453,2459,2465,2471,2477,2483,2489,2495,2501,2507,2513,2519,2525,2531,2537,0,0,0,0,0,0,0,0,0,0,0,0,0,0,0,0,0,0,0,0,0,0,0,0,0,0,0,0,0,0,0,0,0,0,0,0,0,0,0,0,0,0,0,0,0,0,0,0,0,0,0,0,0,0,0,0,0,0,0,0,0,0,0,0,0,0,0,0,0,0,0,0,0,0,0,0,0,0,0,0,0,0,0,0,0,0,0,0,0,0,0,0,0,0,0,2345,2351,2357,2363,2369,2375,2381,2387,2393,2399,2405,2411,2417,2423,2429,2435,2441,2447,2453,2459,2465,2471,2477,2483,2489,2495,2501,2507,2513,2519,2525,2531,2537,0,0,0,0,0,0,0,0,0,0,0,0,0,0,0,0,0,0,0,0,0,0,0,0,0,0,0,0,0,0,0,0,0,0,0,0,0,0,0,0,0,0,0,0,0,0,0,0,0,0,0,0,0,0,0,0,0,0,0,0,0,0,0,0,0,0,0,0,0,0,0,0,0,0,0,0,0,0,0,0,0,0,0,0,0,0,0,0,0,0,0,0,0,0,0,2552,2558,2564,2570,2576,2582,2588,2594,2600,2606,2612,2618,2624,2630,2636,2642,2648,2654,2660,2666,2672,2678,2684,2690,2696,2702,2708,2714,2720,2726,2732,2738,2744,2750,0,0,0,0,0,0,0,0,0,0,0,0,0,0,0,0,0,0,0,0,0,0,0,0,0,0,0,0,0,0,0,0,0,0,0,0,0,0,0,0,0,0,0,0,0,0,0,0,0,0,0,0,0,0,0,0,0,0,0,0,0,0,0,0,0,0,0,0,0,0,0,0,0,0,0,0,0,0,0,0,0,0,0,0,0,0,0,0,0,0,0,0,0,0,2552,2558,2564,2570,2576,2582,2588,2594,2600,2606,2612,2618,2624,2630,2636,2642,2648,2654,2660,2666,2672,2678,2684,2690,2696,2702,2708,2714,2720,2726,2732,2738,2744,2750,0,0,0,0,0,0,0,0,0,0,0,0,0,0,0,0,0,0,0,0,0,0,0,0,0,0,0,0,0,0,0,0,0,0,0,0,0,0,0,0,0,0,0,0,0,0,0,0,0,0,0,0,0,0,0,0,0,0,0,0,0,0,0,0,0,0,0,0,0,0,0,0,0,0,0,0,0,0,0,0,0,0,0,0,0,0,0,0,0,0,0,0,0,0,2764,2770,2776,2782,2788,2794,2800,2806,2812,0,0,0,0,0,0,0,0,2826,2832,2838,2844,2850,2856,2862,2868,2874,2880,2886,2892,2898,2904,2910,2916,2922,2928,0,0,0,0,0,0,0,0,0,0,0,0,0,0,0,0,0,0,0,0,0,0,0,0,0,0,0,0,0,0,0,0,0,0,0,0,0,0,0,0,0,0,0,0,0,0,0,0,0,0,0,0,0,0,0,0,0,0,0,0,0,0,0,0,0,0,0,0,0,0,0,0,0,0,0,0,0,0,0,0,0,0,0,0,0,0,0,0,0,0,0,0,0,2764,2770,2776,2782,2788,2794,2800,2806,2812,0,0,0,0,0,0,0,0,2826,2832,2838,2844,2850,2856,2862,2868,2874,2880,2886,2892,2898,2904,2910,2916,2922,2928,0,0,0,0,0,0,0,0,0,0,0,0,0,0,0,0,0,0,0,0,0,0,0,0,0,0,0,0,0,0,0,0,0,0,0,0,0,0,0,0,0,0,0,0,0,0,0,0,0,0,0,0,0,0,0,0,0,0,0,0,0,0,0,0,0,0,0,0,0,0,0,0,0,0,0,0,0,0,0,0,0,0,0,0,0,0,0,0,0,0,0,0,0,2941,2947,2953,2959,2965,2971,2977,2983,2989,0,0,0,0,0,0,0,0,3003,3009,3015,3021,3027,3033,3039,3045,3051,3057,3063,3069,3075,3081,3087,3093,3099,3105,0,0,0,0,0,0,0,0,0,0,0,0,0,0,0,0,0,0,0,0,0,0,0,0,0,0,0,0,0,0,0,0,0,0,0,0,0,0,0,0,0,0,0,0,0,0,0,0,0,0,0,0,0,0,0,0,0,0,0,0,0,0,0,0,0,0,0,0,0,0,0,0,0,0,0,0,0,0,0,0,0,0,0,0,0,0,0,0,0,0,0,0,0,2941,2947,2953,2959,2965,2971,2977,2983,2989,0,0,0,0,0,0,0,0,3003,3009,3015,3021,3027,3033,3039,3045,3051,3057,3063,3069,3075,3081,3087,3093,3099,3105,0,0,0,0,0,0,0,0,0,0,0,0,0,0,0,0,0,0,0,0,0,0,0,0,0,0,0,0,0,0,0,0,0,0,0,0,0,0,0,0,0,0,0,0,0,0,0,0,0,0,0,0,0,0,0,0,0,0,0,0,0,0,0,0,0,0,0,0,0,0,0,0,0,0,0,0,0,0,0,0,0,0,0,0,0,0,0,0,0,0,0,0,3117,3123,3129,3135,3141,3147,3153,3159,3165,0,0,0,0,0,0,0,0,0,0,3181,3187,3193,3199,3205,3211,3217,3223,3229,3235,3241,3247,3253,3259,3265,3271,3277,0,0,0,0,0,0,0,0,0,0,0,0,0,0,0,0,0,0,0,0,0,0,0,0,0,0,0,0,0,0,0,0,0,0,0,0,0,0,0,0,0,0,0,0,0,0,0,0,0,0,0,0,0,0,0,0,0,0,0,0,0,0,0,0,0,0,0,0,0,0,0,0,0,0,0,0,0,0,0,0,0,0,0,0,0,0,0,0,0,0,0,0,3117,3123,3129,3135,3141,3147,3153,3159,3165,0,0,0,0,0,0,0,0,0,0,3181,3187,3193,3199,3205,3211,3217,3223,3229,3235,3241,3247,3253,3259,3265,3271,3277,0,0,0,0,0,0,0,0,0,0,0,0,0,0,0,0,0,0,0,0,0,0,0,0,0,0,0,0,0,0,0,0,0,0,0,0,0,0,0,0,0,0,0,0,0,0,0,0,0,0,0,0,0,0,0,0,0,0,0,0,0,0,0,0,0,0,0,0,0,0,0,0,0,0,0,0,0,0,0,0,0,0,0,0,0,0,0,0,0,0,0,0,3289,3295,3301,3307,3313,3319,3325,3331,3337,3343,0,0,0,0,0,0,0,0,3357,3363,3369,3375,3381,3387,3393,3399,3405,3411,3417,3423,3429,3435,3441,3447,3453,3459,3465,0,0,0,0,0,0,0,0,0,0,0,0,0,0,0,0,0,0,0,0,0,0,0,0,0,0,0,0,0,0,0,0,0,0,0,0,0,0,0,0,0,0,0,0,0,0,0,0,0,0,0,0,0,0,0,0,0,0,0,0,0,0,0,0,0,0,0,0,0,0,0,0,0,0,0,0,0,0,0,0,0,0,0,0,0,0,0,0,0,0,0,3289,3295,3301,3307,3313,3319,3325,3331,3337,3343,0,0,0,0,0,0,0,0,3357,3363,3369,3375,3381,3387,3393,3399,3405,3411,3417,3423,3429,3435,3441,3447,3453,3459,3465,0,0,0,0,0,0,0,0,0,0,0,0,0,0,0,0,0,0,0,0,0,0,0,0,0,0,0,0,0,0,0,0,0,0,0,0,0,0,0,0,0,0,0,0,0,0,0,0,0,0,0,0,0,0,0,0,0,0,0,0,0,0,0,0,0,0,0,0,0,0,0,0,0,0,0,0,0,0,0,0,0,0,0,0,0,0,0,0,0,0,0,3476,3482,3488,3494,3500,3506,3512,3518,3524,3530,3536,0,0,0,0,0,0,3548,3554,3560,3566,3572,3578,3584,3590,3596,3602,3608,3614,3620,3626,3632,3638,3644,3650,3656,3662,0,0,0,0,0,0,0,0,0,0,0,0,0,0,0,0,0,0,0,0,0,0,0,0,0,0,0,0,0,0,0,0,0,0,0,0,0,0,0,0,0,0,0,0,0,0,0,0,0,0,0,0,0,0,0,0,0,0,0,0,0,0,0,0,0,0,0,0,0,0,0,0,0,0,0,0,0,0,0,0,0,0,0,0,0,0,0,0,0,0,0,3476,3482,3488,3494,3500,3506,3512,3518,3524,3530,3536,0,0,0,0,0,0,3548,3554,3560,3566,3572,3578,3584,3590,3596,3602,3608,3614,3620,3626,3632,3638,3644,3650,3656,3662,0,0,0,0,0,0,0,0,0,0,0,0,0,0,0,0,0,0,0,0,0,0,0,0,0,0,0,0,0,0,0,0,0,0,0,0,0,0,0,0,0,0,0,0,0,0,0,0,0,0,0,0,0,0,0,0,0,0,0,0,0,0,0,0,0,0,0,0,0,0,0,0,0,0,0,0,0,0,0,0,0,0,0,0,0,0,0,0,0,0,0,3673,3679,3685,3691,3697,3703,3709,3715,3721,3727,3733,3739,0,0,0,0,3749,3755,3761,3767,3773,3779,3785,3791,3797,3803,3809,3815,3821,3827,3833,3839,3845,3851,3857,3863,3869,0,0,0,0,0,0,0,0,0,0,0,0,0,0,0,0,0,0,0,0,0,0,0,0,0,0,0,0,0,0,0,0,0,0,0,0,0,0,0,0,0,0,0,0,0,0,0,0,0,0,0,0,0,0,0,0,0,0,0,0,0,0,0,0,0,0,0,0,0,0,0,0,0,0,0,0,0,0,0,0,0,0,0,0,0,0,0,0,0,0,0,3673,3679,3685,3691,3697,3703,3709,3715,3721,3727,3733,3739,0,0,0,0,3749,3755,3761,3767,3773,3779,3785,3791,3797,3803,3809,3815,3821,3827,3833,3839,3845,3851,3857,3863,3869,0,0,0,0,0,0,0,0,0,0,0,0,0,0,0,0,0,0,0,0,0,0,0,0,0,0,0,0,0,0,0,0,0,0,0,0,0,0,0,0,0,0,0,0,0,0,0,0,0,0,0,0,0,0,0,0,0,0,0,0,0,0,0,0,0,0,0,0,0,0,0,0,0,0,0,0,0,0,0,0,0,0,0,0,0,0,0,0,0,0,0,0,3881,3887,3893,3899,3905,3911,3917,3923,3929,3935,3941,3947,3953,3959,3965,3971,3977,3983,3989,3995,4001,4007,4013,4019,4025,4031,4037,4043,4049,4055,4061,4067,4073,4079,4085,4091,0,0,0,0,0,0,0,0,0,0,0,0,0,0,0,0,0,0,0,0,0,0,0,0,0,0,0,0,0,0,0,0,0,0,0,0,0,0,0,0,0,0,0,0,0,0,0,0,0,0,0,0,0,0,0,0,0,0,0,0,0,0,0,0,0,0,0,0,0,0,0,0,0,0,0,0,0,0,0,0,0,0,0,0,0,0,0,0,0,0,0,0,3881,3887,3893,3899,3905,3911,3917,3923,3929,3935,3941,3947,3953,3959,3965,3971,3977,3983,3989,3995,4001,4007,4013,4019,4025,4031,4037,4043,4049,4055,4061,4067,4073,4079,4085,4091,0,0,0,0,0,0,0,0,0,0,0,0,0,0,0,0,0,0,0,0,0,0,0,0,0,0,0,0,0,0,0,0,0,0,0,0,0,0,0,0,0,0,0,0,0,0,0,0,0,0,0,0,0,0,0,0,0,0,0,0,0,0,0,0,0,0,0,0,0,0,0,0,0,0,0,0,0,0,0,0,0,0,0,0,0,0,0,0,0,0,0,0,4103,4109,4115,4121,4127,4133,4139,4145,4151,4157,4163,4169,4175,4181,4187,4193,4199,4205,4211,4217,4223,4229,4235,4241,4247,4253,4259,4265,4271,4277,4283,4289,4295,4301,4307,0,0,0,0,0,0,0,0,0,0,0,0,0,0,0,0,0,0,0,0,0,0,0,0,0,0,0,0,0,0,0,0,0,0,0,0,0,0,0,0,0,0,0,0,0,0,0,0,0,0,0,0,0,0,0,0,0,0,0,0,0,0,0,0,0,0,0,0,0,0,0,0,0,0,0,0,0,0,0,0,0,0,0,0,0,0,0,0,0,0,0,0,0,4103,4109,4115,4121,4127,4133,4139,4145,4151,4157,4163,4169,4175,4181,4187,4193,4199,4205,4211,4217,4223,4229,4235,4241,4247,4253,4259,4265,4271,4277,4283,4289,4295,4301,4307,0,0,0,0,0,0,0,0,0,0,0,0,0,0,0,0,0,0,0,0,0,0,0,0,0,0,0,0,0,0,0,0,0,0,0,0,0,0,0,0,0,0,0,0,0,0,0,0,0,0,0,0,0,0,0,0,0,0,0,0,0,0,0,0,0,0,0,0,0,0,0,0,0,0,0,0,0,0,0,0,0,0,0,0,0,0,0,0,0,0,0,0,0,4320,4326,4332,4338,4344,4350,4356,4362,4368,4374,4380,4386,4392,4398,4404,4410,4416,4422,4428,4434,4440,4446,4452,4458,4464,4470,4476,4482,4488,4494,4500,4506,4512,4518,4524,0,0,0,0,0,0,0,0,0,0,0,0,0,0,0,0,0,0,0,0,0,0,0,0,0,0,0,0,0,0,0,0,0,0,0,0,0,0,0,0,0,0,0,0,0,0,0,0,0,0,0,0,0,0,0,0,0,0,0,0,0,0,0,0,0,0,0,0,0,0,0,0,0,0,0,0,0,0,0,0,0,0,0,0,0,0,0,0,0,0,0,0,0,4320,4326,4332,4338,4344,4350,4356,4362,4368,4374,4380,4386,4392,4398,4404,4410,4416,4422,4428,4434,4440,4446,4452,4458,4464,4470,4476,4482,4488,4494,4500,4506,4512,4518,4524,0,0,0,0,0,0,0,0,0,0,0,0,0,0,0,0,0,0,0,0,0,0,0,0,0,0,0,0,0,0,0,0,0,0,0,0,0,0,0,0,0,0,0,0,0,0,0,0,0,0,0,0,0,0,0,0,0,0,0,0,0,0,0,0,0,0,0,0,0,0,0,0,0,0,0,0,0,0,0,0,0,0,0,0,0,0,0,0,0,0,0,0,0,4537,4543,4549,4555,4561,4567,4573,4579,4585,4591,4597,4603,4609,4615,4621,4627,4633,4639,4645,4651,4657,4663,4669,4675,4681,4687,4693,4699,4705,4711,4717,4723,4729,4735,4741,0,0,0,0,0,0,0,0,0,0,0,0,0,0,0,0,0,0,0,0,0,0,0,0,0,0,0,0,0,0,0,0,0,0,0,0,0,0,0,0,0,0,0,0,0,0,0,0,0,0,0,0,0,0,0,0,0,0,0,0,0,0,0,0,0,0,0,0,0,0,0,0,0,0,0,0,0,0,0,0,0,0,0,0,0,0,0,0,0,0,0,0,0,4537,4543,4549,4555,4561,4567,4573,4579,4585,4591,4597,4603,4609,4615,4621,4627,4633,4639,4645,4651,4657,4663,4669,4675,4681,4687,4693,4699,4705,4711,4717,4723,4729,4735,4741,0,0,0,0,0,0,0,0,0,0,0,0,0,0,0,0,0,0,0,0,0,0,0,0,0,0,0,0,0,0,0,0,0,0,0,0,0,0,0,0,0,0,0,0,0,0,0,0,0,0,0,0,0,0,0,0,0,0,0,0,0,0,0,0,0,0,0,0,0,0,0,0,0,0,0,0,0,0,0,0,0,0,0,0,0,0,0,0,0,0,0,0,4753,4759,4765,4771,4777,4783,4789,4795,4801,4807,4813,4819,4825,4831,4837,4843,4849,4855,4861,4867,4873,4879,4885,4891,4897,4903,4909,4915,4921,4927,4933,4939,4945,4951,4957,4963,0,0,0,0,0,0,0,0,0,0,0,0,0,0,0,0,0,0,0,0,0,0,0,0,0,0,0,0,0,0,0,0,0,0,0,0,0,0,0,0,0,0,0,0,0,0,0,0,0,0,0,0,0,0,0,0,0,0,0,0,0,0,0,0,0,0,0,0,0,0,0,0,0,0,0,0,0,0,0,0,0,0,0,0,0,0,0,0,0,0,0,0,4753,4759,4765,4771,4777,4783,4789,4795,4801,4807,4813,4819,4825,4831,4837,4843,4849,4855,4861,4867,4873,4879,4885,4891,4897,4903,4909,4915,4921,4927,4933,4939,4945,4951,4957,4963,0,0,0,0,0,0,0,0,0,0,0,0,0,0,0,0,0,0,0,0,0,0,0,0,0,0,0,0,0,0,0,0,0,0,0,0,0,0,0,0,0,0,0,0,0,0,0,0,0,0,0,0,0,0,0,0,0,0,0,0,0,0,0,0,0,0,0,0,0,0,0,0,0,0,0,0,0,0,0,0,0,0,0,0,0,0,0,0,0,0,0,0,4975,4981,4987,4993,4999,5005,5011,5017,5023,5029,5035,5041,5047,5053,5059,5065,5071,5077,5083,5089,5095,5101,5107,5113,5119,5125,5131,5137,5143,5149,5155,5161,5167,5173,5179,5185,5191,0,0,0,0,0,0,0,0,0,0,0,0,0,0,0,0,0,0,0,0,0,0,0,0,0,0,0,0,0,0,0,0,0,0,0,0,0,0,0,0,0,0,0,0,0,0,0,0,0,0,0,0,0,0,0,0,0,0,0,0,0,0,0,0,0,0,0,0,0,0,0,0,0,0,0,0,0,0,0,0,0,0,0,0,0,0,0,0,0,0,0,4975,4981,4987,4993,4999,5005,5011,5017,5023,5029,5035,5041,5047,5053,5059,5065,5071,5077,5083,5089,5095,5101,5107,5113,5119,5125,5131,5137,5143,5149,5155,5161,5167,5173,5179,5185,5191,0,0,0,0,0,0,0,0,0,0,0,0,0,0,0,0,0,0,0,0,0,0,0,0,0,0,0,0,0,0,0,0,0,0,0,0,0,0,0,0,0,0,0,0,0,0,0,0,0,0,0,0,0,0,0,0,0,0,0,0,0,0,0,0,0,0,0,0,0,0,0,0,0,0,0,0,0,0,0,0,0,0,0,0,0,0,0,0,0,0,0,5202,5208,5214,5220,5226,5232,5238,5244,5250,5256,5262,5268,5274,5280,5286,5292,5298,5304,5310,5316,5322,5328,0,0,0,0,0,5339,5345,5351,5357,5363,5369,5375,5381,5387,5393,0,0,0,0,0,0,0,0,0,0,0,0,0,0,0,0,0,0,0,0,0,0,0,0,0,0,0,0,0,0,0,0,0,0,0,0,0,0,0,0,0,0,0,0,0,0,0,0,0,0,0,0,0,0,0,0,0,0,0,0,0,0,0,0,0,0,0,0,0,0,0,0,0,0,0,0,0,0,0,0,0,0,0,0,0,0,0,0,0,0,0,5202,5208,5214,5220,5226,5232,5238,5244,5250,5256,5262,5268,5274,5280,5286,5292,5298,5304,5310,5316,5322,5328,0,0,0,0,0,5339,5345,5351,5357,5363,5369,5375,5381,5387,5393,0,0,0,0,0,0,0,0,0,0,0,0,0,0,0,0,0,0,0,0,0,0,0,0,0,0,0,0,0,0,0,0,0,0,0,0,0,0,0,0,0,0,0,0,0,0,0,0,0,0,0,0,0,0,0,0,0,0,0,0,0,0,0,0,0,0,0,0,0,0,0,0,0,0,0,0,0,0,0,0,0,0,0,0,0,0,0,0,0,0,0,5404,5410,5416,5422,5428,5434,5440,5446,5452,5458,5464,5470,5476,5482,5488,5494,5500,5506,5512,5518,5524,0,0,0,0,0,0,5536,5542,5548,5554,5560,5566,5572,5578,5584,5590,0,0,0,0,0,0,0,0,0,0,0,0,0,0,0,0,0,0,0,0,0,0,0,0,0,0,0,0,0,0,0,0,0,0,0,0,0,0,0,0,0,0,0,0,0,0,0,0,0,0,0,0,0,0,0,0,0,0,0,0,0,0,0,0,0,0,0,0,0,0,0,0,0,0,0,0,0,0,0,0,0,0,0,0,0,0,0,0,0,0,0,5404,5410,5416,5422,5428,5434,5440,5446,5452,5458,5464,5470,5476,5482,5488,5494,5500,5506,5512,5518,5524,0,0,0,0,0,0,5536,5542,5548,5554,5560,5566,5572,5578,5584,5590,0,0,0,0,0,0,0,0,0,0,0,0,0,0,0,0,0,0,0,0,0,0,0,0,0,0,0,0,0,0,0,0,0,0,0,0,0,0,0,0,0,0,0,0,0,0,0,0,0,0,0,0,0,0,0,0,0,0,0,0,0,0,0,0,0,0,0,0,0,0,0,0,0,0,0,0,0,0,0,0,0,0,0,0,0,0,0,0,0,0,0,0,5602,5608,5614,5620,5626,5632,5638,5644,5650,5656,5662,5668,5674,5680,5686,5692,5698,5704,5710,0,0,0,0,0,0,0,0,5724,5730,5736,5742,5748,5754,5760,5766,5772,0,0,0,0,0,0,0,0,0,0,0,0,0,0,0,0,0,0,0,0,0,0,0,0,0,0,0,0,0,0,0,0,0,0,0,0,0,0,0,0,0,0,0,0,0,0,0,0,0,0,0,0,0,0,0,0,0,0,0,0,0,0,0,0,0,0,0,0,0,0,0,0,0,0,0,0,0,0,0,0,0,0,0,0,0,0,0,0,0,0,0,0,5602,5608,5614,5620,5626,5632,5638,5644,5650,5656,5662,5668,5674,5680,5686,5692,5698,5704,5710,0,0,0,0,0,0,0,0,5724,5730,5736,5742,5748,5754,5760,5766,5772,0,0,0,0,0,0,0,0,0,0,0,0,0,0,0,0,0,0,0,0,0,0,0,0,0,0,0,0,0,0,0,0,0,0,0,0,0,0,0,0,0,0,0,0,0,0,0,0,0,0,0,0,0,0,0,0,0,0,0,0,0,0,0,0,0,0,0,0,0,0,0,0,0,0,0,0,0,0,0,0,0,0,0,0,0,0,0,0,0,0,0,0,5784,5790,5796,5802,5808,5814,5820,5826,5832,5838,5844,5850,5856,5862,5868,5874,5880,5886,5892,0,0,0,0,0,0,0,0,5906,5912,5918,5924,5930,5936,5942,5948,0,0,0,0,0,0,0,0,0,0,0,0,0,0,0,0,0,0,0,0,0,0,0,0,0,0,0,0,0,0,0,0,0,0,0,0,0,0,0,0,0,0,0,0,0,0,0,0,0,0,0,0,0,0,0,0,0,0,0,0,0,0,0,0,0,0,0,0,0,0,0,0,0,0,0,0,0,0,0,0,0,0,0,0,0,0,0,0,0,0,0,0,0,5784,5790,5796,5802,5808,5814,5820,5826,5832,5838,5844,5850,5856,5862,5868,5874,5880,5886,5892,0,0,0,0,0,0,0,0,5906,5912,5918,5924,5930,5936,5942,5948,0,0,0,0,0,0,0,0,0,0,0,0,0,0,0,0,0,0,0,0,0,0,0,0,0,0,0,0,0,0,0,0,0,0,0,0,0,0,0,0,0,0,0,0,0,0,0,0,0,0,0,0,0,0,0,0,0,0,0,0,0,0,0,0,0,0,0,0,0,0,0,0,0,0,0,0,0,0,0,0,0,0,0,0,0,0,0,0,0,0,0,0,0,5961,5967,5973,5979,5985,5991,5997,6003,6009,6015,6021,6027,6033,6039,6045,6051,6057,6063,6069,0,0,0,0,0,0,0,0,6083,6089,6095,6101,6107,6113,6119,6125,0,0,0,0,0,0,0,0,0,0,0,0,0,0,0,0,0,0,0,0,0,0,0,0,0,0,0,0,0,0,0,0,0,0,0,0,0,0,0,0,0,0,0,0,0,0,0,0,0,0,0,0,0,0,0,0,0,0,0,0,0,0,0,0,0,0,0,0,0,0,0,0,0,0,0,0,0,0,0,0,0,0,0,0,0,0,0,0,0,0,0,0,0,5961,5967,5973,5979,5985,5991,5997,6003,6009,6015,6021,6027,6033,6039,6045,6051,6057,6063,6069,0,0,0,0,0,0,0,0,6083,6089,6095,6101,6107,6113,6119,6125,0,0,0,0,0,0,0,0,0,0,0,0,0,0,0,0,0,0,0,0,0,0,0,0,0,0,0,0,0,0,0,0,0,0,0,0,0,0,0,0,0,0,0,0,0,0,0,0,0,0,0,0,0,0,0,0,0,0,0,0,0,0,0,0,0,0,0,0,0,0,0,0,0,0,0,0,0,0,0,0,0,0,0,0,0,0,0,0,0,0,0,0,0,0,6139,6145,6151,6157,6163,6169,6175,6181,6187,6193,6199,6205,6211,6217,6223,6229,6235,0,0,0,0,0,0,0,0,0,0,6251,6257,6263,6269,6275,6281,6287,0,0,0,0,0,0,0,0,0,0,0,0,0,0,0,0,0,0,0,0,0,0,0,0,0,0,0,0,0,0,0,0,0,0,0,0,0,0,0,0,0,0,0,0,0,0,0,0,0,0,0,0,0,0,0,0,0,0,0,0,0,0,0,0,0,0,0,0,0,0,0,0,0,0,0,0,0,0,0,0,0,0,0,0,0,0,0,0,0,0,0,0,0,0,6139,6145,6151,6157,6163,6169,6175,6181,6187,6193,6199,6205,6211,6217,6223,6229,6235,0,0,0,0,0,0,0,0,0,0,6251,6257,6263,6269,6275,6281,6287,0,0,0,0,0,0,0,0,0,0,0,0,0,0,0,0,0,0,0,0,0,0,0,0,0,0,0,0,0,0,0,0,0,0,0,0,0,0,0,0,0,0,0,0,0,0,0,0,0,0,0,0,0,0,0,0,0,0,0,0,0,0,0,0,0,0,0,0,0,0,0,0,0,0,0,0,0,0,0,0,0,0,0,0,0,0,0,0,0,0,0,0,0,0,0,6302,6308,6314,6320,6326,6332,6338,6344,6350,6356,6362,6368,6374,6380,6386,6392,6398,0,0,0,0,0,0,0,0,6412,6418,6424,6430,6436,6442,6448,6454,0,0,0,0,0,0,0,0,0,0,0,0,0,0,0,0,0,0,0,0,0,0,0,0,0,0,0,0,0,0,0,0,0,0,0,0,0,0,0,0,0,0,0,0,0,0,0,0,0,0,0,0,0,0,0,0,0,0,0,0,0,0,0,0,0,0,0,0,0,0,0,0,0,0,0,0,0,0,0,0,0,0,0,0,0,0,0,0,0,0,0,0,0,0,0,6302,6308,6314,6320,6326,6332,6338,6344,6350,6356,6362,6368,6374,6380,6386,6392,6398,0,0,0,0,0,0,0,0,6412,6418,6424,6430,6436,6442,6448,6454,0,0,0,0,0,0,0,0,0,0,0,0,0,0,0,0,0,0,0,0,0,0,0,0,0,0,0,0,0,0,0,0,0,0,0,0,0,0,0,0,0,0,0,0,0,0,0,0,0,0,0,0,0,0,0,0,0,0,0,0,0,0,0,0,0,0,0,0,0,0,0,0,0,0,0,0,0,0,0,0,0,0,0,0,0,0,0,0,0,0,0,0,0,0,0,0,0,6471,6477,6483,6489,6495,6501,6507,6513,6519,6525,6531,6537,6543,6549,6555,6561,0,0,0,0,0,0,6573,6579,6585,6591,6597,6603,6609,6615,6621,6627,0,0,0,0,0,0,0,0,0,0,0,0,0,0,0,0,0,0,0,0,0,0,0,0,0,0,0,0,0,0,0,0,0,0,0,0,0,0,0,0,0,0,0,0,0,0,0,0,0,0,0,0,0,0,0,0,0,0,0,0,0,0,0,0,0,0,0,0,0,0,0,0,0,0,0,0,0,0,0,0,0,0,0,0,0,0,0,0,0,0,0,0,0,0,0,0,6471,6477,6483,6489,6495,6501,6507,6513,6519,6525,6531,6537,6543,6549,6555,6561,0,0,0,0,0,0,6573,6579,6585,6591,6597,6603,6609,6615,6621,6627,0,0,0,0,0,0,0,0,0,0,0,0,0,0,0,0,0,0,0,0,0,0,0,0,0,0,0,0,0,0,0,0,0,0,0,0,0,0,0,0,0,0,0,0,0,0,0,0,0,0,0,0,0,0,0,0,0,0,0,0,0,0,0,0,0,0,0,0,0,0,0,0,0,0,0,0,0,0,0,0,0,0,0,0,0,0,0,0,0,0,0,0,0,0,0,0,0,0,6645,6651,6657,6663,6669,6675,6681,6687,6693,6699,6705,6711,6717,6723,6729,0,0,0,0,6739,6745,6751,6757,6763,6769,6775,6781,6787,6793,6799,0,0,0,0,0,0,0,0,0,0,0,0,0,0,0,0,0,0,0,0,0,0,0,0,0,0,0,0,0,0,0,0,0,0,0,0,0,0,0,0,0,0,0,0,0,0,0,0,0,0,0,0,0,0,0,0,0,0,0,0,0,0,0,0,0,0,0,0,0,0,0,0,0,0,0,0,0,0,0,0,0,0,0,0,0,0,0,0,0,0,0,0,0,0,0,0,0,0,6645,6651,6657,6663,6669,6675,6681,6687,6693,6699,6705,6711,6717,6723,6729,0,0,0,0,6739,6745,6751,6757,6763,6769,6775,6781,6787,6793,6799,0,0,0,0,0,0,0,0,0,0,0,0,0,0,0,0,0,0,0,0,0,0,0,0,0,0,0,0,0,0,0,0,0,0,0,0,0,0,0,0,0,0,0,0,0,0,0,0,0,0,0,0,0,0,0,0,0,0,0,0,0,0,0,0,0,0,0,0,0,0,0,0,0,0,0,0,0,0,0,0,0,0,0,0,0,0,0,0,0,0,0,0,0,0,0,0,0,0,0,6818,6824,6830,6836,6842,6848,6854,6860,6866,6872,6878,6884,6890,6896,6902,6908,6914,6920,6926,6932,6938,6944,6950,6956,6962,6968,6974,6980,6986,0,0,0,0,0,0,0,0,0,0,0,0,0,0,0,0,0,0,0,0,0,0,0,0,0,0,0,0,0,0,0,0,0,0,0,0,0,0,0,0,0,0,0,0,0,0,0,0,0,0,0,0,0,0,0,0,0,0,0,0,0,0,0,0,0,0,0,0,0,0,0,0,0,0,0,0,0,0,0,0,0,0,0,0,0,0,0,0,0,0,0,0,0,0,0,0,0,0,0,6818,6824,6830,6836,6842,6848,6854,6860,6866,6872,6878,6884,6890,6896,6902,6908,6914,6920,6926,6932,6938,6944,6950,6956,6962,6968,6974,6980,6986,0,0,0,0,0,0,0,0,0,0,0,0,0,0,0,0,0,0,0,0,0,0,0,0,0,0,0,0,0,0,0,0,0,0,0,0,0,0,0,0,0,0,0,0,0,0,0,0,0,0,0,0,0,0,0,0,0,0,0,0,0,0,0,0,0,0,0,0,0,0,0,0,0,0,0,0,0,0,0,0,0,0,0,0,0,0,0,0,0,0,0,0,0,0,0,0,0,0,0,0,7006,7012,7018,7024,7030,7036,7042,7048,7054,7060,7066,7072,7078,7084,7090,7096,7102,7108,7114,7120,7126,7132,7138,7144,7150,7156,7162,7168,0,0,0,0,0,0,0,0,0,0,0,0,0,0,0,0,0,0,0,0,0,0,0,0,0,0,0,0,0,0,0,0,0,0,0,0,0,0,0,0,0,0,0,0,0,0,0,0,0,0,0,0,0,0,0,0,0,0,0,0,0,0,0,0,0,0,0,0,0,0,0,0,0,0,0,0,0,0,0,0,0,0,0,0,0,0,0,0,0,0,0,0,0,0,0,0,0,0,0,0,7006,7012,7018,7024,7030,7036,7042,7048,7054,7060,7066,7072,7078,7084,7090,7096,7102,7108,7114,7120,7126,7132,7138,7144,7150,7156,7162,7168,0,0,0,0,0,0,0,0,0,0,0,0,0,0,0,0,0,0,0,0,0,0,0,0,0,0,0,0,0,0,0,0,0,0,0,0,0,0,0,0,0,0,0,0,0,0,0,0,0,0,0,0,0,0,0,0,0,0,0,0,0,0,0,0,0,0,0,0,0,0,0,0,0,0,0,0,0,0,0,0,0,0,0,0,0,0,0,0,0,0,0,0,0,0,0,0,0,0,0,0,0,7189,7195,7201,7207,7213,7219,7225,7231,7237,7243,7249,7255,7261,7267,7273,7279,7285,7291,7297,7303,7309,7315,7321,7327,7333,7339,0,0,0,0,0,0,0,0,0,0,0,0,0,0,0,0,0,0,0,0,0,0,0,0,0,0,0,0,0,0,0,0,0,0,0,0,0,0,0,0,0,0,0,0,0,0,0,0,0,0,0,0,0,0,0,0,0,0,0,0,0,0,0,0,0,0,0,0,0,0,0,0,0,0,0,0,0,0,0,0,0,0,0,0,0,0,0,0,0,0,0,0,0,0,0,0,0,0,0,0,0,0,7189,7195,7201,7207,7213,7219,7225,7231,7237,7243,7249,7255,7261,7267,7273,7279,7285,7291,7297,7303,7309,7315,7321,7327,7333,7339,0,0,0,0,0,0,0,0,0,0,0,0,0,0,0,0,0,0,0,0,0,0,0,0,0,0,0,0,0,0,0,0,0,0,0,0,0,0,0,0,0,0,0,0,0,0,0,0,0,0,0,0,0,0,0,0,0,0,0,0,0,0,0,0,0,0,0,0,0,0,0,0,0,0,0,0,0,0,0,0,0,0,0,0,0,0,0,0,0,0,0,0,0,0,0,0,0,0,0,0,0,0,7361,7367,7373,7379,7385,7391,7397,7403,7409,7415,7421,7427,7433,7439,7445,7451,7457,7463,7469,7475,7481,7487,7493,7499,7505,7511,0,0,0,0,0,0,0,0,0,0,0,0,0,0,0,0,0,0,0,0,0,0,0,0,0,0,0,0,0,0,0,0,0,0,0,0,0,0,0,0,0,0,0,0,0,0,0,0,0,0,0,0,0,0,0,0,0,0,0,0,0,0,0,0,0,0,0,0,0,0,0,0,0,0,0,0,0,0,0,0,0,0,0,0,0,0,0,0,0,0,0,0,0,0,0,0,0,0,0,0,0,0,7361,7367,7373,7379,7385,7391,7397,7403,7409,7415,7421,7427,7433,7439,7445,7451,7457,7463,7469,7475,7481,7487,7493,7499,7505,7511,0,0,0,0,0,0,0,0,0,0,0,0,0,0,0,0,0,0,0,0,0,0,0,0,0,0,0,0,0,0,0,0,0,0,0,0,0,0,0,0,0,0,0,0,0,0,0,0,0,0,0,0,0,0,0,0,0,0,0,0,0,0,0,0,0,0,0,0,0,0,0,0,0,0,0,0,0,0,0,0,0,0,0,0,0,0,0,0,0,0,0,0,0,0,0,0,0,0,0,0,0,0,0,7534,7540,7546,7552,7558,7564,7570,7576,7582,7588,7594,7600,7606,7612,7618,7624,7630,7636,7642,7648,7654,7660,7666,7672,7678,0,0,0,0,0,0,0,0,0,0,0,0,0,0,0,0,0,0,0,0,0,0,0,0,0,0,0,0,0,0,0,0,0,0,0,0,0,0,0,0,0,0,0,0,0,0,0,0,0,0,0,0,0,0,0,0,0,0,0,0,0,0,0,0,0,0,0,0,0,0,0,0,0,0,0,0,0,0,0,0,0,0,0,0,0,0,0,0,0,0,0,0,0,0,0,0,0,0,0,0,0,0,0,7534,7540,7546,7552,7558,7564,7570,7576,7582,7588,7594,7600,7606,7612,7618,7624,7630,7636,7642,7648,7654,7660,7666,7672,7678,0,0,0,0,0,0,0,0,0,0,0,0,0,0,0,0,0,0,0,0,0,0,0,0,0,0,0,0,0,0,0,0,0,0,0,0,0,0,0,0,0,0,0,0,0,0,0,0,0,0,0,0,0,0,0,0,0,0,0,0,0,0,0,0,0,0,0,0,0,0,0,0,0,0,0,0,0,0,0,0,0,0,0,0,0,0,0,0,0,0,0,0,0,0,0,0,0,0,0,0,0,0,0,7701,7707,7713,7719,7725,7731,7737,7743,7749,7755,7761,7767,7773,7779,7785,7791,7797,7803,7809,7815,7821,7827,7833,7839,7845,0,0,0,0,0,0,0,0,0,0,0,0,0,0,0,0,0,0,0,0,0,0,0,0,0,0,0,0,0,0,0,0,0,0,0,0,0,0,0,0,0,0,0,0,0,0,0,0,0,0,0,0,0,0,0,0,0,0,0,0,0,0,0,0,0,0,0,0,0,0,0,0,0,0,0,0,0,0,0,0,0,0,0,0,0,0,0,0,0,0,0,0,0,0,0,0,0,0,0,0,0,0,0,7701,7707,7713,7719,7725,7731,7737,7743,7749,7755,7761,7767,7773,7779,7785,7791,7797,7803,7809,7815,7821,7827,7833,7839,7845,0,0,0,0,0,0,0,0,0,0,0,0,0,0,0,0,0,0,0,0,0,0,0,0,0,0,0,0,0,0,0,0,0,0,0,0,0,0,0,0,0,0,0,0,0,0,0,0,0,0,0,0,0,0,0,0,0,0,0,0,0,0,0,0,0,0,0,0,0,0,0,0,0,0,0,0,0,0,0,0,0,0,0,0,0,0,0,0,0,0,0,0,0,0,0,0,0,0,0,0,0,0,0,7868,7874,7880,7886,7892,7898,7904,7910,7916,7922,7928,7934,7940,7946,7952,7958,7964,7970,7976,7982,7988,7994,8000,8006,0,0,0,0,0,0,0,0,0,0,0,0,0,0,0,0,0,0,0,0,0,0,0,0,0,0,0,0,0,0,0,0,0,0,0,0,0,0,0,0,0,0,0,0,0,0,0,0,0,0,0,0,0,0,0,0,0,0,0,0,0,0,0,0,0,0,0,0,0,0,0,0,0,0,0,0,0,0,0,0,0,0,0,0,0,0,0,0,0,0,0,0,0,0,0,0,0,0,0,0,0,0,0,0,7868,7874,7880,7886,7892,7898,7904,7910,7916,7922,7928,7934,7940,7946,7952,7958,7964,7970,7976,7982,7988,7994,8000,8006,0,0,0,0,0,0,0,0,0,0,0,0,0,0,0,0,0,0,0,0,0,0,0,0,0,0,0,0,0,0,0,0,0,0,0,0,0,0,0,0,0,0,0,0,0,0,0,0,0,0,0,0,0,0,0,0,0,0,0,0,0,0,0,0,0,0,0,0,0,0,0,0,0,0,0,0,0,0,0,0,0,0,0,0,0,0,0,0,0,0,0,0,0,0,0,0,0,0,0,0,0,0,0,0,0,8031,8037,8043,8049,8055,8061,8067,8073,8079,8085,8091,8097,8103,8109,8115,8121,8127,8133,8139,8145,8151,8157,8163,0,0,0,0,0,0,0,0,0,0,0,0,0,0,0,0,0,0,0,0,0,0,0,0,0,0,0,0,0,0,0,0,0,0,0,0,0,0,0,0,0,0,0,0,0,0,0,0,0,0,0,0,0,0,0,0,0,0,0,0,0,0,0,0,0,0,0,0,0,0,0,0,0,0,0,0,0,0,0,0,0,0,0,0,0,0,0,0,0,0,0,0,0,0,0,0,0,0,0,0,0,0,0,0,0,8031,8037,8043,8049,8055,8061,8067,8073,8079,8085,8091,8097,8103,8109,8115,8121,8127,8133,8139,8145,8151,8157,8163,0,0,0,0,0,0,0,0,0,0,0,0,0,0,0,0,0,0,0,0,0,0,0,0,0,0,0,0,0,0,0,0,0,0,0,0,0,0,0,0,0,0,0,0,0,0,0,0,0,0,0,0,0,0,0,0,0,0,0,0,0,0,0,0,0,0,0,0,0,0,0,0,0,0,0,0,0,0,0,0,0,0,0,0,0,0,0,0,0,0,0,0,0,0,0,0,0,0,0,0,0,0,0,0,0,0,0,0,0,8192,8198,8204,8210,8216,8222,8228,8234,8240,8246,8252,8258,8264,8270,8276,8282,8288,8294,8300,0,0,0,0,0,0,0,0,0,0,0,0,0,0,0,0,0,0,0,0,0,0,0,0,0,0,0,0,0,0,0,0,0,0,0,0,0,0,0,0,0,0,0,0,0,0,0,0,0,0,0,0,0,0,0,0,0,0,0,0,0,0,0,0,0,0,0,0,0,0,0,0,0,0,0,0,0,0,0,0,0,0,0,0,0,0,0,0,0,0,0,0,0,0,0,0,0,0,0,0,0,0,0,0,0,0,0,0,0,8192,8198,8204,8210,8216,8222,8228,8234,8240,8246,8252,8258,8264,8270,8276,8282,8288,8294,8300,0,0,0,0,0,0,0,0,0,0,0,0,0,0,0,0,0,0,0,0,0,0,0,0,0,0,0,0,0,0,0,0,0,0,0,0,0,0,0,0,0,0,0,0,0,0,0,0,0,0,0,0,0,0,0,0,0,0,0,0,0,0,0,0,0,0,0,0,0,0,0,0,0,0,0,0,0,0,0,0,0,0,0,0,0,0,0,0,0,0,0,0,0,0,0,0,0,0,0,0,0,0,0,0,0,0,0,0,0,8329,8335,8341,8347,8353,8359,8365,8371,8377,8383,8389,8395,8401,8407,8413,8419,8425,8431,0,0,0,0,0,0,0,0,0,0,0,0,0,0,0,0,0,0,0,0,0,0,0,0,0,0,0,0,0,0,0,0,0,0,0,0,0,0,0,0,0,0,0,0,0,0,0,0,0,0,0,0,0,0,0,0,0,0,0,0,0,0,0,0,0,0,0,0,0,0,0,0,0,0,0,0,0,0,0,0,0,0,0,0,0,0,0,0,0,0,0,0,0,0,0,0,0,0,0,0,0,0,0,0,0,0,0,0,0,0,8329,8335,8341,8347,8353,8359,8365,8371,8377,8383,8389,8395,8401,8407,8413,8419,8425,8431,0,0,0,0,0,0,0,0,0,0,0,0,0,0,0,0,0,0,0,0,0,0,0,0,0,0,0,0,0,0,0,0,0,0,0,0,0,0,0,0,0,0,0,0,0,0,0,0,0,0,0,0,0,0,0,0,0,0,0,0,0,0,0,0,0,0,0,0,0,0,0,0,0,0,0,0,0,0,0,0,0,0,0,0,0,0,0,0,0,0,0,0,0,0,0,0,0,0,0,0,0,0,0,0,0,0,0,0,0,0,0,8462,8468,8474,8480,8486,8492,8498,8504,8510,8516,8522,8528,8534,8540,8546,8552,0,0,0,0,0,0,0,0,0,0,0,0,0,0,0,0,0,0,0,0,0,0,0,0,0,0,0,0,0,0,0,0,0,0,0,0,0,0,0,0,0,0,0,0,0,0,0,0,0,0,0,0,0,0,0,0,0,0,0,0,0,0,0,0,0,0,0,0,0,0,0,0,0,0,0,0,0,0,0,0,0,0,0,0,0,0,0,0,0,0,0,0,0,0,0,0,0,0,0,0,0,0,0,0,0,0,0,0,0,0,0,0,8462,8468,8474,8480,8486,8492,8498,8504,8510,8516,8522,8528,8534,8540,8546,8552,0,0,0,0,0,0,0,0,0,0,0,0,0,0,0,0,0,0,0,0,0,0,0,0,0,0,0,0,0,0,0,0,0,0,0,0,0,0,0,0,0,0,0,0,0,0,0,0,0,0,0,0,0,0,0,0,0,0,0,0,0,0,0,0,0,0,0,0,0,0,0,0,0,0,0,0,0,0,0,0,0,0,0,0,0,0,0,0,0,0,0,0,0,0,0,0,0,0,0,0,0,0,0,0,0,0,0,0,0,0,0,0,0,8585,8591,8597,8603,8609,8615,8621,8627,8633,8639,8645,8651,0,0,0,0,0,0,0,0,0,0,0,0,0,0,0,0,0,0,0,0,0,0,0,0,0,0,0,0,0,0,0,0,0,0,0,0,0,0,0,0,0,0,0,0,0,0,0,0,0,0,0,0,0,0,0,0,0,0,0,0,0,0,0,0,0,0,0,0,0,0,0,0,0,0,0,0,0,0,0,0,0,0,0,0,0,0,0,0,0,0,0,0,0,0,0,0,0,0,0,0,0,0,0,0,0,0,0,0,0,0,0,0,0,0,0,0,8585,8591,8597,8603,8609,8615,8621,8627,8633,8639,8645,8651,0,0,0,0,0,0,0,0,0,0,0,0,0,0,0,0,0,0,0,0,0,0,0,0,0,0,0,0,0,0,0,0,0,0,0,0,0,0,0,0,0,0,0,0,0,0,0,0,0,0,0,0,0,0,0,0,0,0,0,0,0,0,0,0,0,0,0,0,0,0,0,0,0,0,0,0,0,0,0,0,0,0,0,0,0,0,0,0,0,0,0,0,0,0,0,0,0,0,0,0,0,0,0,0,0,0,0,0,0,0,0,0,0,0,0,0,0,8688,8694,8700,8706,8712,8718,8724,8730,8736,8742,0,0,0,0,0,0,0,0,0,0,0,0,0,0,0,0,0,0,0,0,0,0,0,0,0,0,0,0,0,0,0,0,0,0,0,0,0,0,0,0,0,0,0,0,0,0,0,0,0,0,0,0,0,0,0,0,0,0,0,0,0,0,0,0,0,0,0,0,0,0,0,0,0,0,0,0,0,0,0,0,0,0,0,0,0,0,0,0,0,0,0,0,0,0,0,0,0,0,0,0,0,0,0,0,0,0,0,0,0,0,0,0,0,0,0,0,0,0,8688,8694,8700,8706,8712,8718,8724,8730,8736,8742,0,0,0,0,0,0,0,0,0,0,0,0,0,0,0,0,0,0,0,0,0,0,0,0,0,0,0,0,0,0,0,0,0,0,0,0,0,0,0,0,0,0,0,0,0,0,0,0,0,0,0,0,0,0,0,0,0,0,0,0,0,0,0,0,0,0,0,0,0,0,0,0,0,0,0,0,0,0,0,0,0,0,0,0,0,0,0,0,0,0,0,0,0,0,0,0,0,0,0,0,0,0,0,0,0,0,0,0,0,0,0,0,0,0,0,0,0,0,0,8781,8787,8793,8799,8805,8811,8817,8823,0,0,0,0,0,0,0,0,0,0,0,0,0,0,0,0,0,0,0,0,0,0,0,0,0,0,0,0,0,0,0,0,0,0,0,0,0,0,0,0,0,0,0,0,0,0,0,0,0,0,0,0,0,0,0,0,0,0,0,0,0,0,0,0,0,0,0,0,0,0,0,0,0,0,0,0,0,0,0,0,0,0,0,0,0,0,0,0,0,0,0,0,0,0,0,0,0,0,0,0,0,0,0,0,0,0,0,0,0,0,0,0,0,0,0,0,0,0,0,0,8781,8787,8793,8799,8805,8811,8817,8823,0,0,0,0,0,0,0,0,0,0,0,0,0,0,0,0,0,0,0,0,0,0,0,0,0,0,0,0,0,0,0,0,0,0,0,0,0,0,0,0,0,0,0,0,0,0,0,0,0,0,0,0,0,0,0,0,0,0,0,0,0,0,0,0,0,0,0,0,0,0,0,0,0,0,0,0,0,0,0,0,0,0,0,0,0,0,0,0,0,0,0,0,0,0,0,0,0,0,0,0,0,0,0,0,0,0,0,0,0,0,0,0,0,0,0,0,0,0,0,0,8863,8869,8875,8881,8887,8893,8899,0,0,0,0,0,0,0,0,0,0,0,0,0,0,0,0,0,0,0,0,0,0,0,0,0,0,0,0,0,0,0,0,0,0,0,0,0,0,0,0,0,0,0,0,0,0,0,0,0,0,0,0,0,0,0,0,0,0,0,0,0,0,0,0,0,0,0,0,0,0,0,0,0,0,0,0,0,0,0,0,0,0,0,0,0,0,0,0,0,0,0,0,0,0,0,0,0,0,0,0,0,0,0,0,0,0,0,0,0,0,0,0,0,0,0,0,0,0,0,0,0,8863,8869,8875,8881,8887,8893,8899,0,0,0,0,0,0,0,0,0,0,0,0,0,0,0,0,0,0,0,0,0,0,0,0,0,0,0,0,0,0,0,0,0,0,0,0,0,0,0,0,0,0,0,0,0,0,0,0,0,0,0,0,0,0,0,0,0,0,0,0,0,0,0,0,0,0,0,0,0,0,0,0,0,0,0,0,0,0,0,0,0,0,0,0,0,0,0,0,0,0,0,0,0,0,0,0,0,0,0,0,0,0,0,0,0,0,0,0,0,0,0,0,0,0,0,0,0,0,0,0,8939,8945,8951,8957,8963,8969,8975,0,0,0,0,0,0,0,0,0,0,0,0,0,0,0,0,0,0,0,0,0,0,0,0,0,0,0,0,0,0,0,0,0,0,0,0,0,0,0,0,0,0,0,0,0,0,0,0,0,0,0,0,0,0,0,0,0,0,0,0,0,0,0,0,0,0,0,0,0,0,0,0,0,0,0,0,0,0,0,0,0,0,0,0,0,0,0,0,0,0,0,0,0,0,0,0,0,0,0,0,0,0,0,0,0,0,0,0,0,0,0,0,0,0,0,0,0,0,0,0,0,8939,8945,8951,8957,8963,8969,8975,0,0,0,0,0,0,0,0,0,0,0,0,0,0,0,0,0,0,0,0,0,0,0,0,0,0,0,0,0,0,0,0,0,0,0,0,0,0,0,0,0,0,0,0,0,0,0,0,0,0,0,0,0,0,0,0,0,0,0,0,0,0,0,0,0,0,0,0,0,0,0,0,0,0,0,0,0,0,0,0,0,0,0,0,0,0,0,0,0,0,0,0,0,0,0,0,0,0,0,0,0,0,0,0,0,0,0,0,0,0,0,0,0,0,0,0,0,0,0,0,0,9016,9022,9028,9034,9040,9046,9052,0,0,0,0,0,0,0,0,0,0,0,0,0,0,0,0,0,0,0,0,0,0,0,0,0,0,0,0,0,0,0,0,0,0,0,0,0,0,0,0,0,0,0,0,0,0,0,0,0,0,0,0,0,0,0,0,0,0,0,0,0,0,0,0,0,0,0,0,0,0,0,0,0,0,0,0,0,0,0,0,0,0,0,0,0,0,0,0,0,0,0,0,0,0,0,0,0,0,0,0,0,0,0,0,0,0,0,0,0,0,0,0,0,0,0,0,0,0,0,0,0,9016,9022,9028,9034,9040,9046,9052,0,0,0,0,0,0,0,0,0,0,0,0,0,0,0,0,0,0,0,0,0,0,0,0,0,0,0,0,0,0,0,0,0,0,0,0,0,0,0,0,0,0,0,0,0,0,0,0,0,0,0,0,0,0,0,0,0,0,0,0,0,0,0,0,0,0,0,0,0,0,0,0,0,0,0,0,0,0,0,0,0,0,0,0,0,0,0,0,0,0,0,0,0,0,0,0,0,0,0,0,0,0,0,0,0,0,0,0,0,0,0,0,0,0,0,0,0,0,0,0,0,9093,9099,9105,9111,9117,9123,9129,9135,0,0,0,0,0,0,0,0,0,0,0,0,0,0,0,0,0,0,0,0,0,0,0,0,0,0,0,0,0,0,0,0,0,0,0,0,0,0,0,0,0,0,0,0,0,0,0,0,0,0,0,0,0,0,0,0,0,0,0,0,0,0,0,0,0,0,0,0,0,0,0,0,0,0,0,0,0,0,0,0,0,0,0,0,0,0,0,0,0,0,0,0,0,0,0,0,0,0,0,0,0,0,0,0,0,0,0,0,0,0,0,0,0,0,0,0,0,0,0,0,9093,9099,9105,9111,9117,9123,9129,9135,0,0,0,0,0,0,0,0,0,0,0,0,0,0,0,0,0,0,0,0,0,0,0,0,0,0,0,0,0,0,0,0,0,0,0,0,0,0,0,0,0,0,0,0,0,0,0,0,0,0,0,0,0,0,0,0,0,0,0,0,0,0,0,0,0,0,0,0,0,0,0,0,0,0,0,0,0,0,0,0,0,0,0,0,0,0,0,0,0,0,0,0,0,0,0,0,0,0,0,0,0,0,0,0,0,0,0,0,0,0,0,0,0,0,0,0,0,0,0,0,9175,9181,9187,9193,9199,9205,9211,9217,0,0,0,0,0,0,0,0,0,0,0,0,0,0,0,0,0,0,0,0,0,0,0,0,0,0,0,0,0,0,0,0,0,0,0,0,0,0,0,0,0,0,0,0,0,0,0,0,0,0,0,0,0,0,0,0,0,0,0,0,0,0,0,0,0,0,0,0,0,0,0,0,0,0,0,0,0,0,0,0,0,0,0,0,0,0,0,0,0,0,0,0,0,0,0,0,0,0,0,0,0,0,0,0,0,0,0,0,0,0,0,0,0,0,0,0,0,0,0,0,9175,9181,9187,9193,9199,9205,9211,9217,0,0,0,0,0,0,0,0,0,0,0,0,0,0,0,0,0,0,0,0,0,0,0,0,0,0,0,0,0,0,0,0,0,0,0,0,0,0,0,0,0,0,0,0,0,0,0,0,0,0,0,0,0,0,0,0,0,0,0,0,0,0,0,0,0,0,0,0,0,0,0,0,0,0,0,0,0,0,0,0,0,0,0,0,0,0,0,0,0,0,0,0,0,0,0,0,0,0,0,0,0,0,0,0,0,0,0,0,0,0,0,0,0,0,0,0,0,0,0,0,0,9258,9264,9270,9276,9282,9288,9294,0,0,0,0,0,0,0,0,0,0,0,0,0,0,0,0,0,0,0,0,0,0,0,0,0,0,0,0,0,0,0,0,0,0,0,0,0,0,0,0,0,0,0,0,0,0,0,0,0,0,0,0,0,0,0,0,0,0,0,0,0,0,0,0,0,0,0,0,0,0,0,0,0,0,0,0,0,0,0,0,0,0,0,0,0,0,0,0,0,0,0,0,0,0,0,0,0,0,0,0,0,0,0,0,0,0,0,0,0,0,0,0,0,0,0,0,0,0,0,0,0,9258,9264,9270,9276,9282,9288,9294,0,0,0,0,0,0,0,0,0,0,0,0,0,0,0,0,0,0,0,0,0,0,0,0,0,0,0,0,0,0,0,0,0,0,0,0,0,0,0,0,0,0,0,0,0,0,0,0,0,0,0,0,0,0,0,0,0,0,0,0,0,0,0,0,0,0,0,0,0,0,0,0,0,0,0,0,0,0,0,0,0,0,0,0,0,0,0,0,0,0,0,0,0,0,0,0,0,0,0,0,0,0,0,0,0,0,0,0,0,0,0,0,0,0,0,0,0,0,0,0,0,9335,9341,9347,9353,9359,9365,9371,0,0,0,0,0,0,0,0,0,0,0,0,0,0,0,0,0,0,0,0,0,0,0,0,0,0,0,0,0,0,0,0,0,0,0,0,0,0,0,0,0,0,0,0,0,0,0,0,0,0,0,0,0,0,0,0,0,0,0,0,0,0,0,0,0,0,0,0,0,0,0,0,0,0,0,0,0,0,0,0,0,0,0,0,0,0,0,0,0,0,0,0,0,0,0,0,0,0,0,0,0,0,0,0,0,0,0,0,0,0,0,0,0,0,0,0,0,0,0,0,0,9335,9341,9347,9353,9359,9365,9371,0,0,0,0,0,0,0,0,0,0,0,0,0,0,0,0,0,0,0,0,0,0,0,0,0,0,0,0,0,0,0,0,0,0,0,0,0,0,0,0,0,0,0,0,0,0,0,0,0,0,0,0,0,0,0,0,0,0,0,0,0,0,0,0,0,0,0,0,0,0,0,0,0,0,0,0,0,0,0,0,0,0,0,0,0,0,0,0,0,0,0,0,0,0,0,0,0,0,0,0,0,0,0,0,0,0,0,0,0,0,0,0,0,0,0,0,0,0,0,0,0,9412,9418,9424,9430,9436,9442,0,0,0,0,0,0,0,0,0,0,0,0,0,0,0,0,0,0,0,0,0,0,0,0,0,0,0,0,0,0,0,0,0,0,0,0,0,0,0,0,0,0,0,0,0,0,0,0,0,0,0,0,0,0,0,0,0,0,0,0,0,0,0,0,0,0,0,0,0,0,0,0,0,0,0,0,0,0,0,0,0,0,0,0,0,0,0,0,0,0,0,0,0,0,0,0,0,0,0,0,0,0,0,0,0,0,0,0,0,0,0,0,0,0,0,0,0,0,0,0,0,0,9412,9418,9424,9430,9436,9442,0,0,0,0,0,0,0,0,0,0,0,0,0,0,0,0,0,0,0,0,0,0,0,0,0,0,0,0,0,0,0,0,0,0,0,0,0,0,0,0,0,0,0,0,0,0,0,0,0,0,0,0,0,0,0,0,0,0,0,0,0,0,0,0,0,0,0,0,0,0,0,0,0,0,0,0,0,0,0,0,0,0,0,0,0,0,0,0,0,0,0,0,0,0,0,0,0,0,0,0,0,0,0,0,0,0,0,0,0,0,0,0,0,0,0,0,0,0,0,0,0,0,9484,9490,9496,9502,9508,9514,0,0,0,0,0,0,0,0,0,0,0,0,0,0,0,0,0,0,0,0,0,0,0,0,0,0,0,0,0,0,0,0,0,0,0,0,0,0,0,0,0,0,0,0,0,0,0,0,0,0,0,0,0,0,0,0,0,0,0,0,0,0,0,0,0,0,0,0,0,0,0,0,0,0,0,0,0,0,0,0,0,0,0,0,0,0,0,0,0,0,0,0,0,0,0,0,0,0,0,0,0,0,0,0,0,0,0,0,0,0,0,0,0,0,0,0,0,0,0,0,0,0,9484,9490,9496,9502,9508,9514,0,0,0,0,0,0,0,0,0,0,0,0,0,0,0,0,0,0,0,0,0,0,0,0,0,0,0,0,0,0,0,0,0,0,0,0,0,0,0,0,0,0,0,0,0,0,0,0,0,0,0,0,0,0,0,0,0,0,0,0,0,0,0,0,0,0,0,0,0,0,0,0,0,0,0,0,0,0,0,0,0,0,0,0,0,0,0,0,0,0,0,0,0,0,0,0,0,0,0,0,0,0,0,0,0,0,0,0,0,0,0,0,0,0,0,0,0,0,0,0,0,9555,9561,9567,9573,9579,9585,9591,9597,0,0,0,0,0,0,0,0,0,0,0,0,0,0,0,0,0,0,0,0,0,0,0,0,0,0,0,0,0,0,0,0,0,0,0,0,0,0,0,0,0,0,0,0,0,0,0,0,0,0,0,0,0,0,0,0,0,0,0,0,0,0,0,0,0,0,0,0,0,0,0,0,0,0,0,0,0,0,0,0,0,0,0,0,0,0,0,0,0,0,0,0,0,0,0,0,0,0,0,0,0,0,0,0,0,0,0,0,0,0,0,0,0,0,0,0,0,0,0,0,9555,9561,9567,9573,9579,9585,9591,9597,0,0,0,0,0,0,0,0,0,0,0,0,0,0,0,0,0,0,0,0,0,0,0,0,0,0,0,0,0,0,0,0,0,0,0,0,0,0,0,0,0,0,0,0,0,0,0,0,0,0,0,0,0,0,0,0,0,0,0,0,0,0,0,0,0,0,0,0,0,0,0,0,0,0,0,0,0,0,0,0,0,0,0,0,0,0,0,0,0,0,0,0,0,0,0,0,0,0,0,0,0,0,0,0,0,0,0,0,0,0,0,0,0,0,0,0,0,0,0,0,9637,9643,9649,9655,9661,9667,9673,9679,0,0,0,0,0,0,0,0,0,0,0,0,0,0,0,0,0,0,0,0,0,0,0,0,0,0,0,0,0,0,0,0,0,0,0,0,0,0,0,0,0,0,0,0,0,0,0,0,0,0,0,0,0,0,0,0,0,0,0,0,0,0,0,0,0,0,0,0,0,0,0,0,0,0,0,0,0,0,0,0,0,0,0,0,0,0,0,0,0,0,0,0,0,0,0,0,0,0,0,0,0,0,0,0,0,0,0,0,0,0,0,0,0,0,0,0,0,0,0,0,9637,9643,9649,9655,9661,9667,9673,9679,0,0,0,0,0,0,0,0,0,0,0,0,0,0,0,0,0,0,0,0,0,0,0,0,0,0,0,0,0,0,0,0,0,0,0,0,0,0,0,0,0,0,0,0,0,0,0,0,0,0,0,0,0,0,0,0,0,0,0,0,0,0,0,0,0,0,0,0,0,0,0,0,0,0,0,0,0,0,0,0,0,0,0,0,0,0,0,0,0,0,0,0,0,0,0,0,0,0,0,0,0,0,0,0,0,0,0,0,0,0,0,0,0,0,0,0,0,0,0,0,9719,9725,9731,9737,9743,9749,9755,9761,0,0,0,0,0,0,0,0,0,0,0,0,0,0,0,0,0,0,0,0,0,0,0,0,0,0,0,0,0,0,0,0,0,0,0,0,0,0,0,0,0,0,0,0,0,0,0,0,0,0,0,0,0,0,0,0,0,0,0,0,0,0,0,0,0,0,0,0,0,0,0,0,0,0,0,0,0,0,0,0,0,0,0,0,0,0,0,0,0,0,0,0,0,0,0,0,0,0,0,0,0,0,0,0,0,0,0,0,0,0,0,0,0,0,0,0,0,0,0,0,9719,9725,9731,9737,9743,9749,9755,9761,0,0,0,0,0,0,0,0,0,0,0,0,0,0,0,0,0,0,0,0,0,0,0,0,0,0,0,0,0,0,0,0,0,0,0,0,0,0,0,0,0,0,0,0,0,0,0,0,0,0,0,0,0,0,0,0,0,0,0,0,0,0,0,0,0,0,0,0,0,0,0,0,0,0,0,0,0,0,0,0,0,0,0,0,0,0,0,0,0,0,0,0,0,0,0,0,0,0,0,0,0,0,0,0,0,0,0,0,0,0,0,0,0,0,0,0,0,0,0,0,9801,9807,9813,9819,9825,9831,9837,9843,0,0,0,0,0,0,0,0,0,0,0,0,0,0,0,0,0,0,0,0,0,0,0,0,0,0,0,0,0,0,0,0,0,0,0,0,0,0,0,0,0,0,0,0,0,0,0,0,0,0,0,0,0,0,0,0,0,0,0,0,0,0,0,0,0,0,0,0,0,0,0,0,0,0,0,0,0,0,0,0,0,0,0,0,0,0,0,0,0,0,0,0,0,0,0,0,0,0,0,0,0,0,0,0,0,0,0,0,0,0,0,0,0,0,0,0,0,0,0,0,9801,9807,9813,9819,9825,9831,9837,9843,0,0,0,0,0,0,0,0,0,0,0,0,0,0,0,0,0,0,0,0,0,0,0,0,0,0,0,0,0,0,0,0,0,0,0,0,0,0,0,0,0,0,0,0,0,0,0,0,0,0,0,0,0,0,0,0,0,0,0,0,0,0,0,0,0,0,0,0,0,0,0,0,0,0,0,0,0,0,0,0,0,0,0,0,0,0,0,0,0,0,0,0,0,0,0,0,0,0,0,0,0,0,0,0,0,0,0,0,0,0,0,0,0,0,0,0,0,0,0,0,9861,9866,9871,9876,9881,9886,9891,9896,0,0,0,0,0,0,0,0,0,0,0,0,0,0,0,0,0,0,0,0,0,0,0,0,0,0,0,0,0,0,0,0,0,0,0,0,0,0,0,0,0,0,0,0,0,0,0,0,0,0,0,0,0,0,0,0,0,0,0,0,0,0,0,0,0,0,0,0,0,0,0,0,0,0,0,0,0,0,0,0,0,0,0,0,0,0,0,0,0,0,0,0,0,0,0,0,0,0,0,0,0,0,0,0,0,0,0,0,0,0,0,0,0,0,0,0,0,0,0,0,9861,9866,9871,9876,9881,9886,9891,9896,0,0,0,0,0,0,0,0,0,0,0,0,0,0,0,0,0,0,0,0,0,0,0,0,0,0,0,0,0,0,0,0,0,0,0,0,0,0,0,0,0,0,0,0,0,0,0,0,0,0,0,0,0,0,0,0,0,0,0,0,0,0,0,0,0,0,0,0,0,0,0,0,0,0,0,0,0,0,0,0,0,0,0,0,0,0,0,0,0,0,0,0,0,0,0,0,0,0,0,0,0,0,0,0,0,0,0,0,0,0,0,0,0,0,0,0,0,0,0,0,9901,9906,9911,9916,9921,9926,9931,9936,0,0,0,0,0,0,0,0,0,0,0,0,0,0,0,0,0,0,0,0,0,0,0,0,0,0,0,0,0,0,0,0,0,0,0,0,0,0,0,0,0,0,0,0,0,0,0,0,0,0,0,0,0,0,0,0,0,0,0,0,0,0,0,0,0,0,0,0,0,0,0,0,0,0,0,0,0,0,0,0,0,0,0,0,0,0,0,0,0,0,0,0,0,0,0,0,0,0,0,0,0,0,0,0,0,0,0,0,0,0,0,0,0,0,0,0,0,0,0,0,9901,9906,9911,9916,9921,9926,9931,9936,0,0,0,0,0,0,0,0,0,0,0,0,0,0,0,0,0,0,0,0,0,0,0,0,0,0,0,0,0,0,0,0,0,0,0,0,0,0,0,0,0,0,0,0,0,0,0,0,0,0,0,0,0,0,0,0,0,0,0,0,0,0,0,0,0,0,0,0,0,0,0,0,0,0,0,0,0,0,0,0,0,0,0,0,0,0,0,0,0,0,0,0,0,0,0,0,0,0,0,0,0,0,0,0,0,0,0,0,0,0,0,0,0,0,0,0,0,0,0,0,9941,9946,9951,9956,9961,9966,9971,9976,0,0,0,0,0,0,0,0,0,0,0,0,0,0,0,0,0,0,0,0,0,0,0,0,0,0,0,0,0,0,0,0,0,0,0,0,0,0,0,0,0,0,0,0,0,0,0,0,0,0,0,0,0,0,0,0,0,0,0,0,0,0,0,0,0,0,0,0,0,0,0,0,0,0,0,0,0,0,0,0,0,0,0,0,0,0,0,0,0,0,0,0,0,0,0,0,0,0,0,0,0,0,0,0,0,0,0,0,0,0,0,0,0,0,0,0,0,0,0,0,9941,9946,9951,9956,9961,9966,9971,9976,0,0,0,0,0,0,0,0,0,0,0,0,0,0,0,0,0,0,0,0,0,0,0,0,0,0,0,0,0,0,0,0,0,0,0,0,0,0,0,0,0,0,0,0,0,0,0,0,0,0,0,0,0,0,0,0,0,0,0,0,0,0,0,0,0,0,0,0,0,0,0,0,0,0,0,0,0,0,0,0,0,0,0,0,0,0,0,0,0,0,0,0,0,0,0,0,0,0,0,0,0,0,0,0,0,0,0,0,0,0,0,0,0,0,0,0,0,0,0,0,9981,9986,9991,9996,10001,10006,10011,10016,0,0,0,0,0,0,0,0,0,0,0,0,0,0,0,0,0,0,0,0,0,0,0,0,0,0,0,0,0,0,0,0,0,0,0,0,0,0,0,0,0,0,0,0,0,0,0,0,0,0,0,0,0,0,0,0,0,0,0,0,0,0,0,0,0,0,0,0,0,0,0,0,0,0,0,0,0,0,0,0,0,0,0,0,0,0,0,0,0,0,0,0,0,0,0,0,0,0,0,0,0,0,0,0,0,0,0,0,0,0,0,0,0,0,0,0,0,0,0,0,9981,9986,9991,9996,10001,10006,10011,10016,0,0,0,0,0,0,0,0,0,0,0,0,0,0,0,0,0,0,0,0,0,0,0,0,0,0,0,0,0,0,0,0,0,0,0,0,0,0,0,0,0,0,0,0,0,0,0,0,0,0,0,0,0,0,0,0,0,0,0,0,0,0,0,0,0,0,0,0,0,0,0,0,0,0,0,0,0,0,0,0,0,0,0,0,0,0,0,0,0,0,0,0,0,0,0,0,0,0,0,0,0,0,0,0,0,0,0,0,0,0,0,0,0,0,0,0,0,0,0,0,10021,10026,10031,10036,10041,10046,10051,10056,0,0,0,0,0,0,0,0,0,0,0,0,0,0,0,0,0,0,0,0,0,0,0,0,0,0,0,0,0,0,0,0,0,0,0,0,0,0,0,0,0,0,0,0,0,0,0,0,0,0,0,0,0,0,0,0,0,0,0,0,0,0,0,0,0,0,0,0,0,0,0,0,0,0,0,0,0,0,0,0,0,0,0,0,0,0,0,0,0,0,0,0,0,0,0,0,0,0,0,0,0,0,0,0,0,0,0,0,0,0,0,0,0,0,0,0,0,0,0,0,10021,10026,10031,10036,10041,10046,10051,10056,0,0,0,0,0,0,0,0,0,0,0,0,0,0,0,0,0,0,0,0,0,0,0,0,0,0,0,0,0,0,0,0,0,0,0,0,0,0,0,0,0,0,0,0,0,0,0,0,0,0,0,0,0,0,0,0,0,0,0,0,0,0,0,0,0,0,0,0,0,0,0,0,0,0,0,0,0,0,0,0,0,0,0,0,0,0,0,0,0,0,0,0,0,0,0,0,0,0,0,0,0,0,0,0,0,0,0,0,0,0,0,0,0,0,0,0,0,0,0,0,10061,10066,10071,10076,10081,10086,10091,10096,0,0,0,0,0,0,0,0,0,0,0,0,0,0,0,0,0,0,0,0,0,0,0,0,0,0,0,0,0,0,0,0,0,0,0,0,0,0,0,0,0,0,0,0,0,0,0,0,0,0,0,0,0,0,0,0,0,0,0,0,0,0,0,0,0,0,0,0,0,0,0,0,0,0,0,0,0,0,0,0,0,0,0,0,0,0,0,0,0,0,0,0,0,0,0,0,0,0,0,0,0,0,0,0,0,0,0,0,0,0,0,0,0,0,0,0,0,0,0,0,10061,10066,10071,10076,10081,10086,10091,10096,0,0,0,0,0,0,0,0,0,0,0,0,0,0,0,0,0,0,0,0,0,0,0,0,0,0,0,0,0,0,0,0,0,0,0,0,0,0,0,0,0,0,0,0,0,0,0,0,0,0,0,0,0,0,0,0,0,0,0,0,0,0,0,0,0,0,0,0,0,0,0,0,0,0,0,0,0,0,0,0,0,0,0,0,0,0,0,0,0,0,0,0,0,0,0,0,0,0,0,0,0,0,0,0,0,0,0,0,0,0,0,0,0,0,0,0,0,0,0,0,10101,10106,10111,10116,10121,10126,10131,10136,0,0,0,0,0,0,0,0,0,0,0,0,0,0,0,0,0,0,0,0,0,0,0,0,0,0,0,0,0,0,0,0,0,0,0,0,0,0,0,0,0,0,0,0,0,0,0,0,0,0,0,0,0,0,0,0,0,0,0,0,0,0,0,0,0,0,0,0,0,0,0,0,0,0,0,0,0,0,0,0,0,0,0,0,0,0,0,0,0,0,0,0,0,0,0,0,0,0,0,0,0,0,0,0,0,0,0,0,0,0,0,0,0,0,0,0,0,0,0,0,10101,10106,10111,10116,10121,10126,10131,10136,0,0,0,0,0,0,0,0,0,0,0,0,0,0,0,0,0,0,0,0,0,0,0,0,0,0,0,0,0,0,0,0,0,0,0,0,0,0,0,0,0,0,0,0,0,0,0,0,0,0,0,0,0,0,0,0,0,0,0,0,0,0,0,0,0,0,0,0,0,0,0,0,0,0,0,0,0,0,0,0,0,0,0,0,0,0,0,0,0,0,0,0,0,0,0,0,0,0,0,0,0,0,0,0,0,0,0,0,0,0,0,0,0,0,0,0,0,0,0,0,10141,10146,10151,10156,10161,10166,10171,10176,0,0,0,0,0,0,0,0,0,0,0,0,0,0,0,0,0,0,0,0,0,0,0,0,0,0,0,0,0,0,0,0,0,0,0,0,0,0,0,0,0,0,0,0,0,0,0,0,0,0,0,0,0,0,0,0,0,0,0,0,0,0,0,0,0,0,0,0,0,0,0,0,0,0,0,0,0,0,0,0,0,0,0,0,0,0,0,0,0,0,0,0,0,0,0,0,0,0,0,0,0,0,0,0,0,0,0,0,0,0,0,0,0,0,0,0,0,0,0,0,10141,10146,10151,10156,10161,10166,10171,10176,0,0,0,0,0,0,0,0,0,0,0,0,0,0,0,0,0,0,0,0,0,0,0,0,0,0,0,0,0,0,0,0,0,0,0,0,0,0,0,0,0,0,0,0,0,0,0,0,0,0,0,0,0,0,0,0,0,0,0,0,0,0,0,0,0,0,0,0,0,0,0,0,0,0,0,0,0,0,0,0,0,0,0,0,0,0,0,0,0,0,0,0,0,0,0,0,0,0,0,0,0,0,0,0,0,0,0,0,0,0,0,0,0,0,0,0,0,0,0,0,10181,10186,10191,10196,10201,10206,10211,10216,0,0,0,0,0,0,0,0,0,0,0,0,0,0,0,0,0,0,0,0,0,0,0,0,0,0,0,0,0,0,0,0,0,0,0,0,0,0,0,0,0,0,0,0,0,0,0,0,0,0,0,0,0,0,0,0,0,0,0,0,0,0,0,0,0,0,0,0,0,0,0,0,0,0,0,0,0,0,0,0,0,0,0,0,0,0,0,0,0,0,0,0,0,0,0,0,0,0,0,0,0,0,0,0,0,0,0,0,0,0,0,0,0,0,0,0,0,0,0,0,10181,10186,10191,10196,10201,10206,10211,10216,0,0,0,0,0,0,0,0,0,0,0,0,0,0,0,0,0,0,0,0,0,0,0,0,0,0,0,0,0,0,0,0,0,0,0,0,0,0,0,0,0,0,0,0,0,0,0,0,0,0,0,0,0,0,0,0,0,0,0,0,0,0,0,0,0,0,0,0,0,0,0,0,0,0,0,0,0,0,0,0,0,0,0,0,0,0,0,0,0,0,0,0,0,0,0,0,0,0,0,0,0,0,0,0,0,0,0,0,0,0,0,0,0,0,0,0,0,0,0,0,10221,10226,10231,10236,10241,10246,10251,10256,0,0,0,0,0,0,0,0,0,0,0,0,0,0,0,0,0,0,0,0,0,0,0,0,0,0,0,0,0,0,0,0,0,0,0,0,0,0,0,0,0,0,0,0,0,0,0,0,0,0,0,0,0,0,0,0,0,0,0,0,0,0,0,0,0,0,0,0,0,0,0,0,0,0,0,0,0,0,0,0,0,0,0,0,0,0,0,0,0,0,0,0,0,0,0,0,0,0,0,0,0,0,0,0,0,0,0,0,0,0,0,0,0,0,0,0,0,0,0,0,10221,10226,10231,10236,10241,10246,10251,10256,0,0,0,0,0,0,0,0,0,0,0,0,0,0,0,0,0,0,0,0,0,0,0,0,0,0,0,0,0,0,0,0,0,0,0,0,0,0,0,0,0,0,0,0,0,0,0,0,0,0,0,0,0,0,0,0,0,0,0,0,0,0,0,0,0,0,0,0,0,0,0,0,0,0,0,0,0,0,0,0,0,0,0,0,0,0,0,0,0,0,0,0,0,0,0,0,0,0,0,0,0,0,0,0,0,0,0,0,0,0,0,0,0,0,0,0,0,0,0,0,10101,10106,10111,10116,10121,10126,10131,10136,0,0,0,0,0,0,0,0,0,0,0,0,0,0,0,0,0,0,0,0,0,0,0,0,0,0,0,0,0,0,0,0,0,0,0,0,0,0,0,0,0,0,0,0,0,0,0,0,0,0,0,0,0,0,0,0,0,0,0,0,0,0,0,0,0,0,0,0,0,0,0,0,0,0,0,0,0,0,0,0,0,0,0,0,0,0,0,0,0,0,0,0,0,0,0,0,0,0,0,0,0,0,0,0,0,0,0,0,0,0,0,0,0,0,0,0,0,0,0,0,10101,10106,10111,10116,10121,10126,10131,10136,0,0,0,0,0,0,0,0,0,0,0,0,0,0,0,0,0,0,0,0,0,0,0,0,0,0,0,0,0,0,0,0,0,0,0,0,0,0,0,0,0,0,0,0,0,0,0,0,0,0,0,0,0,0,0,0,0,0,0,0,0,0,0,0,0,0,0,0,0,0,0,0,0,0,0,0,0,0,0,0,0,0,0,0,0,0,0,0,0,0,0,0,0,0,0,0,0,0,0,0,0,0,0,0,0,0,0,0,0,0,0,0,0,0,0,0,0,0,0,0,10141,10146,10151,10156,10161,10166,10171,10176,0,0,0,0,0,0,0,0,0,0,0,0,0,0,0,0,0,0,0,0,0,0,0,0,0,0,0,0,0,0,0,0,0,0,0,0,0,0,0,0,0,0,0,0,0,0,0,0,0,0,0,0,0,0,0,0,0,0,0,0,0,0,0,0,0,0,0,0,0,0,0,0,0,0,0,0,0,0,0,0,0,0,0,0,0,0,0,0,0,0,0,0,0,0,0,0,0,0,0,0,0,0,0,0,0,0,0,0,0,0,0,0,0,0,0,0,0,0,0,0,10141,10146,10151,10156,10161,10166,10171,10176,0,0,0,0,0,0,0,0,0,0,0,0,0,0,0,0,0,0,0,0,0,0,0,0,0,0,0,0,0,0,0,0,0,0,0,0,0,0,0,0,0,0,0,0,0,0,0,0,0,0,0,0,0,0,0,0,0,0,0,0,0,0,0,0,0,0,0,0,0,0,0,0,0,0,0,0,0,0,0,0,0,0,0,0,0,0,0,0,0,0,0,0,0,0,0,0,0,0,0,0,0,0,0,0,0,0,0,0,0,0,0,0,0,0,0,0,0,0,0,0,10181,10186,10191,10196,10201,10206,10211,10216,0,0,0,0,0,0,0,0,0,0,0,0,0,0,0,0,0,0,0,0,0,0,0,0,0,0,0,0,0,0,0,0,0,0,0,0,0,0,0,0,0,0,0,0,0,0,0,0,0,0,0,0,0,0,0,0,0,0,0,0,0,0,0,0,0,0,0,0,0,0,0,0,0,0,0,0,0,0,0,0,0,0,0,0,0,0,0,0,0,0,0,0,0,0,0,0,0,0,0,0,0,0,0,0,0,0,0,0,0,0,0,0,0,0,0,0,0,0,0,0,10181,10186,10191,10196,10201,10206,10211,10216,0,0,0,0,0,0,0,0,0,0,0,0,0,0,0,0,0,0,0,0,0,0,0,0,0,0,0,0,0,0,0,0,0,0,0,0,0,0,0,0,0,0,0,0,0,0,0,0,0,0,0,0,0,0,0,0,0,0,0,0,0,0,0,0,0,0,0,0,0,0,0,0,0,0,0,0,0,0,0,0,0,0,0,0,0,0,0,0,0,0,0,0,0,0,0,0,0,0,0,0,0,0,0,0,0,0,0,0,0,0,0,0,0,0,0,0,0,0,0,0,10221,10226,10231,10236,10241,10246,10251,10256,0,0,0,0,0,0,0,0,0,0,0,0,0,0,0,0,0,0,0,0,0,0,0,0,0,0,0,0,0,0,0,0,0,0,0,0,0,0,0,0,0,0,0,0,0,0,0,0,0,0,0,0,0,0,0,0,0,0,0,0,0,0,0,0,0,0,0,0,0,0,0,0,0,0,0,0,0,0,0,0,0,0,0,0,0,0,0,0,0,0,0,0,0,0,0,0,0,0,0,0,0,0,0,0,0,0,0,0,0,0,0,0,0,0,0,0,0,0,0,0,10221,10226,10231,10236,10241,10246,10251,10256,0,0,0,0,0,0,0,0,0,0,0,0,0,0,0,0,0,0,0,0,0,0,0,0,0,0,0,0,0,0,0,0,0,0,0,0,0,0,0,0,0,0,0,0,0,0,0,0,0,0,0,0,0,0,0,0,0,0,0,0,0,0,0,0,0,0,0,0,0,0,0,0,0,0,0,0,0,0,0,0,0,0,0,0,0,0,0,0,0,0,0,0,0,0,0,0,0,0,0,0,0,0,0,0,0,0,0,0,0,0,0,0,0,0,0,0,0,0,0,0,10101,10106,10111,10116,10121,10126,10131,10136,0,0,0,0,0,0,0,0,0,0,0,0,0,0,0,0,0,0,0,0,0,0,0,0,0,0,0,0,0,0,0,0,0,0,0,0,0,0,0,0,0,0,0,0,0,0,0,0,0,0,0,0,0,0,0,0,0,0,0,0,0,0,0,0,0,0,0,0,0,0,0,0,0,0,0,0,0,0,0,0,0,0,0,0,0,0,0,0,0,0,0,0,0,0,0,0,0,0,0,0,0,0,0,0,0,0,0,0,0,0,0,0,0,0,0,0,0,0,0,0,10101,10106,10111,10116,10121,10126,10131,10136,0,0,0,0,0,0,0,0,0,0,0,0,0,0,0,0,0,0,0,0,0,0,0,0,0,0,0,0,0,0,0,0,0,0,0,0,0,0,0,0,0,0,0,0,0,0,0,0,0,0,0,0,0,0,0,0,0,0,0,0,0,0,0,0,0,0,0,0,0,0,0,0,0,0,0,0,0,0,0,0,0,0,0,0,0,0,0,0,0,0,0,0,0,0,0,0,0,0,0,0,0,0,0,0,0,0,0,0,0,0,0,0,0,0,0,0,0,0,0,0,10141,10146,10151,10156,10161,10166,10171,10176,0,0,0,0,0,0,0,0,0,0,0,0,0,0,0,0,0,0,0,0,0,0,0,0,0,0,0,0,0,0,0,0,0,0,0,0,0,0,0,0,0,0,0,0,0,0,0,0,0,0,0,0,0,0,0,0,0,0,0,0,0,0,0,0,0,0,0,0,0,0,0,0,0,0,0,0,0,0,0,0,0,0,0,0,0,0,0,0,0,0,0,0,0,0,0,0,0,0,0,0,0,0,0,0,0,0,0,0,0,0,0,0,0,0,0,0,0,0,0,0,10141,10146,10151,10156,10161,10166,10171,10176,0,0,0,0,0,0,0,0,0,0,0,0,0,0,0,0,0,0,0,0,0,0,0,0,0,0,0,0,0,0,0,0,0,0,0,0,0,0,0,0,0,0,0,0,0,0,0,0,0,0,0,0,0,0,0,0,0,0,0,0,0,0,0,0,0,0,0,0,0,0,0,0,0,0,0,0,0,0,0,0,0,0,0,0,0,0,0,0,0,0,0,0,0,0,0,0,0,0,0,0,0,0,0,0,0,0,0,0,0,0,0,0,0,0,0,0,0,0,0,0,10181,10186,10191,10196,10201,10206,10211,10216,0,0,0,0,0,0,0,0,0,0,0,0,0,0,0,0,0,0,0,0,0,0,0,0,0,0,0,0,0,0,0,0,0,0,0,0,0,0,0,0,0,0,0,0,0,0,0,0,0,0,0,0,0,0,0,0,0,0,0,0,0,0,0,0,0,0,0,0,0,0,0,0,0,0,0,0,0,0,0,0,0,0,0,0,0,0,0,0,0,0,0,0,0,0,0,0,0,0,0,0,0,0,0,0,0,0,0,0,0,0,0,0,0,0,0,0,0,0,0,0,10181,10186,10191,10196,10201,10206,10211,10216,0,0,0,0,0,0,0,0,0,0,0,0,0,0,0,0,0,0,0,0,0,0,0,0,0,0,0,0,0,0,0,0,0,0,0,0,0,0,0,0,0,0,0,0,0,0,0,0,0,0,0,0,0,0,0,0,0,0,0,0,0,0,0,0,0,0,0,0,0,0,0,0,0,0,0,0,0,0,0,0,0,0,0,0,0,0,0,0,0,0,0,0,0,0,0,0,0,0,0,0,0,0,0,0,0,0,0,0,0,0,0,0,0,0,0,0,0,0,0,0,10221,10226,10231,10236,10241,10246,10251,10256,0,0,0,0,0,0,0,0,0,0,0,0,0,0,0,0,0,0,0,0,0,0,0,0,0,0,0,0,0,0,0,0,0,0,0,0,0,0,0,0,0,0,0,0,0,0,0,0,0,0,0,0,0,0,0,0,0,0,0,0,0,0,0,0,0,0,0,0,0,0,0,0,0,0,0,0,0,0,0,0,0,0,0,0,0,0,0,0,0,0,0,0,0,0,0,0,0,0,0,0,0,0,0,0,0,0,0,0,0,0,0,0,0,0,0,0,0,0,0,0,10221,10226,10231,10236,10241,10246,10251,10256,0,0,0,0,0,0,0,0,0,0,0,0,0,0,0,0,0,0,0,0,0,0,0,0,0,0,0,0,0,0,0,0,0,0,0,0,0,0,0,0,0,0,0,0,0,0,0,0,0,0,0,0,0,0,0,0,0,0,0,0,0,0,0,0,0,0,0,0,0,0,0,0,0,0,0,0,0,0,0,0,0,0,0,0,0,0,0,0,0,0,0,0,0,0,0,0,0,0,0,0,0,0,0,0,0,0,0,0,0,0,0,0,0,0,0,0,0,0,0,0,10101,10106,10111,10116,10121,10126,10131,10136,0,0,0,0,0,0,0,0,0,0,0,0,0,0,0,0,0,0,0,0,0,0,0,0,0,0,0,0,0,0,0,0,0,0,0,0,0,0,0,0,0,0,0,0,0,0,0,0,0,0,0,0,0,0,0,0,0,0,0,0,0,0,0,0,0,0,0,0,0,0,0,0,0,0,0,0,0,0,0,0,0,0,0,0,0,0,0,0,0,0,0,0,0,0,0,0,0,0,0,0,0,0,0,0,0,0,0,0,0,0,0,0,0,0,0,0,0,0,0,0,10101,10106,10111,10116,10121,10126,10131,10136,0,0,0,0,0,0,0,0,0,0,0,0,0,0,0,0,0,0,0,0,0,0,0,0,0,0,0,0,0,0,0,0,0,0,0,0,0,0,0,0,0,0,0,0,0,0,0,0,0,0,0,0,0,0,0,0,0,0,0,0,0,0,0,0,0,0,0,0,0,0,0,0,0,0,0,0,0,0,0,0,0,0,0,0,0,0,0,0,0,0,0,0,0,0,0,0,0,0,0,0,0,0,0,0,0,0,0,0,0,0,0,0,0,0,0,0,0,0,0,0,10141,10146,10151,10156,10161,10166,10171,10176,0,0,0,0,0,0,0,0,0,0,0,0,0,0,0,0,0,0,0,0,0,0,0,0,0,0,0,0,0,0,0,0,0,0,0,0,0,0,0,0,0,0,0,0,0,0,0,0,0,0,0,0,0,0,0,0,0,0,0,0,0,0,0,0,0,0,0,0,0,0,0,0,0,0,0,0,0,0,0,0,0,0,0,0,0,0,0,0,0,0,0,0,0,0,0,0,0,0,0,0,0,0,0,0,0,0,0,0,0,0,0,0,0,0,0,0,0,0,0,0,10141,10146,10151,10156,10161,10166,10171,10176,0,0,0,0,0,0,0,0,0,0,0,0,0,0,0,0,0,0,0,0,0,0,0,0,0,0,0,0,0,0,0,0,0,0,0,0,0,0,0,0,0,0,0,0,0,0,0,0,0,0,0,0,0,0,0,0,0,0,0,0,0,0,0,0,0,0,0,0,0,0,0,0,0,0,0,0,0,0,0,0,0,0,0,0,0,0,0,0,0,0,0,0,0,0,0,0,0,0,0,0,0,0,0,0,0,0,0,0,0,0,0,0,0,0,0,0,0,0,0,0,10181,10186,10191,10196,10201,10206,10211,10216,0,0,0,0,0,0,0,0,0,0,0,0,0,0,0,0,0,0,0,0,0,0,0,0,0,0,0,0,0,0,0,0,0,0,0,0,0,0,0,0,0,0,0,0,0,0,0,0,0,0,0,0,0,0,0,0,0,0,0,0,0,0,0,0,0,0,0,0,0,0,0,0,0,0,0,0,0,0,0,0,0,0,0,0,0,0,0,0,0,0,0,0,0,0,0,0,0,0,0,0,0,0,0,0,0,0,0,0,0,0,0,0,0,0,0,0,0,0,0,0,10181,10186,10191,10196,10201,10206,10211,10216,0,0,0,0,0,0,0,0,0,0,0,0,0,0,0,0,0,0,0,0,0,0,0,0,0,0,0,0,0,0,0,0,0,0,0,0,0,0,0,0,0,0,0,0,0,0,0,0,0,0,0,0,0,0,0,0,0,0,0,0,0,0,0,0,0,0,0,0,0,0,0,0,0,0,0,0,0,0,0,0,0,0,0,0,0,0,0,0,0,0,0,0,0,0,0,0,0,0,0,0,0,0,0,0,0,0,0,0,0,0,0,0,0,0,0,0,0,0,0,0,10221,10226,10231,10236,10241,10246,10251,10256,0,0,0,0,0,0,0,0,0,0,0,0,0,0,0,0,0,0,0,0,0,0,0,0,0,0,0,0,0,0,0,0,0,0,0,0,0,0,0,0,0,0,0,0,0,0,0,0,0,0,0,0,0,0,0,0,0,0,0,0,0,0,0,0,0,0,0,0,0,0,0,0,0,0,0,0,0,0,0,0,0,0,0,0,0,0,0,0,0,0,0,0,0,0,0,0,0,0,0,0,0,0,0,0,0,0,0,0,0,0,0,0,0,0,0,0,0,0,0,0,10221,10226,10231,10236,10241,10246,10251,10256,0,0,0,0,0,0,0,0,0,0,0,0,0,0,0,0,0,0,0,0,0,0,0,0,0,0,0,0,0,0,0,0,0,0,0,0,0,0,0,0,0,0,0,0,0,0,0,0,0,0,0,0,0,0,0,0,0,0,0,0,0,0,0,0,0,0,0,0,0,0,0,0,0,0,0,0,0,0,0,0,0,0,0,0,0,0,0,0,0,0,0,0,0,0,0,0,0,0,0,0,0,0,0,0,0,0,0,0,0,0,0,0,0,0,0,0,0,0,0,0,10101,10106,10111,10116,10121,10126,10131,10136,0,0,0,0,0,0,0,0,0,0,0,0,0,0,0,0,0,0,0,0,0,0,0,0,0,0,0,0,0,0,0,0,0,0,0,0,0,0,0,0,0,0,0,0,0,0,0,0,0,0,0,0,0,0,0,0,0,0,0,0,0,0,0,0,0,0,0,0,0,0,0,0,0,0,0,0,0,0,0,0,0,0,0,0,0,0,0,0,0,0,0,0,0,0,0,0,0,0,0,0,0,0,0,0,0,0,0,0,0,0,0,0,0,0,0,0,0,0,0,0,10101,10106,10111,10116,10121,10126,10131,10136,0,0,0,0,0,0,0,0,0,0,0,0,0,0,0,0,0,0,0,0,0,0,0,0,0,0,0,0,0,0,0,0,0,0,0,0,0,0,0,0,0,0,0,0,0,0,0,0,0,0,0,0,0,0,0,0,0,0,0,0,0,0,0,0,0,0,0,0,0,0,0,0,0,0,0,0,0,0,0,0,0,0,0,0,0,0,0,0,0,0,0,0,0,0,0,0,0,0,0,0,0,0,0,0,0,0,0,0,0,0,0,0,0,0,0,0,0,0,0,0,10261,10266,10271,10276,10281,10286,10291,10296,0,0,0,0,0,0,0,0,0,0,0,0,0,0,0,0,0,0,0,0,0,0,0,0,0,0,0,0,0,0,0,0,0,0,0,0,0,0,0,0,0,0,0,0,0,0,0,0,0,0,0,0,0,0,0,0,0,0,0,0,0,0,0,0,0,0,0,0,0,0,0,0,0,0,0,0,0,0,0,0,0,0,0,0,0,0,0,0,0,0,0,0,0,0,0,0,0,0,0,0,0,0,0,0,0,0,0,0,0,0,0,0,0,0,0,0,0,0,0,0,10261,10266,10271,10276,10281,10286,10291,10296,0,0,0,0,0,0,0,0,0,0,0,0,0,0,0,0,0,0,0,0,0,0,0,0,0,0,0,0,0,0,0,0,0,0,0,0,0,0,0,0,0,0,0,0,0,0,0,0,0,0,0,0,0,0,0,0,0,0,0,0,0,0,0,0,0,0,0,0,0,0,0,0,0,0,0,0,0,0,0,0,0,0,0,0,0,0,0,0,0,0,0,0,0,0,0,0,0,0,0,0,0,0,0,0,0,0,0,0,0,0,0,0,0,0,0,0,0,0,0,0,10301,10306,10311,10316,10321,10326,10331,10336,0,0,0,0,0,0,0,0,0,0,0,0,0,0,0,0,0,0,0,0,0,0,0,0,0,0,0,0,0,0,0,0,0,0,0,0,0,0,0,0,0,0,0,0,0,0,0,0,0,0,0,0,0,0,0,0,0,0,0,0,0,0,0,0,0,0,0,0,0,0,0,0,0,0,0,0,0,0,0,0,0,0,0,0,0,0,0,0,0,0,0,0,0,0,0,0,0,0,0,0,0,0,0,0,0,0,0,0,0,0,0,0,0,0,0,0,0,0,0,0,10301,10306,10311,10316,10321,10326,10331,10336,0,0,0,0,0,0,0,0,0,0,0,0,0,0,0,0,0,0,0,0,0,0,0,0,0,0,0,0,0,0,0,0,0,0,0,0,0,0,0,0,0,0,0,0,0,0,0,0,0,0,0,0,0,0,0,0,0,0,0,0,0,0,0,0,0,0,0,0,0,0,0,0,0,0,0,0,0,0,0,0,0,0,0,0,0,0,0,0,0,0,0,0,0,0,0,0,0,0,0,0,0,0,0,0,0,0,0,0,0,0,0,0,0,0,0,0,0,0,0,0,0,0,0,0,0,0,0,0,0,0,0,0,0,0,0,0,0,0,0,0,0,0,0,0,0,0,0,0,0,0,0,0,0,0,0,0,0,0,0,0,0,0,0,0,0,0,0,0,0,0,0,0,0,0,0,0,0,0,0,0,0,0,0,0,0,0,0,0,0,0,0,0,0,0,0,0,0,0,0,0,0,0,0,0,0,0,0,0,0,0,0,0,0,0,0,0,0,0,0,0,0,0,0,0,0,0,0,0,0,0,0,0,0,0,0,0,0,0,0,0,0,0,0,0,0,0,0,0,0,0,0,0,0,0,0,0,0,0,0,0,0,0,0,0,0,0,0,0,0,0,0,0,0,0,0,0,0,0,0,0,0,0,0,0,0,0,0,0,0,0,0,0,0,0,0,0,0,0,0,0,0,0,0,0,0,0,0,0,0,0,0,0,0,0,0,0,0,0,0,0,0,0,0,0,0,0,0,0,0,0,0,0,0,0,0,0,0,0,0,0,0,0,0,0,0,0,0,0,0,0,0,0,0,0,0,0,0,0,0,0,0,0,0,0,0,0,0,0,0,0,0,0,0,0,0,0,0,9335,9341,9347,9353,9359,9365,9371,0,0,0,0,0,0,0,0,0,0,0,0,0,0,0,0,0,0,0,0,0,0,0,0,0,0,0,0,0,0,0,0,0,0,0,0,0,0,0,0,0,0,0,0,0,0,0,0,0,0,0,0,0,0,0,0,0,0,0,0,0,0,0,0,0,0,0,0,0,0,0,0,0,0,0,0,0,0,0,0,0,0,0,0,0,0,0,0,0,0,0,0,0,0,0,0,0,0,0,0,0,0,0,0,0,0,0,0,0,0,0,0,0,0,0,0,0,0,0,0,0,9335,9341,9347,9353,9359,9365,9371,0,0,0,0,0,0,0,0,0,0,0,0,0,0,0,0,0,0,0,0,0,0,0,0,0,0,0,0,0,0,0,0,0,0,0,0,0,0,0,0,0,0,0,0,0,0,0,0,0,0,0,0,0,0,0,0,0,0,0,0,0,0,0,0,0,0,0,0,0,0,0,0,0,0,0,0,0,0,0,0,0,0,0,0,0,0,0,0,0,0,0,0,0,0,0,0,0,0,0,0,0,0,0,0,0,0,0,0,0,0,0,0,0,0,0,0,0,0,0,0,0,9412,9418,9424,9430,9436,9442,0,0,0,0,0,0,0,0,0,0,0,0,0,0,0,0,0,0,0,0,0,0,0,0,0,0,0,0,0,0,0,0,0,0,0,0,0,0,0,0,0,0,0,0,0,0,0,0,0,0,0,0,0,0,0,0,0,0,0,0,0,0,0,0,0,0,0,0,0,0,0,0,0,0,0,0,0,0,0,0,0,0,0,0,0,0,0,0,0,0,0,0,0,0,0,0,0,0,0,0,0,0,0,0,0,0,0,0,0,0,0,0,0,0,0,0,0,0,0,0,0,0,9412,9418,9424,9430,9436,9442,0,0,0,0,0,0,0,0,0,0,0,0,0,0,0,0,0,0,0,0,0,0,0,0,0,0,0,0,0,0,0,0,0,0,0,0,0,0,0,0,0,0,0,0,0,0,0,0,0,0,0,0,0,0,0,0,0,0,0,0,0,0,0,0,0,0,0,0,0,0,0,0,0,0,0,0,0,0,0,0,0,0,0,0,0,0,0,0,0,0,0,0,0,0,0,0,0,0,0,0,0,0,0,0,0,0,0,0,0,0,0,0,0,0,0,0,0,0,0,0,0,0,9335,9341,9347,9353,9359,9365,9371,0,0,0,0,0,0,0,0,0,0,0,0,0,0,0,0,0,0,0,0,0,0,0,0,0,0,0,0,0,0,0,0,0,0,0,0,0,0,0,0,0,0,0,0,0,0,0,0,0,0,0,0,0,0,0,0,0,0,0,0,0,0,0,0,0,0,0,0,0,0,0,0,0,0,0,0,0,0,0,0,0,0,0,0,0,0,0,0,0,0,0,0,0,0,0,0,0,0,0,0,0,0,0,0,0,0,0,0,0,0,0,0,0,0,0,0,0,0,0,0,0,9335,9341,9347,9353,9359,9365,9371,0,0,0,0,0,0,0,0,0,0,0,0,0,0,0,0,0,0,0,0,0,0,0,0,0,0,0,0,0,0,0,0,0,0,0,0,0,0,0,0,0,0,0,0,0,0,0,0,0,0,0,0,0,0,0,0,0,0,0,0,0,0,0,0,0,0,0,0,0,0,0,0,0,0,0,0,0,0,0,0,0,0,0,0,0,0,0,0,0,0,0,0,0,0,0,0,0,0,0,0,0,0,0,0,0,0,0,0,0,0,0,0,0,0,0,0,0,0,0,0,0,9412,9418,9424,9430,9436,9442,0,0,0,0,0,0,0,0,0,0,0,0,0,0,0,0,0,0,0,0,0,0,0,0,0,0,0,0,0,0,0,0,0,0,0,0,0,0,0,0,0,0,0,0,0,0,0,0,0,0,0,0,0,0,0,0,0,0,0,0,0,0,0,0,0,0,0,0,0,0,0,0,0,0,0,0,0,0,0,0,0,0,0,0,0,0,0,0,0,0,0,0,0,0,0,0,0,0,0,0,0,0,0,0,0,0,0,0,0,0,0,0,0,0,0,0,0,0,0,0,0,0,9412,9418,9424,9430,9436,9442,0,0,0,0,0,0,0,0,0,0,0,0,0,0,0,0,0,0,0,0,0,0,0,0,0,0,0,0,0,0,0,0,0,0,0,0,0,0,0,0,0,0,0,0,0,0,0,0,0,0,0,0,0,0,0,0,0,0,0,0,0,0,0,0,0,0,0,0,0,0,0,0,0,0,0,0,0,0,0,0,0,0,0,0,0,0,0,0,0,0,0,0,0,0,0,0,0,0,0,0,0,0,0,0,0,0,0,0,0,0,0,0,0,0,0,0,0,0,0,0,0,0,9335,9341,9347,9353,9359,9365,9371,0,0,0,0,0,0,0,0,0,0,0,0,0,0,0,0,0,0,0,0,0,0,0,0,0,0,0,0,0,0,0,0,0,0,0,0,0,0,0,0,0,0,0,0,0,0,0,0,0,0,0,0,0,0,0,0,0,0,0,0,0,0,0,0,0,0,0,0,0,0,0,0,0,0,0,0,0,0,0,0,0,0,0,0,0,0,0,0,0,0,0,0,0,0,0,0,0,0,0,0,0,0,0,0,0,0,0,0,0,0,0,0,0,0,0,0,0,0,0,0,0,9335,9341,9347,9353,9359,9365,9371,0,0,0,0,0,0,0,0,0,0,0,0,0,0,0,0,0,0,0,0,0,0,0,0,0,0,0,0,0,0,0,0,0,0,0,0,0,0,0,0,0,0,0,0,0,0,0,0,0,0,0,0,0,0,0,0,0,0,0,0,0,0,0,0,0,0,0,0,0,0,0,0,0,0,0,0,0,0,0,0,0,0,0,0,0,0,0,0,0,0,0,0,0,0,0,0,0,0,0,0,0,0,0,0,0,0,0,0,0,0,0,0,0,0,0,0,0,0,0,0,0,9412,9418,9424,9430,9436,9442,0,0,0,0,0,0,0,0,0,0,0,0,0,0,0,0,0,0,0,0,0,0,0,0,0,0,0,0,0,0,0,0,0,0,0,0,0,0,0,0,0,0,0,0,0,0,0,0,0,0,0,0,0,0,0,0,0,0,0,0,0,0,0,0,0,0,0,0,0,0,0,0,0,0,0,0,0,0,0,0,0,0,0,0,0,0,0,0,0,0,0,0,0,0,0,0,0,0,0,0,0,0,0,0,0,0,0,0,0,0,0,0,0,0,0,0,0,0,0,0,0,0,9412,9418,9424,9430,9436,9442,0,0,0,0,0,0,0,0,0,0,0,0,0,0,0,0,0,0,0,0,0,0,0,0,0,0,0,0,0,0,0,0,0,0,0,0,0,0,0,0,0,0,0,0,0,0,0,0,0,0,0,0,0,0,0,0,0,0,0,0,0,0,0,0,0,0,0,0,0,0,0,0,0,0,0,0,0,0,0,0,0,0,0,0,0,0,0,0,0,0,0,0,0,0,0,0,0,0,0,0,0,0,0,0,0,0,0,0,0,0,0,0,0,0,0,0,0,0,0,0,0,0,9335,9341,9347,9353,9359,9365,9371,0,0,0,0,0,0,0,0,0,0,0,0,0,0,0,0,0,0,0,0,0,0,0,0,0,0,0,0,0,0,0,0,0,0,0,0,0,0,0,0,0,0,0,0,0,0,0,0,0,0,0,0,0,0,0,0,0,0,0,0,0,0,0,0,0,0,0,0,0,0,0,0,0,0,0,0,0,0,0,0,0,0,0,0,0,0,0,0,0,0,0,0,0,0,0,0,0,0,0,0,0,0,0,0,0,0,0,0,0,0,0,0,0,0,0,0,0,0,0,0,0,9335,9341,9347,9353,9359,9365,9371,0,0,0,0,0,0,0,0,0,0,0,0,0,0,0,0,0,0,0,0,0,0,0,0,0,0,0,0,0,0,0,0,0,0,0,0,0,0,0,0,0,0,0,0,0,0,0,0,0,0,0,0,0,0,0,0,0,0,0,0,0,0,0,0,0,0,0,0,0,0,0,0,0,0,0,0,0,0,0,0,0,0,0,0,0,0,0,0,0,0,0,0,0,0,0,0,0,0,0,0,0,0,0,0,0,0,0,0,0,0,0,0,0,0,0,0,0,0,0,0,0,9412,9418,9424,9430,9436,9442,0,0,0,0,0,0,0,0,0,0,0,0,0,0,0,0,0,0,0,0,0,0,0,0,0,0,0,0,0,0,0,0,0,0,0,0,0,0,0,0,0,0,0,0,0,0,0,0,0,0,0,0,0,0,0,0,0,0,0,0,0,0,0,0,0,0,0,0,0,0,0,0,0,0,0,0,0,0,0,0,0,0,0,0,0,0,0,0,0,0,0,0,0,0,0,0,0,0,0,0,0,0,0,0,0,0,0,0,0,0,0,0,0,0,0,0,0,0,0,0,0,0,9412,9418,9424,9430,9436,9442,0,0,0,0,0,0,0,0,0,0,0,0,0,0,0,0,0,0,0,0,0,0,0,0,0,0,0,0,0,0,0,0,0,0,0,0,0,0,0,0,0,0,0,0,0,0,0,0,0,0,0,0,0,0,0,0,0,0,0,0,0,0,0,0,0,0,0,0,0,0,0,0,0,0,0,0,0,0,0,0,0,0,0,0,0,0,0,0,0,0,0,0,0,0,0,0,0,0,0,0,0,0,0,0,0,0,0,0,0,0,0,0,0,0,0,0,0,0,0,0,0,0,9335,9341,9347,9353,9359,9365,9371,0,0,0,0,0,0,0,0,0,0,0,0,0,0,0,0,0,0,0,0,0,0,0,0,0,0,0,0,0,0,0,0,0,0,0,0,0,0,0,0,0,0,0,0,0,0,0,0,0,0,0,0,0,0,0,0,0,0,0,0,0,0,0,0,0,0,0,0,0,0,0,0,0,0,0,0,0,0,0,0,0,0,0,0,0,0,0,0,0,0,0,0,0,0,0,0,0,0,0,0,0,0,0,0,0,0,0,0,0,0,0,0,0,0,0,0,0,0,0,0,0,9335,9341,9347,9353,9359,9365,9371,0,0,0,0,0,0,0,0,0,0,0,0,0,0,0,0,0,0,0,0,0,0,0,0,0,0,0,0,0,0,0,0,0,0,0,0,0,0,0,0,0,0,0,0,0,0,0,0,0,0,0,0,0,0,0,0,0,0,0,0,0,0,0,0,0,0,0,0,0,0,0,0,0,0,0,0,0,0,0,0,0,0,0,0,0,0,0,0,0,0,0,0,0,0,0,0,0,0,0,0,0,0,0,0,0,0,0,0,0,0,0,0,0,0,0,0,0,0,0,0,0,9412,9418,9424,9430,9436,9442,0,0,0,0,0,0,0,0,0,0,0,0,0,0,0,0,0,0,0,0,0,0,0,0,0,0,0,0,0,0,0,0,0,0,0,0,0,0,0,0,0,0,0,0,0,0,0,0,0,0,0,0,0,0,0,0,0,0,0,0,0,0,0,0,0,0,0,0,0,0,0,0,0,0,0,0,0,0,0,0,0,0,0,0,0,0,0,0,0,0,0,0,0,0,0,0,0,0,0,0,0,0,0,0,0,0,0,0,0,0,0,0,0,0,0,0,0,0,0,0,0,0,9412,9418,9424,9430,9436,9442,0,0,0,0,0,0,0,0,0,0,0,0,0,0,0,0,0,0,0,0,0,0,0,0,0,0,0,0,0,0,0,0,0,0,0,0,0,0,0,0,0,0,0,0,0,0,0,0,0,0,0,0,0,0,0,0,0,0,0,0,0,0,0,0,0,0,0,0,0,0,0,0,0,0,0,0,0,0,0,0,0,0,0,0,0,0,0,0,0,0,0,0,0,0,0,0,0,0,0,0,0,0,0,0,0,0,0,0,0,0,0,0,0,0,0,0,0,0,0,0,0,0,9335,9341,9347,9353,9359,9365,9371,0,0,0,0,0,0,0,0,0,0,0,0,0,0,0,0,0,0,0,0,0,0,0,0,0,0,0,0,0,0,0,0,0,0,0,0,0,0,0,0,0,0,0,0,0,0,0,0,0,0,0,0,0,0,0,0,0,0,0,0,0,0,0,0,0,0,0,0,0,0,0,0,0,0,0,0,0,0,0,0,0,0,0,0,0,0,0,0,0,0,0,0,0,0,0,0,0,0,0,0,0,0,0,0,0,0,0,0,0,0,0,0,0,0,0,0,0,0,0,0,0,9335,9341,9347,9353,9359,9365,9371,0,0,0,0,0,0,0,0,0,0,0,0,0,0,0,0,0,0,0,0,0,0,0,0,0,0,0,0,0,0,0,0,0,0,0,0,0,0,0,0,0,0,0,0,0,0,0,0,0,0,0,0,0,0,0,0,0,0,0,0,0,0,0,0,0,0,0,0,0,0,0,0,0,0,0,0,0,0,0,0,0,0,0,0,0,0,0,0,0,0,0,0,0,0,0,0,0,0,0,0,0,0,0,0,0,0,0,0,0,0,0,0,0,0,0,0,0,0,0,0,0,9412,9418,9424,9430,9436,9442,0,0,0,0,0,0,0,0,0,0,0,0,0,0,0,0,0,0,0,0,0,0,0,0,0,0,0,0,0,0,0,0,0,0,0,0,0,0,0,0,0,0,0,0,0,0,0,0,0,0,0,0,0,0,0,0,0,0,0,0,0,0,0,0,0,0,0,0,0,0,0,0,0,0,0,0,0,0,0,0,0,0,0,0,0,0,0,0,0,0,0,0,0,0,0,0,0,0,0,0,0,0,0,0,0,0,0,0,0,0,0,0,0,0,0,0,0,0,0,0,0,0,9412,9418,9424,9430,9436,9442,0,0,0,0,0,0,0,0,0,0,0,0,0,0,0,0,0,0,0,0,0,0,0,0,0,0,0,0,0,0,0,0,0,0,0,0,0,0,0,0,0,0,0,0,0,0,0,0,0,0,0,0,0,0,0,0,0,0,0,0,0,0,0,0,0,0,0,0,0,0,0,0,0,0,0,0,0,0,0,0,0,0,0,0,0,0,0,0,0,0,0,0,0,0,0,0,0,0,0,0,0,0,0,0,0,0,0,0,0,0,0,0,0,0,0,0,0,0,0,0,0,0,9335,9341,9347,9353,9359,9365,9371,0,0,0,0,0,0,0,0,0,0,0,0,0,0,0,0,0,0,0,0,0,0,0,0,0,0,0,0,0,0,0,0,0,0,0,0,0,0,0,0,0,0,0,0,0,0,0,0,0,0,0,0,0,0,0,0,0,0,0,0,0,0,0,0,0,0,0,0,0,0,0,0,0,0,0,0,0,0,0,0,0,0,0,0,0,0,0,0,0,0,0,0,0,0,0,0,0,0,0,0,0,0,0,0,0,0,0,0,0,0,0,0,0,0,0,0,0,0,0,0,0,9335,9341,9347,9353,9359,9365,9371,0,0,0,0,0,0,0,0,0,0,0,0,0,0,0,0,0,0,0,0,0,0,0,0,0,0,0,0,0,0,0,0,0,0,0,0,0,0,0,0,0,0,0,0,0,0,0,0,0,0,0,0,0,0,0,0,0,0,0,0,0,0,0,0,0,0,0,0,0,0,0,0,0,0,0,0,0,0,0,0,0,0,0,0,0,0,0,0,0,0,0,0,0,0,0,0,0,0,0,0,0,0,0,0,0,0,0,0,0,0,0,0,0,0,0,0,0,0,0,0,0,9412,9418,9424,9430,9436,9442,0,0,0,0,0,0,0,0,0,0,0,0,0,0,0,0,0,0,0,0,0,0,0,0,0,0,0,0,0,0,0,0,0,0,0,0,0,0,0,0,0,0,0,0,0,0,0,0,0,0,0,0,0,0,0,0,0,0,0,0,0,0,0,0,0,0,0,0,0,0,0,0,0,0,0,0,0,0,0,0,0,0,0,0,0,0,0,0,0,0,0,0,0,0,0,0,0,0,0,0,0,0,0,0,0,0,0,0,0,0,0,0,0,0,0,0,0,0,0,0,0,0,9412,9418,9424,9430,9436,9442,0,0,0,0,0,0,0,0,0,0,0,0,0,0,0,0,0,0,0,0,0,0,0,0,0,0,0,0,0,0,0,0,0,0,0,0,0,0,0,0,0,0,0,0,0,0,0,0,0,0,0,0,0,0,0,0,0,0,0,0,0,0,0,0,0,0,0,0,0,0,0,0,0,0,0,0,0,0,0,0,0,0,0,0,0,0,0,0,0,0,0,0,0,0,0,0,0,0,0,0,0,0,0,0,0,0,0,0,0,0,0,0,0,0,0,0,0,0,0,0,0,0,9335,9341,9347,9353,9359,9365,9371,0,0,0,0,0,0,0,0,0,0,0,0,0,0,0,0,0,0,0,0,0,0,0,0,0,0,0,0,0,0,0,0,0,0,0,0,0,0,0,0,0,0,0,0,0,0,0,0,0,0,0,0,0,0,0,0,0,0,0,0,0,0,0,0,0,0,0,0,0,0,0,0,0,0,0,0,0,0,0,0,0,0,0,0,0,0,0,0,0,0,0,0,0,0,0,0,0,0,0,0,0,0,0,0,0,0,0,0,0,0,0,0,0,0,0,0,0,0,0,0,0,9335,9341,9347,9353,9359,9365,9371,0,0,0,0,0,0,0,0,0,0,0,0,0,0,0,0,0,0,0,0,0,0,0,0,0,0,0,0,0,0,0,0,0,0,0,0,0,0,0,0,0,0,0,0,0,0,0,0,0,0,0,0,0,0,0,0,0,0,0,0,0,0,0,0,0,0,0,0,0,0,0,0,0,0,0,0,0,0,0,0,0,0,0,0,0,0,0,0,0,0,0,0,0,0,0,0,0,0,0,0,0,0,0,0,0,0,0,0,0,0,0,0,0,0,0,0,0,0,0,0,0,9412,9418,9424,9430,9436,9442,0,0,0,0,0,0,0,0,0,0,0,0,0,0,0,0,0,0,0,0,0,0,0,0,0,0,0,0,0,0,0,0,0,0,0,0,0,0,0,0,0,0,0,0,0,0,0,0,0,0,0,0,0,0,0,0,0,0,0,0,0,0,0,0,0,0,0,0,0,0,0,0,0,0,0,0,0,0,0,0,0,0,0,0,0,0,0,0,0,0,0,0,0,0,0,0,0,0,0,0,0,0,0,0,0,0,0,0,0,0,0,0,0,0,0,0,0,0,0,0,0,0,9412,9418,9424,9430,9436,9442,0,0,0,0,0,0,0,0,0,0,0,0,0,0,0,0,0,0,0,0,0,0,0,0,0,0,0,0,0,0,0,0,0,0,0,0,0,0,0,0,0,0,0,0,0,0,0,0,0,0,0,0,0,0,0,0,0,0,0,0,0,0,0,0,0,0,0,0,0,0,0,0,0,0,0,0,0,0,0,0,0,0,0,0,0,0,0,0,0,0,0,0,0,0,0,0,0,0,0,0,0,0,0,0,0,0,0,0,0,0,0,0,0,0,0,0,0,0,0,0,0,0,9335,9341,9347,9353,9359,9365,9371,0,0,0,0,0,0,0,0,0,0,0,0,0,0,0,0,0,0,0,0,0,0,0,0,0,0,0,0,0,0,0,0,0,0,0,0,0,0,0,0,0,0,0,0,0,0,0,0,0,0,0,0,0,0,0,0,0,0,0,0,0,0,0,0,0,0,0,0,0,0,0,0,0,0,0,0,0,0,0,0,0,0,0,0,0,0,0,0,0,0,0,0,0,0,0,0,0,0,0,0,0,0,0,0,0,0,0,0,0,0,0,0,0,0,0,0,0,0,0,0,0,9335,9341,9347,9353,9359,9365,9371,0,0,0,0,0,0,0,0,0,0,0,0,0,0,0,0,0,0,0,0,0,0,0,0,0,0,0,0,0,0,0,0,0,0,0,0,0,0,0,0,0,0,0,0,0,0,0,0,0,0,0,0,0,0,0,0,0,0,0,0,0,0,0,0,0,0,0,0,0,0,0,0,0,0,0,0,0,0,0,0,0,0,0,0,0,0,0,0,0,0,0,0,0,0,0,0,0,0,0,0,0,0,0,0,0,0,0,0,0,0,0,0,0,0,0,0,0,0,0,0,0,9412,9418,9424,9430,9436,9442,0,0,0,0,0,0,0,0,0,0,0,0,0,0,0,0,0,0,0,0,0,0,0,0,0,0,0,0,0,0,0,0,0,0,0,0,0,0,0,0,0,0,0,0,0,0,0,0,0,0,0,0,0,0,0,0,0,0,0,0,0,0,0,0,0,0,0,0,0,0,0,0,0,0,0,0,0,0,0,0,0,0,0,0,0,0,0,0,0,0,0,0,0,0,0,0,0,0,0,0,0,0,0,0,0,0,0,0,0,0,0,0,0,0,0,0,0,0,0,0,0,0,9412,9418,9424,9430,9436,9442,0,0,0,0,0,0,0,0,0,0,0,0,0,0,0,0,0,0,0,0,0,0,0,0,0,0,0,0,0,0,0,0,0,0,0,0,0,0,0,0,0,0,0,0,0,0,0,0,0,0,0,0,0,0,0,0,0,0,0,0,0,0,0,0,0,0,0,0,0,0,0,0,0,0,0,0,0,0,0,0,0,0,0,0,0,0,0,0,0,0,0,0,0,0,0,0,0,0,0,0,0,0,0,0,0,0,0,0,0,0,0,0,0,0,0,0,0,0,0,0,0,0,9335,9341,9347,9353,9359,9365,9371,0,0,0,0,0,0,0,0,0,0,0,0,0,0,0,0,0,0,0,0,0,0,0,0,0,0,0,0,0,0,0,0,0,0,0,0,0,0,0,0,0,0,0,0,0,0,0,0,0,0,0,0,0,0,0,0,0,0,0,0,0,0,0,0,0,0,0,0,0,0,0,0,0,0,0,0,0,0,0,0,0,0,0,0,0,0,0,0,0,0,0,0,0,0,0,0,0,0,0,0,0,0,0,0,0,0,0,0,0,0,0,0,0,0,0,0,0,0,0,0,0,9335,9341,9347,9353,9359,9365,9371,0,0,0,0,0,0,0,0,0,0,0,0,0,0,0,0,0,0,0,0,0,0,0,0,0,0,0,0,0,0,0,0,0,0,0,0,0,0,0,0,0,0,0,0,0,0,0,0,0,0,0,0,0,0,0,0,0,0,0,0,0,0,0,0,0,0,0,0,0,0,0,0,0,0,0,0,0,0,0,0,0,0,0,0,0,0,0,0,0,0,0,0,0,0,0,0,0,0,0,0,0,0,0,0,0,0,0,0,0,0,0,0,0,0,0,0,0,0,0,0,0,9412,9418,9424,9430,9436,9442,0,0,0,0,0,0,0,0,0,0,0,0,0,0,0,0,0,0,0,0,0,0,0,0,0,0,0,0,0,0,0,0,0,0,0,0,0,0,0,0,0,0,0,0,0,0,0,0,0,0,0,0,0,0,0,0,0,0,0,0,0,0,0,0,0,0,0,0,0,0,0,0,0,0,0,0,0,0,0,0,0,0,0,0,0,0,0,0,0,0,0,0,0,0,0,0,0,0,0,0,0,0,0,0,0,0,0,0,0,0,0,0,0,0,0,0,0,0,0,0,0,0,9412,9418,9424,9430,9436,9442,0,0,0,0,0,0,0,0,0,0,0,0,0,0,0,0,0,0,0,0,0,0,0,0,0,0,0,0,0,0,0,0,0,0,0,0,0,0,0,0,0,0,0,0,0,0,0,0,0,0,0,0,0,0,0,0,0,0,0,0,0,0,0,0,0,0,0,0,0,0,0,0,0,0,0,0,0,0,0,0,0,0,0,0,0,0,0,0,0,0,0,0,0,0,0,0,0,0,0,0,0,0,0,0,0,0,0,0,0,0,0,0,0,0,0,0,0,0,0,0,0,0,9335,9341,9347,9353,9359,9365,9371,0,0,0,0,0,0,0,0,0,0,0,0,0,0,0,0,0,0,0,0,0,0,0,0,0,0,0,0,0,0,0,0,0,0,0,0,0,0,0,0,0,0,0,0,0,0,0,0,0,0,0,0,0,0,0,0,0,0,0,0,0,0,0,0,0,0,0,0,0,0,0,0,0,0,0,0,0,0,0,0,0,0,0,0,0,0,0,0,0,0,0,0,0,0,0,0,0,0,0,0,0,0,0,0,0,0,0,0,0,0,0,0,0,0,0,0,0,0,0,0,0,9335,9341,9347,9353,9359,9365,9371,0,0,0,0,0,0,0,0,0,0,0,0,0,0,0,0,0,0,0,0,0,0,0,0,0,0,0,0,0,0,0,0,0,0,0,0,0,0,0,0,0,0,0,0,0,0,0,0,0,0,0,0,0,0,0,0,0,0,0,0,0,0,0,0,0,0,0,0,0,0,0,0,0,0,0,0,0,0,0,0,0,0,0,0,0,0,0,0,0,0,0,0,0,0,0,0,0,0,0,0,0,0,0,0,0,0,0,0,0,0,0,0,0,0,0,0,0,0,0,0,0,9412,9418,9424,9430,9436,9442,0,0,0,0,0,0,0,0,0,0,0,0,0,0,0,0,0,0,0,0,0,0,0,0,0,0,0,0,0,0,0,0,0,0,0,0,0,0,0,0,0,0,0,0,0,0,0,0,0,0,0,0,0,0,0,0,0,0,0,0,0,0,0,0,0,0,0,0,0,0,0,0,0,0,0,0,0,0,0,0,0,0,0,0,0,0,0,0,0,0,0,0,0,0,0,0,0,0,0,0,0,0,0,0,0,0,0,0,0,0,0,0,0,0,0,0,0,0,0,0,0,0,9412,9418,9424,9430,9436,9442,0,0,0,0,0,0,0,0,0,0,0,0,0,0,0,0,0,0,0,0,0,0,0,0,0,0,0,0,0,0,0,0,0,0,0,0,0,0,0,0,0,0,0,0,0,0,0,0,0,0,0,0,0,0,0,0,0,0,0,0,0,0,0,0,0,0,0,0,0,0,0,0,0,0,0,0,0,0,0,0,0,0,0,0,0,0,0,0,0,0,0,0,0,0,0,0,0,0,0,0,0,0,0,0,0,0,0,0,0,0,0,0,0,0,0,0,0,0,0,0,0,9861,9866,9871,9876,9881,9886,9891,9896,0,0,0,0,0,0,0,0,0,0,0,0,0,0,0,0,0,0,0,0,0,0,0,0,0,0,0,0,0,0,0,0,0,0,0,0,0,0,0,0,0,0,0,0,0,0,0,0,0,0,0,0,0,0,0,0,0,0,0,0,0,0,0,0,0,0,0,0,0,0,0,0,0,0,0,0,0,0,0,0,0,0,0,0,0,0,0,0,0,0,0,0,0,0,0,0,0,0,0,0,0,0,0,0,0,0,0,0,0,0,0,0,0,0,0,0,0,0,0,0,9861,9866,9871,9876,9881,9886,9891,9896,0,0,0,0,0,0,0,0,0,0,0,0,0,0,0,0,0,0,0,0,0,0,0,0,0,0,0,0,0,0,0,0,0,0,0,0,0,0,0,0,0,0,0,0,0,0,0,0,0,0,0,0,0,0,0,0,0,0,0,0,0,0,0,0,0,0,0,0,0,0,0,0,0,0,0,0,0,0,0,0,0,0,0,0,0,0,0,0,0,0,0,0,0,0,0,0,0,0,0,0,0,0,0,0,0,0,0,0,0,0,0,0,0,0,0,0,0,0,0,0,9901,9906,9911,9916,9921,9926,9931,9936,0,0,0,0,0,0,0,0,0,0,0,0,0,0,0,0,0,0,0,0,0,0,0,0,0,0,0,0,0,0,0,0,0,0,0,0,0,0,0,0,0,0,0,0,0,0,0,0,0,0,0,0,0,0,0,0,0,0,0,0,0,0,0,0,0,0,0,0,0,0,0,0,0,0,0,0,0,0,0,0,0,0,0,0,0,0,0,0,0,0,0,0,0,0,0,0,0,0,0,0,0,0,0,0,0,0,0,0,0,0,0,0,0,0,0,0,0,0,0,0,9901,9906,9911,9916,9921,9926,9931,9936,0,0,0,0,0,0,0,0,0,0,0,0,0,0,0,0,0,0,0,0,0,0,0,0,0,0,0,0,0,0,0,0,0,0,0,0,0,0,0,0,0,0,0,0,0,0,0,0,0,0,0,0,0,0,0,0,0,0,0,0,0,0,0,0,0,0,0,0,0,0,0,0,0,0,0,0,0,0,0,0,0,0,0,0,0,0,0,0,0,0,0,0,0,0,0,0,0,0,0,0,0,0,0,0,0,0,0,0,0,0,0,0,0,0,0,0,0,0,0,0,9941,9946,9951,9956,9961,9966,9971,9976,0,0,0,0,0,0,0,0,0,0,0,0,0,0,0,0,0,0,0,0,0,0,0,0,0,0,0,0,0,0,0,0,0,0,0,0,0,0,0,0,0,0,0,0,0,0,0,0,0,0,0,0,0,0,0,0,0,0,0,0,0,0,0,0,0,0,0,0,0,0,0,0,0,0,0,0,0,0,0,0,0,0,0,0,0,0,0,0,0,0,0,0,0,0,0,0,0,0,0,0,0,0,0,0,0,0,0,0,0,0,0,0,0,0,0,0,0,0,0,0,9941,9946,9951,9956,9961,9966,9971,9976,0,0,0,0,0,0,0,0,0,0,0,0,0,0,0,0,0,0,0,0,0,0,0,0,0,0,0,0,0,0,0,0,0,0,0,0,0,0,0,0,0,0,0,0,0,0,0,0,0,0,0,0,0,0,0,0,0,0,0,0,0,0,0,0,0,0,0,0,0,0,0,0,0,0,0,0,0,0,0,0,0,0,0,0,0,0,0,0,0,0,0,0,0,0,0,0,0,0,0,0,0,0,0,0,0,0,0,0,0,0,0,0,0,0,0,0,0,0,0,0,9981,9986,9991,9996,10001,10006,10011,10016,0,0,0,0,0,0,0,0,0,0,0,0,0,0,0,0,0,0,0,0,0,0,0,0,0,0,0,0,0,0,0,0,0,0,0,0,0,0,0,0,0,0,0,0,0,0,0,0,0,0,0,0,0,0,0,0,0,0,0,0,0,0,0,0,0,0,0,0,0,0,0,0,0,0,0,0,0,0,0,0,0,0,0,0,0,0,0,0,0,0,0,0,0,0,0,0,0,0,0,0,0,0,0,0,0,0,0,0,0,0,0,0,0,0,0,0,0,0,0,0,9981,9986,9991,9996,10001,10006,10011,10016,0,0,0,0,0,0,0,0,0,0,0,0,0,0,0,0,0,0,0,0,0,0,0,0,0,0,0,0,0,0,0,0,0,0,0,0,0,0,0,0,0,0,0,0,0,0,0,0,0,0,0,0,0,0,0,0,0,0,0,0,0,0,0,0,0,0,0,0,0,0,0,0,0,0,0,0,0,0,0,0,0,0,0,0,0,0,0,0,0,0,0,0,0,0,0,0,0,0,0,0,0,0,0,0,0,0,0,0,0,0,0,0,0,0,0,0,0,0,0,0,10021,10026,10031,10036,10041,10046,10051,10056,0,0,0,0,0,0,0,0,0,0,0,0,0,0,0,0,0,0,0,0,0,0,0,0,0,0,0,0,0,0,0,0,0,0,0,0,0,0,0,0,0,0,0,0,0,0,0,0,0,0,0,0,0,0,0,0,0,0,0,0,0,0,0,0,0,0,0,0,0,0,0,0,0,0,0,0,0,0,0,0,0,0,0,0,0,0,0,0,0,0,0,0,0,0,0,0,0,0,0,0,0,0,0,0,0,0,0,0,0,0,0,0,0,0,0,0,0,0,0,0,10021,10026,10031,10036,10041,10046,10051,10056,0,0,0,0,0,0,0,0,0,0,0,0,0,0,0,0,0,0,0,0,0,0,0,0,0,0,0,0,0,0,0,0,0,0,0,0,0,0,0,0,0,0,0,0,0,0,0,0,0,0,0,0,0,0,0,0,0,0,0,0,0,0,0,0,0,0,0,0,0,0,0,0,0,0,0,0,0,0,0,0,0,0,0,0,0,0,0,0,0,0,0,0,0,0,0,0,0,0,0,0,0,0,0,0,0,0,0,0,0,0,0,0,0,0,0,0,0,0,0,0,10061,10066,10071,10076,10081,10086,10091,10096,0,0,0,0,0,0,0,0,0,0,0,0,0,0,0,0,0,0,0,0,0,0,0,0,0,0,0,0,0,0,0,0,0,0,0,0,0,0,0,0,0,0,0,0,0,0,0,0,0,0,0,0,0,0,0,0,0,0,0,0,0,0,0,0,0,0,0,0,0,0,0,0,0,0,0,0,0,0,0,0,0,0,0,0,0,0,0,0,0,0,0,0,0,0,0,0,0,0,0,0,0,0,0,0,0,0,0,0,0,0,0,0,0,0,0,0,0,0,0,0,10061,10066,10071,10076,10081,10086,10091,10096,0,0,0,0,0,0,0,0,0,0,0,0,0,0,0,0,0,0,0,0,0,0,0,0,0,0,0,0,0,0,0,0,0,0,0,0,0,0,0,0,0,0,0,0,0,0,0,0,0,0,0,0,0,0,0,0,0,0,0,0,0,0,0,0,0,0,0,0,0,0,0,0,0,0,0,0,0,0,0,0,0,0,0,0,0,0,0,0,0,0,0,0,0,0,0,0,0,0,0,0,0,0,0,0,0,0,0,0,0,0,0,0,0,0,0,0,0,0,0,0,10101,10106,10111,10116,10121,10126,10131,10136,0,0,0,0,0,0,0,0,0,0,0,0,0,0,0,0,0,0,0,0,0,0,0,0,0,0,0,0,0,0,0,0,0,0,0,0,0,0,0,0,0,0,0,0,0,0,0,0,0,0,0,0,0,0,0,0,0,0,0,0,0,0,0,0,0,0,0,0,0,0,0,0,0,0,0,0,0,0,0,0,0,0,0,0,0,0,0,0,0,0,0,0,0,0,0,0,0,0,0,0,0,0,0,0,0,0,0,0,0,0,0,0,0,0,0,0,0,0,0,0,10101,10106,10111,10116,10121,10126,10131,10136,0,0,0,0,0,0,0,0,0,0,0,0,0,0,0,0,0,0,0,0,0,0,0,0,0,0,0,0,0,0,0,0,0,0,0,0,0,0,0,0,0,0,0,0,0,0,0,0,0,0,0,0,0,0,0,0,0,0,0,0,0,0,0,0,0,0,0,0,0,0,0,0,0,0,0,0,0,0,0,0,0,0,0,0,0,0,0,0,0,0,0,0,0,0,0,0,0,0,0,0,0,0,0,0,0,0,0,0,0,0,0,0,0,0,0,0,0,0,0,0,10141,10146,10151,10156,10161,10166,10171,10176,0,0,0,0,0,0,0,0,0,0,0,0,0,0,0,0,0,0,0,0,0,0,0,0,0,0,0,0,0,0,0,0,0,0,0,0,0,0,0,0,0,0,0,0,0,0,0,0,0,0,0,0,0,0,0,0,0,0,0,0,0,0,0,0,0,0,0,0,0,0,0,0,0,0,0,0,0,0,0,0,0,0,0,0,0,0,0,0,0,0,0,0,0,0,0,0,0,0,0,0,0,0,0,0,0,0,0,0,0,0,0,0,0,0,0,0,0,0,0,0,10141,10146,10151,10156,10161,10166,10171,10176,0,0,0,0,0,0,0,0,0,0,0,0,0,0,0,0,0,0,0,0,0,0,0,0,0,0,0,0,0,0,0,0,0,0,0,0,0,0,0,0,0,0,0,0,0,0,0,0,0,0,0,0,0,0,0,0,0,0,0,0,0,0,0,0,0,0,0,0,0,0,0,0,0,0,0,0,0,0,0,0,0,0,0,0,0,0,0,0,0,0,0,0,0,0,0,0,0,0,0,0,0,0,0,0,0,0,0,0,0,0,0,0,0,0,0,0,0,0,0,0,10181,10186,10191,10196,10201,10206,10211,10216,0,0,0,0,0,0,0,0,0,0,0,0,0,0,0,0,0,0,0,0,0,0,0,0,0,0,0,0,0,0,0,0,0,0,0,0,0,0,0,0,0,0,0,0,0,0,0,0,0,0,0,0,0,0,0,0,0,0,0,0,0,0,0,0,0,0,0,0,0,0,0,0,0,0,0,0,0,0,0,0,0,0,0,0,0,0,0,0,0,0,0,0,0,0,0,0,0,0,0,0,0,0,0,0,0,0,0,0,0,0,0,0,0,0,0,0,0,0,0,0,10181,10186,10191,10196,10201,10206,10211,10216,0,0,0,0,0,0,0,0,0,0,0,0,0,0,0,0,0,0,0,0,0,0,0,0,0,0,0,0,0,0,0,0,0,0,0,0,0,0,0,0,0,0,0,0,0,0,0,0,0,0,0,0,0,0,0,0,0,0,0,0,0,0,0,0,0,0,0,0,0,0,0,0,0,0,0,0,0,0,0,0,0,0,0,0,0,0,0,0,0,0,0,0,0,0,0,0,0,0,0,0,0,0,0,0,0,0,0,0,0,0,0,0,0,0,0,0,0,0,0,0,10221,10226,10231,10236,10241,10246,10251,10256,0,0,0,0,0,0,0,0,0,0,0,0,0,0,0,0,0,0,0,0,0,0,0,0,0,0,0,0,0,0,0,0,0,0,0,0,0,0,0,0,0,0,0,0,0,0,0,0,0,0,0,0,0,0,0,0,0,0,0,0,0,0,0,0,0,0,0,0,0,0,0,0,0,0,0,0,0,0,0,0,0,0,0,0,0,0,0,0,0,0,0,0,0,0,0,0,0,0,0,0,0,0,0,0,0,0,0,0,0,0,0,0,0,0,0,0,0,0,0,0,10221,10226,10231,10236,10241,10246,10251,10256,0,0,0,0,0,0,0,0,0,0,0,0,0,0,0,0,0,0,0,0,0,0,0,0,0,0,0,0,0,0,0,0,0,0,0,0,0,0,0,0,0,0,0,0,0,0,0,0,0,0,0,0,0,0,0,0,0,0,0,0,0,0,0,0,0,0,0,0,0,0,0,0,0,0,0,0,0,0,0,0,0,0,0,0,0,0,0,0,0,0,0,0,0,0,0,0,0,0,0,0,0,0,0,0,0,0,0,0,0,0,0,0,0,0,0,0,0,0,0,0,10101,10106,10111,10116,10121,10126,10131,10136,0,0,0,0,0,0,0,0,0,0,0,0,0,0,0,0,0,0,0,0,0,0,0,0,0,0,0,0,0,0,0,0,0,0,0,0,0,0,0,0,0,0,0,0,0,0,0,0,0,0,0,0,0,0,0,0,0,0,0,0,0,0,0,0,0,0,0,0,0,0,0,0,0,0,0,0,0,0,0,0,0,0,0,0,0,0,0,0,0,0,0,0,0,0,0,0,0,0,0,0,0,0,0,0,0,0,0,0,0,0,0,0,0,0,0,0,0,0,0,0,10101,10106,10111,10116,10121,10126,10131,10136,0,0,0,0,0,0,0,0,0,0,0,0,0,0,0,0,0,0,0,0,0,0,0,0,0,0,0,0,0,0,0,0,0,0,0,0,0,0,0,0,0,0,0,0,0,0,0,0,0,0,0,0,0,0,0,0,0,0,0,0,0,0,0,0,0,0,0,0,0,0,0,0,0,0,0,0,0,0,0,0,0,0,0,0,0,0,0,0,0,0,0,0,0,0,0,0,0,0,0,0,0,0,0,0,0,0,0,0,0,0,0,0,0,0,0,0,0,0,0,0,10141,10146,10151,10156,10161,10166,10171,10176,0,0,0,0,0,0,0,0,0,0,0,0,0,0,0,0,0,0,0,0,0,0,0,0,0,0,0,0,0,0,0,0,0,0,0,0,0,0,0,0,0,0,0,0,0,0,0,0,0,0,0,0,0,0,0,0,0,0,0,0,0,0,0,0,0,0,0,0,0,0,0,0,0,0,0,0,0,0,0,0,0,0,0,0,0,0,0,0,0,0,0,0,0,0,0,0,0,0,0,0,0,0,0,0,0,0,0,0,0,0,0,0,0,0,0,0,0,0,0,0,10141,10146,10151,10156,10161,10166,10171,10176,0,0,0,0,0,0,0,0,0,0,0,0,0,0,0,0,0,0,0,0,0,0,0,0,0,0,0,0,0,0,0,0,0,0,0,0,0,0,0,0,0,0,0,0,0,0,0,0,0,0,0,0,0,0,0,0,0,0,0,0,0,0,0,0,0,0,0,0,0,0,0,0,0,0,0,0,0,0,0,0,0,0,0,0,0,0,0,0,0,0,0,0,0,0,0,0,0,0,0,0,0,0,0,0,0,0,0,0,0,0,0,0,0,0,0,0,0,0,0,0,10181,10186,10191,10196,10201,10206,10211,10216,0,0,0,0,0,0,0,0,0,0,0,0,0,0,0,0,0,0,0,0,0,0,0,0,0,0,0,0,0,0,0,0,0,0,0,0,0,0,0,0,0,0,0,0,0,0,0,0,0,0,0,0,0,0,0,0,0,0,0,0,0,0,0,0,0,0,0,0,0,0,0,0,0,0,0,0,0,0,0,0,0,0,0,0,0,0,0,0,0,0,0,0,0,0,0,0,0,0,0,0,0,0,0,0,0,0,0,0,0,0,0,0,0,0,0,0,0,0,0,0,10181,10186,10191,10196,10201,10206,10211,10216,0,0,0,0,0,0,0,0,0,0,0,0,0,0,0,0,0,0,0,0,0,0,0,0,0,0,0,0,0,0,0,0,0,0,0,0,0,0,0,0,0,0,0,0,0,0,0,0,0,0,0,0,0,0,0,0,0,0,0,0,0,0,0,0,0,0,0,0,0,0,0,0,0,0,0,0,0,0,0,0,0,0,0,0,0,0,0,0,0,0,0,0,0,0,0,0,0,0,0,0,0,0,0,0,0,0,0,0,0,0,0,0,0,0,0,0,0,0,0,0,10221,10226,10231,10236,10241,10246,10251,10256,0,0,0,0,0,0,0,0,0,0,0,0,0,0,0,0,0,0,0,0,0,0,0,0,0,0,0,0,0,0,0,0,0,0,0,0,0,0,0,0,0,0,0,0,0,0,0,0,0,0,0,0,0,0,0,0,0,0,0,0,0,0,0,0,0,0,0,0,0,0,0,0,0,0,0,0,0,0,0,0,0,0,0,0,0,0,0,0,0,0,0,0,0,0,0,0,0,0,0,0,0,0,0,0,0,0,0,0,0,0,0,0,0,0,0,0,0,0,0,0,10221,10226,10231,10236,10241,10246,10251,10256,0,0,0,0,0,0,0,0,0,0,0,0,0,0,0,0,0,0,0,0,0,0,0,0,0,0,0,0,0,0,0,0,0,0,0,0,0,0,0,0,0,0,0,0,0,0,0,0,0,0,0,0,0,0,0,0,0,0,0,0,0,0,0,0,0,0,0,0,0,0,0,0,0,0,0,0,0,0,0,0,0,0,0,0,0,0,0,0,0,0,0,0,0,0,0,0,0,0,0,0,0,0,0,0,0,0,0,0,0,0,0,0,0,0,0,0,0,0,0,0,10101,10106,10111,10116,10121,10126,10131,10136,0,0,0,0,0,0,0,0,0,0,0,0,0,0,0,0,0,0,0,0,0,0,0,0,0,0,0,0,0,0,0,0,0,0,0,0,0,0,0,0,0,0,0,0,0,0,0,0,0,0,0,0,0,0,0,0,0,0,0,0,0,0,0,0,0,0,0,0,0,0,0,0,0,0,0,0,0,0,0,0,0,0,0,0,0,0,0,0,0,0,0,0,0,0,0,0,0,0,0,0,0,0,0,0,0,0,0,0,0,0,0,0,0,0,0,0,0,0,0,0,10101,10106,10111,10116,10121,10126,10131,10136,0,0,0,0,0,0,0,0,0,0,0,0,0,0,0,0,0,0,0,0,0,0,0,0,0,0,0,0,0,0,0,0,0,0,0,0,0,0,0,0,0,0,0,0,0,0,0,0,0,0,0,0,0,0,0,0,0,0,0,0,0,0,0,0,0,0,0,0,0,0,0,0,0,0,0,0,0,0,0,0,0,0,0,0,0,0,0,0,0,0,0,0,0,0,0,0,0,0,0,0,0,0,0,0,0,0,0,0,0,0,0,0,0,0,0,0,0,0,0,0,10141,10146,10151,10156,10161,10166,10171,10176,0,0,0,0,0,0,0,0,0,0,0,0,0,0,0,0,0,0,0,0,0,0,0,0,0,0,0,0,0,0,0,0,0,0,0,0,0,0,0,0,0,0,0,0,0,0,0,0,0,0,0,0,0,0,0,0,0,0,0,0,0,0,0,0,0,0,0,0,0,0,0,0,0,0,0,0,0,0,0,0,0,0,0,0,0,0,0,0,0,0,0,0,0,0,0,0,0,0,0,0,0,0,0,0,0,0,0,0,0,0,0,0,0,0,0,0,0,0,0,0,10141,10146,10151,10156,10161,10166,10171,10176,0,0,0,0,0,0,0,0,0,0,0,0,0,0,0,0,0,0,0,0,0,0,0,0,0,0,0,0,0,0,0,0,0,0,0,0,0,0,0,0,0,0,0,0,0,0,0,0,0,0,0,0,0,0,0,0,0,0,0,0,0,0,0,0,0,0,0,0,0,0,0,0,0,0,0,0,0,0,0,0,0,0,0,0,0,0,0,0,0,0,0,0,0,0,0,0,0,0,0,0,0,0,0,0,0,0,0,0,0,0,0,0,0,0,0,0,0,0,0,0,10181,10186,10191,10196,10201,10206,10211,10216,0,0,0,0,0,0,0,0,0,0,0,0,0,0,0,0,0,0,0,0,0,0,0,0,0,0,0,0,0,0,0,0,0,0,0,0,0,0,0,0,0,0,0,0,0,0,0,0,0,0,0,0,0,0,0,0,0,0,0,0,0,0,0,0,0,0,0,0,0,0,0,0,0,0,0,0,0,0,0,0,0,0,0,0,0,0,0,0,0,0,0,0,0,0,0,0,0,0,0,0,0,0,0,0,0,0,0,0,0,0,0,0,0,0,0,0,0,0,0,0,10181,10186,10191,10196,10201,10206,10211,10216,0,0,0,0,0,0,0,0,0,0,0,0,0,0,0,0,0,0,0,0,0,0,0,0,0,0,0,0,0,0,0,0,0,0,0,0,0,0,0,0,0,0,0,0,0,0,0,0,0,0,0,0,0,0,0,0,0,0,0,0,0,0,0,0,0,0,0,0,0,0,0,0,0,0,0,0,0,0,0,0,0,0,0,0,0,0,0,0,0,0,0,0,0,0,0,0,0,0,0,0,0,0,0,0,0,0,0,0,0,0,0,0,0,0,0,0,0,0,0,0,10221,10226,10231,10236,10241,10246,10251,10256,0,0,0,0,0,0,0,0,0,0,0,0,0,0,0,0,0,0,0,0,0,0,0,0,0,0,0,0,0,0,0,0,0,0,0,0,0,0,0,0,0,0,0,0,0,0,0,0,0,0,0,0,0,0,0,0,0,0,0,0,0,0,0,0,0,0,0,0,0,0,0,0,0,0,0,0,0,0,0,0,0,0,0,0,0,0,0,0,0,0,0,0,0,0,0,0,0,0,0,0,0,0,0,0,0,0,0,0,0,0,0,0,0,0,0,0,0,0,0,0,10221,10226,10231,10236,10241,10246,10251,10256,0,0,0,0,0,0,0,0,0,0,0,0,0,0,0,0,0,0,0,0,0,0,0,0,0,0,0,0,0,0,0,0,0,0,0,0,0,0,0,0,0,0,0,0,0,0,0,0,0,0,0,0,0,0,0,0,0,0,0,0,0,0,0,0,0,0,0,0,0,0,0,0,0,0,0,0,0,0,0,0,0,0,0,0,0,0,0,0,0,0,0,0,0,0,0,0,0,0,0,0,0,0,0,0,0,0,0,0,0,0,0,0,0,0,0,0,0,0,0,0,10101,10106,10111,10116,10121,10126,10131,10136,0,0,0,0,0,0,0,0,0,0,0,0,0,0,0,0,0,0,0,0,0,0,0,0,0,0,0,0,0,0,0,0,0,0,0,0,0,0,0,0,0,0,0,0,0,0,0,0,0,0,0,0,0,0,0,0,0,0,0,0,0,0,0,0,0,0,0,0,0,0,0,0,0,0,0,0,0,0,0,0,0,0,0,0,0,0,0,0,0,0,0,0,0,0,0,0,0,0,0,0,0,0,0,0,0,0,0,0,0,0,0,0,0,0,0,0,0,0,0,0,10101,10106,10111,10116,10121,10126,10131,10136,0,0,0,0,0,0,0,0,0,0,0,0,0,0,0,0,0,0,0,0,0,0,0,0,0,0,0,0,0,0,0,0,0,0,0,0,0,0,0,0,0,0,0,0,0,0,0,0,0,0,0,0,0,0,0,0,0,0,0,0,0,0,0,0,0,0,0,0,0,0,0,0,0,0,0,0,0,0,0,0,0,0,0,0,0,0,0,0,0,0,0,0,0,0,0,0,0,0,0,0,0,0,0,0,0,0,0,0,0,0,0,0,0,0,0,0,0,0,0,0,10141,10146,10151,10156,10161,10166,10171,10176,0,0,0,0,0,0,0,0,0,0,0,0,0,0,0,0,0,0,0,0,0,0,0,0,0,0,0,0,0,0,0,0,0,0,0,0,0,0,0,0,0,0,0,0,0,0,0,0,0,0,0,0,0,0,0,0,0,0,0,0,0,0,0,0,0,0,0,0,0,0,0,0,0,0,0,0,0,0,0,0,0,0,0,0,0,0,0,0,0,0,0,0,0,0,0,0,0,0,0,0,0,0,0,0,0,0,0,0,0,0,0,0,0,0,0,0,0,0,0,0,10141,10146,10151,10156,10161,10166,10171,10176,0,0,0,0,0,0,0,0,0,0,0,0,0,0,0,0,0,0,0,0,0,0,0,0,0,0,0,0,0,0,0,0,0,0,0,0,0,0,0,0,0,0,0,0,0,0,0,0,0,0,0,0,0,0,0,0,0,0,0,0,0,0,0,0,0,0,0,0,0,0,0,0,0,0,0,0,0,0,0,0,0,0,0,0,0,0,0,0,0,0,0,0,0,0,0,0,0,0,0,0,0,0,0,0,0,0,0,0,0,0,0,0,0,0,0,0,0,0,0,0,10181,10186,10191,10196,10201,10206,10211,10216,0,0,0,0,0,0,0,0,0,0,0,0,0,0,0,0,0,0,0,0,0,0,0,0,0,0,0,0,0,0,0,0,0,0,0,0,0,0,0,0,0,0,0,0,0,0,0,0,0,0,0,0,0,0,0,0,0,0,0,0,0,0,0,0,0,0,0,0,0,0,0,0,0,0,0,0,0,0,0,0,0,0,0,0,0,0,0,0,0,0,0,0,0,0,0,0,0,0,0,0,0,0,0,0,0,0,0,0,0,0,0,0,0,0,0,0,0,0,0,0,10181,10186,10191,10196,10201,10206,10211,10216,0,0,0,0,0,0,0,0,0,0,0,0,0,0,0,0,0,0,0,0,0,0,0,0,0,0,0,0,0,0,0,0,0,0,0,0,0,0,0,0,0,0,0,0,0,0,0,0,0,0,0,0,0,0,0,0,0,0,0,0,0,0,0,0,0,0,0,0,0,0,0,0,0,0,0,0,0,0,0,0,0,0,0,0,0,0,0,0,0,0,0,0,0,0,0,0,0,0,0,0,0,0,0,0,0,0,0,0,0,0,0,0,0,0,0,0,0,0,0,0,10221,10226,10231,10236,10241,10246,10251,10256,0,0,0,0,0,0,0,0,0,0,0,0,0,0,0,0,0,0,0,0,0,0,0,0,0,0,0,0,0,0,0,0,0,0,0,0,0,0,0,0,0,0,0,0,0,0,0,0,0,0,0,0,0,0,0,0,0,0,0,0,0,0,0,0,0,0,0,0,0,0,0,0,0,0,0,0,0,0,0,0,0,0,0,0,0,0,0,0,0,0,0,0,0,0,0,0,0,0,0,0,0,0,0,0,0,0,0,0,0,0,0,0,0,0,0,0,0,0,0,0,10221,10226,10231,10236,10241,10246,10251,10256,0,0,0,0,0,0,0,0,0,0,0,0,0,0,0,0,0,0,0,0,0,0,0,0,0,0,0,0,0,0,0,0,0,0,0,0,0,0,0,0,0,0,0,0,0,0,0,0,0,0,0,0,0,0,0,0,0,0,0,0,0,0,0,0,0,0,0,0,0,0,0,0,0,0,0,0,0,0,0,0,0,0,0,0,0,0,0,0,0,0,0,0,0,0,0,0,0,0,0,0,0,0,0,0,0,0,0,0,0,0,0,0,0,0,0,0,0,0,0,0,10101,10106,10111,10116,10121,10126,10131,10136,0,0,0,0,0,0,0,0,0,0,0,0,0,0,0,0,0,0,0,0,0,0,0,0,0,0,0,0,0,0,0,0,0,0,0,0,0,0,0,0,0,0,0,0,0,0,0,0,0,0,0,0,0,0,0,0,0,0,0,0,0,0,0,0,0,0,0,0,0,0,0,0,0,0,0,0,0,0,0,0,0,0,0,0,0,0,0,0,0,0,0,0,0,0,0,0,0,0,0,0,0,0,0,0,0,0,0,0,0,0,0,0,0,0,0,0,0,0,0,0,10101,10106,10111,10116,10121,10126,10131,10136,0,0,0,0,0,0,0,0,0,0,0,0,0,0,0,0,0,0,0,0,0,0,0,0,0,0,0,0,0,0,0,0,0,0,0,0,0,0,0,0,0,0,0,0,0,0,0,0,0,0,0,0,0,0,0,0,0,0,0,0,0,0,0,0,0,0,0,0,0,0,0,0,0,0,0,0,0,0,0,0,0,0,0,0,0,0,0,0,0,0,0,0,0,0,0,0,0,0,0,0,0,0,0,0,0,0,0,0,0,0,0,0,0,0,0,0,0,0,0,0,10261,10266,10271,10276,10281,10286,10291,10296,0,0,0,0,0,0,0,0,0,0,0,0,0,0,0,0,0,0,0,0,0,0,0,0,0,0,0,0,0,0,0,0,0,0,0,0,0,0,0,0,0,0,0,0,0,0,0,0,0,0,0,0,0,0,0,0,0,0,0,0,0,0,0,0,0,0,0,0,0,0,0,0,0,0,0,0,0,0,0,0,0,0,0,0,0,0,0,0,0,0,0,0,0,0,0,0,0,0,0,0,0,0,0,0,0,0,0,0,0,0,0,0,0,0,0,0,0,0,0,0,10261,10266,10271,10276,10281,10286,10291,10296,0,0,0,0,0,0,0,0,0,0,0,0,0,0,0,0,0,0,0,0,0,0,0,0,0,0,0,0,0,0,0,0,0,0,0,0,0,0,0,0,0,0,0,0,0,0,0,0,0,0,0,0,0,0,0,0,0,0,0,0,0,0,0,0,0,0,0,0,0,0,0,0,0,0,0,0,0,0,0,0,0,0,0,0,0,0,0,0,0,0,0,0,0,0,0,0,0,0,0,0,0,0,0,0,0,0,0,0,0,0,0,0,0,0,0,0,0,0,0,0,10301,10306,10311,10316,10321,10326,10331,10336,0,0,0,0,0,0,0,0,0,0,0,0,0,0,0,0,0,0,0,0,0,0,0,0,0,0,0,0,0,0,0,0,0,0,0,0,0,0,0,0,0,0,0,0,0,0,0,0,0,0,0,0,0,0,0,0,0,0,0,0,0,0,0,0,0,0,0,0,0,0,0,0,0,0,0,0,0,0,0,0,0,0,0,0,0,0,0,0,0,0,0,0,0,0,0,0,0,0,0,0,0,0,0,0,0,0,0,0,0,0,0,0,0,0,0,0,0,0,0,0,10301,10306,10311,10316,10321,10326,10331,10336,0,0,0,0,0,0,0,0,0,0,0,0,0,0,0,0,0,0,0,0,0,0,0,0,0,0,0,0,0,0,0,0,0,0,0,0,0,0,0,0,0,0,0,0,0,0,0,0,0,0,0,0,0,0,0,0,0,0,0,0,0,0,0,0,0,0,0,0,0,0,0,0,0,0,0,0,0,0,0,0,0,0,0,0,0,0,0,0,0,0,0,0,0,0,0,0,0,0,0,0,0,0,0,0,0,0,0,0,0,0,0,0,0,0,0,0,0,0,0,0,0,0,0,0,0,0,0,0,0,0,0,0,0,0,0,0,0,0,0,0,0,0,0,0,0,0,0,0,0,0,0,0,0,0,0,0,0,0,0,0,0,0,0,0,0,0,0,0,0,0,0,0,0,0,0,0,0,0,0,0,0,0,0,0,0,0,0,0,0,0,0,0,0,0,0,0,0,0,0,0,0,0,0,0,0,0,0,0,0,0,0,0,0,0,0,0,0,0,0,0,0,0,0,0,0,0,0,0,0,0,0,0,0,0,0,0,0,0,0,0,0,0,0,0,0,0,0,0,0,0,0,0,0,0,0,0,0,0,0,0,0,0,0,0,0,0,0,0,0,0,0,0,0,0,0,0,0,0,0,0,0,0,0,0,0,0,0,0,0,0,0,0,0,0,0,0,0,0,0,0,0,0,0,0,0,0,0,0,0,0,0,0,0,0,0,0,0,0,0,0,0,0,0,0,0,0,0,0,0,0,0,0,0,0,0,0,0,0,0,0,0,0,0,0,0,0,0,0,0,0,0,0,0,0,0,0,0,0,0,0,0,0,0,0,0,0,0,0,0,0,0,0,0,0,0,0,0,9335,9341,9347,9353,9359,9365,9371,0,0,0,0,0,0,0,0,0,0,0,0,0,0,0,0,0,0,0,0,0,0,0,0,0,0,0,0,0,0,0,0,0,0,0,0,0,0,0,0,0,0,0,0,0,0,0,0,0,0,0,0,0,0,0,0,0,0,0,0,0,0,0,0,0,0,0,0,0,0,0,0,0,0,0,0,0,0,0,0,0,0,0,0,0,0,0,0,0,0,0,0,0,0,0,0,0,0,0,0,0,0,0,0,0,0,0,0,0,0,0,0,0,0,0,0,0,0,0,0,0,9335,9341,9347,9353,9359,9365,9371,0,0,0,0,0,0,0,0,0,0,0,0,0,0,0,0,0,0,0,0,0,0,0,0,0,0,0,0,0,0,0,0,0,0,0,0,0,0,0,0,0,0,0,0,0,0,0,0,0,0,0,0,0,0,0,0,0,0,0,0,0,0,0,0,0,0,0,0,0,0,0,0,0,0,0,0,0,0,0,0,0,0,0,0,0,0,0,0,0,0,0,0,0,0,0,0,0,0,0,0,0,0,0,0,0,0,0,0,0,0,0,0,0,0,0,0,0,0,0,0,0,9412,9418,9424,9430,9436,9442,0,0,0,0,0,0,0,0,0,0,0,0,0,0,0,0,0,0,0,0,0,0,0,0,0,0,0,0,0,0,0,0,0,0,0,0,0,0,0,0,0,0,0,0,0,0,0,0,0,0,0,0,0,0,0,0,0,0,0,0,0,0,0,0,0,0,0,0,0,0,0,0,0,0,0,0,0,0,0,0,0,0,0,0,0,0,0,0,0,0,0,0,0,0,0,0,0,0,0,0,0,0,0,0,0,0,0,0,0,0,0,0,0,0,0,0,0,0,0,0,0,0,9412,9418,9424,9430,9436,9442,0,0,0,0,0,0,0,0,0,0,0,0,0,0,0,0,0,0,0,0,0,0,0,0,0,0,0,0,0,0,0,0,0,0,0,0,0,0,0,0,0,0,0,0,0,0,0,0,0,0,0,0,0,0,0,0,0,0,0,0,0,0,0,0,0,0,0,0,0,0,0,0,0,0,0,0,0,0,0,0,0,0,0,0,0,0,0,0,0,0,0,0,0,0,0,0,0,0,0,0,0,0,0,0,0,0,0,0,0,0,0,0,0,0,0,0,0,0,0,0,0,0,9335,9341,9347,9353,9359,9365,9371,0,0,0,0,0,0,0,0,0,0,0,0,0,0,0,0,0,0,0,0,0,0,0,0,0,0,0,0,0,0,0,0,0,0,0,0,0,0,0,0,0,0,0,0,0,0,0,0,0,0,0,0,0,0,0,0,0,0,0,0,0,0,0,0,0,0,0,0,0,0,0,0,0,0,0,0,0,0,0,0,0,0,0,0,0,0,0,0,0,0,0,0,0,0,0,0,0,0,0,0,0,0,0,0,0,0,0,0,0,0,0,0,0,0,0,0,0,0,0,0,0,9335,9341,9347,9353,9359,9365,9371,0,0,0,0,0,0,0,0,0,0,0,0,0,0,0,0,0,0,0,0,0,0,0,0,0,0,0,0,0,0,0,0,0,0,0,0,0,0,0,0,0,0,0,0,0,0,0,0,0,0,0,0,0,0,0,0,0,0,0,0,0,0,0,0,0,0,0,0,0,0,0,0,0,0,0,0,0,0,0,0,0,0,0,0,0,0,0,0,0,0,0,0,0,0,0,0,0,0,0,0,0,0,0,0,0,0,0,0,0,0,0,0,0,0,0,0,0,0,0,0,0,9412,9418,9424,9430,9436,9442,0,0,0,0,0,0,0,0,0,0,0,0,0,0,0,0,0,0,0,0,0,0,0,0,0,0,0,0,0,0,0,0,0,0,0,0,0,0,0,0,0,0,0,0,0,0,0,0,0,0,0,0,0,0,0,0,0,0,0,0,0,0,0,0,0,0,0,0,0,0,0,0,0,0,0,0,0,0,0,0,0,0,0,0,0,0,0,0,0,0,0,0,0,0,0,0,0,0,0,0,0,0,0,0,0,0,0,0,0,0,0,0,0,0,0,0,0,0,0,0,0,0,9412,9418,9424,9430,9436,9442,0,0,0,0,0,0,0,0,0,0,0,0,0,0,0,0,0,0,0,0,0,0,0,0,0,0,0,0,0,0,0,0,0,0,0,0,0,0,0,0,0,0,0,0,0,0,0,0,0,0,0,0,0,0,0,0,0,0,0,0,0,0,0,0,0,0,0,0,0,0,0,0,0,0,0,0,0,0,0,0,0,0,0,0,0,0,0,0,0,0,0,0,0,0,0,0,0,0,0,0,0,0,0,0,0,0,0,0,0,0,0,0,0,0,0,0,0,0,0,0,0,0,9335,9341,9347,9353,9359,9365,9371,0,0,0,0,0,0,0,0,0,0,0,0,0,0,0,0,0,0,0,0,0,0,0,0,0,0,0,0,0,0,0,0,0,0,0,0,0,0,0,0,0,0,0,0,0,0,0,0,0,0,0,0,0,0,0,0,0,0,0,0,0,0,0,0,0,0,0,0,0,0,0,0,0,0,0,0,0,0,0,0,0,0,0,0,0,0,0,0,0,0,0,0,0,0,0,0,0,0,0,0,0,0,0,0,0,0,0,0,0,0,0,0,0,0,0,0,0,0,0,0,0,9335,9341,9347,9353,9359,9365,9371,0,0,0,0,0,0,0,0,0,0,0,0,0,0,0,0,0,0,0,0,0,0,0,0,0,0,0,0,0,0,0,0,0,0,0,0,0,0,0,0,0,0,0,0,0,0,0,0,0,0,0,0,0,0,0,0,0,0,0,0,0,0,0,0,0,0,0,0,0,0,0,0,0,0,0,0,0,0,0,0,0,0,0,0,0,0,0,0,0,0,0,0,0,0,0,0,0,0,0,0,0,0,0,0,0,0,0,0,0,0,0,0,0,0,0,0,0,0,0,0,0,9412,9418,9424,9430,9436,9442,0,0,0,0,0,0,0,0,0,0,0,0,0,0,0,0,0,0,0,0,0,0,0,0,0,0,0,0,0,0,0,0,0,0,0,0,0,0,0,0,0,0,0,0,0,0,0,0,0,0,0,0,0,0,0,0,0,0,0,0,0,0,0,0,0,0,0,0,0,0,0,0,0,0,0,0,0,0,0,0,0,0,0,0,0,0,0,0,0,0,0,0,0,0,0,0,0,0,0,0,0,0,0,0,0,0,0,0,0,0,0,0,0,0,0,0,0,0,0,0,0,0,9412,9418,9424,9430,9436,9442,0,0,0,0,0,0,0,0,0,0,0,0,0,0,0,0,0,0,0,0,0,0,0,0,0,0,0,0,0,0,0,0,0,0,0,0,0,0,0,0,0,0,0,0,0,0,0,0,0,0,0,0,0,0,0,0,0,0,0,0,0,0,0,0,0,0,0,0,0,0,0,0,0,0,0,0,0,0,0,0,0,0,0,0,0,0,0,0,0,0,0,0,0,0,0,0,0,0,0,0,0,0,0,0,0,0,0,0,0,0,0,0,0,0,0,0,0,0,0,0,0,0,9335,9341,9347,9353,9359,9365,9371,0,0,0,0,0,0,0,0,0,0,0,0,0,0,0,0,0,0,0,0,0,0,0,0,0,0,0,0,0,0,0,0,0,0,0,0,0,0,0,0,0,0,0,0,0,0,0,0,0,0,0,0,0,0,0,0,0,0,0,0,0,0,0,0,0,0,0,0,0,0,0,0,0,0,0,0,0,0,0,0,0,0,0,0,0,0,0,0,0,0,0,0,0,0,0,0,0,0,0,0,0,0,0,0,0,0,0,0,0,0,0,0,0,0,0,0,0,0,0,0,0,9335,9341,9347,9353,9359,9365,9371,0,0,0,0,0,0,0,0,0,0,0,0,0,0,0,0,0,0,0,0,0,0,0,0,0,0,0,0,0,0,0,0,0,0,0,0,0,0,0,0,0,0,0,0,0,0,0,0,0,0,0,0,0,0,0,0,0,0,0,0,0,0,0,0,0,0,0,0,0,0,0,0,0,0,0,0,0,0,0,0,0,0,0,0,0,0,0,0,0,0,0,0,0,0,0,0,0,0,0,0,0,0,0,0,0,0,0,0,0,0,0,0,0,0,0,0,0,0,0,0,0,9412,9418,9424,9430,9436,9442,0,0,0,0,0,0,0,0,0,0,0,0,0,0,0,0,0,0,0,0,0,0,0,0,0,0,0,0,0,0,0,0,0,0,0,0,0,0,0,0,0,0,0,0,0,0,0,0,0,0,0,0,0,0,0,0,0,0,0,0,0,0,0,0,0,0,0,0,0,0,0,0,0,0,0,0,0,0,0,0,0,0,0,0,0,0,0,0,0,0,0,0,0,0,0,0,0,0,0,0,0,0,0,0,0,0,0,0,0,0,0,0,0,0,0,0,0,0,0,0,0,0,9412,9418,9424,9430,9436,9442,0,0,0,0,0,0,0,0,0,0,0,0,0,0,0,0,0,0,0,0,0,0,0,0,0,0,0,0,0,0,0,0,0,0,0,0,0,0,0,0,0,0,0,0,0,0,0,0,0,0,0,0,0,0,0,0,0,0,0,0,0,0,0,0,0,0,0,0,0,0,0,0,0,0,0,0,0,0,0,0,0,0,0,0,0,0,0,0,0,0,0,0,0,0,0,0,0,0,0,0,0,0,0,0,0,0,0,0,0,0,0,0,0,0,0,0,0,0,0,0,0,9861,9866,9871,9876,9881,9886,9891,9896,0,0,0,0,0,0,0,0,0,0,0,0,0,0,0,0,0,0,0,0,0,0,0,0,0,0,0,0,0,0,0,0,0,0,0,0,0,0,0,0,0,0,0,0,0,0,0,0,0,0,0,0,0,0,0,0,0,0,0,0,0,0,0,0,0,0,0,0,0,0,0,0,0,0,0,0,0,0,0,0,0,0,0,0,0,0,0,0,0,0,0,0,0,0,0,0,0,0,0,0,0,0,0,0,0,0,0,0,0,0,0,0,0,0,0,0,0,0,0,0,9861,9866,9871,9876,9881,9886,9891,9896,0,0,0,0,0,0,0,0,0,0,0,0,0,0,0,0,0,0,0,0,0,0,0,0,0,0,0,0,0,0,0,0,0,0,0,0,0,0,0,0,0,0,0,0,0,0,0,0,0,0,0,0,0,0,0,0,0,0,0,0,0,0,0,0,0,0,0,0,0,0,0,0,0,0,0,0,0,0,0,0,0,0,0,0,0,0,0,0,0,0,0,0,0,0,0,0,0,0,0,0,0,0,0,0,0,0,0,0,0,0,0,0,0,0,0,0,0,0,0,0,9901,9906,9911,9916,9921,9926,9931,9936,0,0,0,0,0,0,0,0,0,0,0,0,0,0,0,0,0,0,0,0,0,0,0,0,0,0,0,0,0,0,0,0,0,0,0,0,0,0,0,0,0,0,0,0,0,0,0,0,0,0,0,0,0,0,0,0,0,0,0,0,0,0,0,0,0,0,0,0,0,0,0,0,0,0,0,0,0,0,0,0,0,0,0,0,0,0,0,0,0,0,0,0,0,0,0,0,0,0,0,0,0,0,0,0,0,0,0,0,0,0,0,0,0,0,0,0,0,0,0,0,9901,9906,9911,9916,9921,9926,9931,9936,0,0,0,0,0,0,0,0,0,0,0,0,0,0,0,0,0,0,0,0,0,0,0,0,0,0,0,0,0,0,0,0,0,0,0,0,0,0,0,0,0,0,0,0,0,0,0,0,0,0,0,0,0,0,0,0,0,0,0,0,0,0,0,0,0,0,0,0,0,0,0,0,0,0,0,0,0,0,0,0,0,0,0,0,0,0,0,0,0,0,0,0,0,0,0,0,0,0,0,0,0,0,0,0,0,0,0,0,0,0,0,0,0,0,0,0,0,0,0,0,9941,9946,9951,9956,9961,9966,9971,9976,0,0,0,0,0,0,0,0,0,0,0,0,0,0,0,0,0,0,0,0,0,0,0,0,0,0,0,0,0,0,0,0,0,0,0,0,0,0,0,0,0,0,0,0,0,0,0,0,0,0,0,0,0,0,0,0,0,0,0,0,0,0,0,0,0,0,0,0,0,0,0,0,0,0,0,0,0,0,0,0,0,0,0,0,0,0,0,0,0,0,0,0,0,0,0,0,0,0,0,0,0,0,0,0,0,0,0,0,0,0,0,0,0,0,0,0,0,0,0,0,9941,9946,9951,9956,9961,9966,9971,9976,0,0,0,0,0,0,0,0,0,0,0,0,0,0,0,0,0,0,0,0,0,0,0,0,0,0,0,0,0,0,0,0,0,0,0,0,0,0,0,0,0,0,0,0,0,0,0,0,0,0,0,0,0,0,0,0,0,0,0,0,0,0,0,0,0,0,0,0,0,0,0,0,0,0,0,0,0,0,0,0,0,0,0,0,0,0,0,0,0,0,0,0,0,0,0,0,0,0,0,0,0,0,0,0,0,0,0,0,0,0,0,0,0,0,0,0,0,0,0,0,9981,9986,9991,9996,10001,10006,10011,10016,0,0,0,0,0,0,0,0,0,0,0,0,0,0,0,0,0,0,0,0,0,0,0,0,0,0,0,0,0,0,0,0,0,0,0,0,0,0,0,0,0,0,0,0,0,0,0,0,0,0,0,0,0,0,0,0,0,0,0,0,0,0,0,0,0,0,0,0,0,0,0,0,0,0,0,0,0,0,0,0,0,0,0,0,0,0,0,0,0,0,0,0,0,0,0,0,0,0,0,0,0,0,0,0,0,0,0,0,0,0,0,0,0,0,0,0,0,0,0,0,9981,9986,9991,9996,10001,10006,10011,10016,0,0,0,0,0,0,0,0,0,0,0,0,0,0,0,0,0,0,0,0,0,0,0,0,0,0,0,0,0,0,0,0,0,0,0,0,0,0,0,0,0,0,0,0,0,0,0,0,0,0,0,0,0,0,0,0,0,0,0,0,0,0,0,0,0,0,0,0,0,0,0,0,0,0,0,0,0,0,0,0,0,0,0,0,0,0,0,0,0,0,0,0,0,0,0,0,0,0,0,0,0,0,0,0,0,0,0,0,0,0,0,0,0,0,0,0,0,0,0,0,10021,10026,10031,10036,10041,10046,10051,10056,0,0,0,0,0,0,0,0,0,0,0,0,0,0,0,0,0,0,0,0,0,0,0,0,0,0,0,0,0,0,0,0,0,0,0,0,0,0,0,0,0,0,0,0,0,0,0,0,0,0,0,0,0,0,0,0,0,0,0,0,0,0,0,0,0,0,0,0,0,0,0,0,0,0,0,0,0,0,0,0,0,0,0,0,0,0,0,0,0,0,0,0,0,0,0,0,0,0,0,0,0,0,0,0,0,0,0,0,0,0,0,0,0,0,0,0,0,0,0,0,10021,10026,10031,10036,10041,10046,10051,10056,0,0,0,0,0,0,0,0,0,0,0,0,0,0,0,0,0,0,0,0,0,0,0,0,0,0,0,0,0,0,0,0,0,0,0,0,0,0,0,0,0,0,0,0,0,0,0,0,0,0,0,0,0,0,0,0,0,0,0,0,0,0,0,0,0,0,0,0,0,0,0,0,0,0,0,0,0,0,0,0,0,0,0,0,0,0,0,0,0,0,0,0,0,0,0,0,0,0,0,0,0,0,0,0,0,0,0,0,0,0,0,0,0,0,0,0,0,0,0,0,10061,10066,10071,10076,10081,10086,10091,10096,0,0,0,0,0,0,0,0,0,0,0,0,0,0,0,0,0,0,0,0,0,0,0,0,0,0,0,0,0,0,0,0,0,0,0,0,0,0,0,0,0,0,0,0,0,0,0,0,0,0,0,0,0,0,0,0,0,0,0,0,0,0,0,0,0,0,0,0,0,0,0,0,0,0,0,0,0,0,0,0,0,0,0,0,0,0,0,0,0,0,0,0,0,0,0,0,0,0,0,0,0,0,0,0,0,0,0,0,0,0,0,0,0,0,0,0,0,0,0,0,10061,10066,10071,10076,10081,10086,10091,10096,0,0,0,0,0,0,0,0,0,0,0,0,0,0,0,0,0,0,0,0,0,0,0,0,0,0,0,0,0,0,0,0,0,0,0,0,0,0,0,0,0,0,0,0,0,0,0,0,0,0,0,0,0,0,0,0,0,0,0,0,0,0,0,0,0,0,0,0,0,0,0,0,0,0,0,0,0,0,0,0,0,0,0,0,0,0,0,0,0,0,0,0,0,0,0,0,0,0,0,0,0,0,0,0,0,0,0,0,0,0,0,0,0,0,0,0,0,0,0,0,10101,10106,10111,10116,10121,10126,10131,10136,0,0,0,0,0,0,0,0,0,0,0,0,0,0,0,0,0,0,0,0,0,0,0,0,0,0,0,0,0,0,0,0,0,0,0,0,0,0,0,0,0,0,0,0,0,0,0,0,0,0,0,0,0,0,0,0,0,0,0,0,0,0,0,0,0,0,0,0,0,0,0,0,0,0,0,0,0,0,0,0,0,0,0,0,0,0,0,0,0,0,0,0,0,0,0,0,0,0,0,0,0,0,0,0,0,0,0,0,0,0,0,0,0,0,0,0,0,0,0,0,10101,10106,10111,10116,10121,10126,10131,10136,0,0,0,0,0,0,0,0,0,0,0,0,0,0,0,0,0,0,0,0,0,0,0,0,0,0,0,0,0,0,0,0,0,0,0,0,0,0,0,0,0,0,0,0,0,0,0,0,0,0,0,0,0,0,0,0,0,0,0,0,0,0,0,0,0,0,0,0,0,0,0,0,0,0,0,0,0,0,0,0,0,0,0,0,0,0,0,0,0,0,0,0,0,0,0,0,0,0,0,0,0,0,0,0,0,0,0,0,0,0,0,0,0,0,0,0,0,0,0,0,10141,10146,10151,10156,10161,10166,10171,10176,0,0,0,0,0,0,0,0,0,0,0,0,0,0,0,0,0,0,0,0,0,0,0,0,0,0,0,0,0,0,0,0,0,0,0,0,0,0,0,0,0,0,0,0,0,0,0,0,0,0,0,0,0,0,0,0,0,0,0,0,0,0,0,0,0,0,0,0,0,0,0,0,0,0,0,0,0,0,0,0,0,0,0,0,0,0,0,0,0,0,0,0,0,0,0,0,0,0,0,0,0,0,0,0,0,0,0,0,0,0,0,0,0,0,0,0,0,0,0,0,10141,10146,10151,10156,10161,10166,10171,10176,0,0,0,0,0,0,0,0,0,0,0,0,0,0,0,0,0,0,0,0,0,0,0,0,0,0,0,0,0,0,0,0,0,0,0,0,0,0,0,0,0,0,0,0,0,0,0,0,0,0,0,0,0,0,0,0,0,0,0,0,0,0,0,0,0,0,0,0,0,0,0,0,0,0,0,0,0,0,0,0,0,0,0,0,0,0,0,0,0,0,0,0,0,0,0,0,0,0,0,0,0,0,0,0,0,0,0,0,0,0,0,0,0,0,0,0,0,0,0,0,10181,10186,10191,10196,10201,10206,10211,10216,0,0,0,0,0,0,0,0,0,0,0,0,0,0,0,0,0,0,0,0,0,0,0,0,0,0,0,0,0,0,0,0,0,0,0,0,0,0,0,0,0,0,0,0,0,0,0,0,0,0,0,0,0,0,0,0,0,0,0,0,0,0,0,0,0,0,0,0,0,0,0,0,0,0,0,0,0,0,0,0,0,0,0,0,0,0,0,0,0,0,0,0,0,0,0,0,0,0,0,0,0,0,0,0,0,0,0,0,0,0,0,0,0,0,0,0,0,0,0,0,10181,10186,10191,10196,10201,10206,10211,10216,0,0,0,0,0,0,0,0,0,0,0,0,0,0,0,0,0,0,0,0,0,0,0,0,0,0,0,0,0,0,0,0,0,0,0,0,0,0,0,0,0,0,0,0,0,0,0,0,0,0,0,0,0,0,0,0,0,0,0,0,0,0,0,0,0,0,0,0,0,0,0,0,0,0,0,0,0,0,0,0,0,0,0,0,0,0,0,0,0,0,0,0,0,0,0,0,0,0,0,0,0,0,0,0,0,0,0,0,0,0,0,0,0,0,0,0,0,0,0,0,10221,10226,10231,10236,10241,10246,10251,10256,0,0,0,0,0,0,0,0,0,0,0,0,0,0,0,0,0,0,0,0,0,0,0,0,0,0,0,0,0,0,0,0,0,0,0,0,0,0,0,0,0,0,0,0,0,0,0,0,0,0,0,0,0,0,0,0,0,0,0,0,0,0,0,0,0,0,0,0,0,0,0,0,0,0,0,0,0,0,0,0,0,0,0,0,0,0,0,0,0,0,0,0,0,0,0,0,0,0,0,0,0,0,0,0,0,0,0,0,0,0,0,0,0,0,0,0,0,0,0,0,10221,10226,10231,10236,10241,10246,10251,10256,0,0,0,0,0,0,0,0,0,0,0,0,0,0,0,0,0,0,0,0,0,0,0,0,0,0,0,0,0,0,0,0,0,0,0,0,0,0,0,0,0,0,0,0,0,0,0,0,0,0,0,0,0,0,0,0,0,0,0,0,0,0,0,0,0,0,0,0,0,0,0,0,0,0,0,0,0,0,0,0,0,0,0,0,0,0,0,0,0,0,0,0,0,0,0,0,0,0,0,0,0,0,0,0,0,0,0,0,0,0,0,0,0,0,0,0,0,0,0,0,10101,10106,10111,10116,10121,10126,10131,10136,0,0,0,0,0,0,0,0,0,0,0,0,0,0,0,0,0,0,0,0,0,0,0,0,0,0,0,0,0,0,0,0,0,0,0,0,0,0,0,0,0,0,0,0,0,0,0,0,0,0,0,0,0,0,0,0,0,0,0,0,0,0,0,0,0,0,0,0,0,0,0,0,0,0,0,0,0,0,0,0,0,0,0,0,0,0,0,0,0,0,0,0,0,0,0,0,0,0,0,0,0,0,0,0,0,0,0,0,0,0,0,0,0,0,0,0,0,0,0,0,10101,10106,10111,10116,10121,10126,10131,10136,0,0,0,0,0,0,0,0,0,0,0,0,0,0,0,0,0,0,0,0,0,0,0,0,0,0,0,0,0,0,0,0,0,0,0,0,0,0,0,0,0,0,0,0,0,0,0,0,0,0,0,0,0,0,0,0,0,0,0,0,0,0,0,0,0,0,0,0,0,0,0,0,0,0,0,0,0,0,0,0,0,0,0,0,0,0,0,0,0,0,0,0,0,0,0,0,0,0,0,0,0,0,0,0,0,0,0,0,0,0,0,0,0,0,0,0,0,0,0,0,10141,10146,10151,10156,10161,10166,10171,10176,0,0,0,0,0,0,0,0,0,0,0,0,0,0,0,0,0,0,0,0,0,0,0,0,0,0,0,0,0,0,0,0,0,0,0,0,0,0,0,0,0,0,0,0,0,0,0,0,0,0,0,0,0,0,0,0,0,0,0,0,0,0,0,0,0,0,0,0,0,0,0,0,0,0,0,0,0,0,0,0,0,0,0,0,0,0,0,0,0,0,0,0,0,0,0,0,0,0,0,0,0,0,0,0,0,0,0,0,0,0,0,0,0,0,0,0,0,0,0,0,10141,10146,10151,10156,10161,10166,10171,10176,0,0,0,0,0,0,0,0,0,0,0,0,0,0,0,0,0,0,0,0,0,0,0,0,0,0,0,0,0,0,0,0,0,0,0,0,0,0,0,0,0,0,0,0,0,0,0,0,0,0,0,0,0,0,0,0,0,0,0,0,0,0,0,0,0,0,0,0,0,0,0,0,0,0,0,0,0,0,0,0,0,0,0,0,0,0,0,0,0,0,0,0,0,0,0,0,0,0,0,0,0,0,0,0,0,0,0,0,0,0,0,0,0,0,0,0,0,0,0,0,10181,10186,10191,10196,10201,10206,10211,10216,0,0,0,0,0,0,0,0,0,0,0,0,0,0,0,0,0,0,0,0,0,0,0,0,0,0,0,0,0,0,0,0,0,0,0,0,0,0,0,0,0,0,0,0,0,0,0,0,0,0,0,0,0,0,0,0,0,0,0,0,0,0,0,0,0,0,0,0,0,0,0,0,0,0,0,0,0,0,0,0,0,0,0,0,0,0,0,0,0,0,0,0,0,0,0,0,0,0,0,0,0,0,0,0,0,0,0,0,0,0,0,0,0,0,0,0,0,0,0,0,10181,10186,10191,10196,10201,10206,10211,10216,0,0,0,0,0,0,0,0,0,0,0,0,0,0,0,0,0,0,0,0,0,0,0,0,0,0,0,0,0,0,0,0,0,0,0,0,0,0,0,0,0,0,0,0,0,0,0,0,0,0,0,0,0,0,0,0,0,0,0,0,0,0,0,0,0,0,0,0,0,0,0,0,0,0,0,0,0,0,0,0,0,0,0,0,0,0,0,0,0,0,0,0,0,0,0,0,0,0,0,0,0,0,0,0,0,0,0,0,0,0,0,0,0,0,0,0,0,0,0,0,10221,10226,10231,10236,10241,10246,10251,10256,0,0,0,0,0,0,0,0,0,0,0,0,0,0,0,0,0,0,0,0,0,0,0,0,0,0,0,0,0,0,0,0,0,0,0,0,0,0,0,0,0,0,0,0,0,0,0,0,0,0,0,0,0,0,0,0,0,0,0,0,0,0,0,0,0,0,0,0,0,0,0,0,0,0,0,0,0,0,0,0,0,0,0,0,0,0,0,0,0,0,0,0,0,0,0,0,0,0,0,0,0,0,0,0,0,0,0,0,0,0,0,0,0,0,0,0,0,0,0,0,10221,10226,10231,10236,10241,10246,10251,10256,0,0,0,0,0,0,0,0,0,0,0,0,0,0,0,0,0,0,0,0,0,0,0,0,0,0,0,0,0,0,0,0,0,0,0,0,0,0,0,0,0,0,0,0,0,0,0,0,0,0,0,0,0,0,0,0,0,0,0,0,0,0,0,0,0,0,0,0,0,0,0,0,0,0,0,0,0,0,0,0,0,0,0,0,0,0,0,0,0,0,0,0,0,0,0,0,0,0,0,0,0,0,0,0,0,0,0,0,0,0,0,0,0,0,0,0,0,0,0,0,10101,10106,10111,10116,10121,10126,10131,10136,0,0,0,0,0,0,0,0,0,0,0,0,0,0,0,0,0,0,0,0,0,0,0,0,0,0,0,0,0,0,0,0,0,0,0,0,0,0,0,0,0,0,0,0,0,0,0,0,0,0,0,0,0,0,0,0,0,0,0,0,0,0,0,0,0,0,0,0,0,0,0,0,0,0,0,0,0,0,0,0,0,0,0,0,0,0,0,0,0,0,0,0,0,0,0,0,0,0,0,0,0,0,0,0,0,0,0,0,0,0,0,0,0,0,0,0,0,0,0,0,10101,10106,10111,10116,10121,10126,10131,10136,0,0,0,0,0,0,0,0,0,0,0,0,0,0,0,0,0,0,0,0,0,0,0,0,0,0,0,0,0,0,0,0,0,0,0,0,0,0,0,0,0,0,0,0,0,0,0,0,0,0,0,0,0,0,0,0,0,0,0,0,0,0,0,0,0,0,0,0,0,0,0,0,0,0,0,0,0,0,0,0,0,0,0,0,0,0,0,0,0,0,0,0,0,0,0,0,0,0,0,0,0,0,0,0,0,0,0,0,0,0,0,0,0,0,0,0,0,0,0,0,10141,10146,10151,10156,10161,10166,10171,10176,0,0,0,0,0,0,0,0,0,0,0,0,0,0,0,0,0,0,0,0,0,0,0,0,0,0,0,0,0,0,0,0,0,0,0,0,0,0,0,0,0,0,0,0,0,0,0,0,0,0,0,0,0,0,0,0,0,0,0,0,0,0,0,0,0,0,0,0,0,0,0,0,0,0,0,0,0,0,0,0,0,0,0,0,0,0,0,0,0,0,0,0,0,0,0,0,0,0,0,0,0,0,0,0,0,0,0,0,0,0,0,0,0,0,0,0,0,0,0,0,10141,10146,10151,10156,10161,10166,10171,10176,0,0,0,0,0,0,0,0,0,0,0,0,0,0,0,0,0,0,0,0,0,0,0,0,0,0,0,0,0,0,0,0,0,0,0,0,0,0,0,0,0,0,0,0,0,0,0,0,0,0,0,0,0,0,0,0,0,0,0,0,0,0,0,0,0,0,0,0,0,0,0,0,0,0,0,0,0,0,0,0,0,0,0,0,0,0,0,0,0,0,0,0,0,0,0,0,0,0,0,0,0,0,0,0,0,0,0,0,0,0,0,0,0,0,0,0,0,0,0,0,10181,10186,10191,10196,10201,10206,10211,10216,0,0,0,0,0,0,0,0,0,0,0,0,0,0,0,0,0,0,0,0,0,0,0,0,0,0,0,0,0,0,0,0,0,0,0,0,0,0,0,0,0,0,0,0,0,0,0,0,0,0,0,0,0,0,0,0,0,0,0,0,0,0,0,0,0,0,0,0,0,0,0,0,0,0,0,0,0,0,0,0,0,0,0,0,0,0,0,0,0,0,0,0,0,0,0,0,0,0,0,0,0,0,0,0,0,0,0,0,0,0,0,0,0,0,0,0,0,0,0,0,10181,10186,10191,10196,10201,10206,10211,10216,0,0,0,0,0,0,0,0,0,0,0,0,0,0,0,0,0,0,0,0,0,0,0,0,0,0,0,0,0,0,0,0,0,0,0,0,0,0,0,0,0,0,0,0,0,0,0,0,0,0,0,0,0,0,0,0,0,0,0,0,0,0,0,0,0,0,0,0,0,0,0,0,0,0,0,0,0,0,0,0,0,0,0,0,0,0,0,0,0,0,0,0,0,0,0,0,0,0,0,0,0,0,0,0,0,0,0,0,0,0,0,0,0,0,0,0,0,0,0,0,10221,10226,10231,10236,10241,10246,10251,10256,0,0,0,0,0,0,0,0,0,0,0,0,0,0,0,0,0,0,0,0,0,0,0,0,0,0,0,0,0,0,0,0,0,0,0,0,0,0,0,0,0,0,0,0,0,0,0,0,0,0,0,0,0,0,0,0,0,0,0,0,0,0,0,0,0,0,0,0,0,0,0,0,0,0,0,0,0,0,0,0,0,0,0,0,0,0,0,0,0,0,0,0,0,0,0,0,0,0,0,0,0,0,0,0,0,0,0,0,0,0,0,0,0,0,0,0,0,0,0,0,10221,10226,10231,10236,10241,10246,10251,10256,0,0,0,0,0,0,0,0,0,0,0,0,0,0,0,0,0,0,0,0,0,0,0,0,0,0,0,0,0,0,0,0,0,0,0,0,0,0,0,0,0,0,0,0,0,0,0,0,0,0,0,0,0,0,0,0,0,0,0,0,0,0,0,0,0,0,0,0,0,0,0,0,0,0,0,0,0,0,0,0,0,0,0,0,0,0,0,0,0,0,0,0,0,0,0,0,0,0,0,0,0,0,0,0,0,0,0,0,0,0,0,0,0,0,0,0,0,0,0,0,10101,10106,10111,10116,10121,10126,10131,10136,0,0,0,0,0,0,0,0,0,0,0,0,0,0,0,0,0,0,0,0,0,0,0,0,0,0,0,0,0,0,0,0,0,0,0,0,0,0,0,0,0,0,0,0,0,0,0,0,0,0,0,0,0,0,0,0,0,0,0,0,0,0,0,0,0,0,0,0,0,0,0,0,0,0,0,0,0,0,0,0,0,0,0,0,0,0,0,0,0,0,0,0,0,0,0,0,0,0,0,0,0,0,0,0,0,0,0,0,0,0,0,0,0,0,0,0,0,0,0,0,10101,10106,10111,10116,10121,10126,10131,10136,0,0,0,0,0,0,0,0,0,0,0,0,0,0,0,0,0,0,0,0,0,0,0,0,0,0,0,0,0,0,0,0,0,0,0,0,0,0,0,0,0,0,0,0,0,0,0,0,0,0,0,0,0,0,0,0,0,0,0,0,0,0,0,0,0,0,0,0,0,0,0,0,0,0,0,0,0,0,0,0,0,0,0,0,0,0,0,0,0,0,0,0,0,0,0,0,0,0,0,0,0,0,0,0,0,0,0,0,0,0,0,0,0,0,0,0,0,0,0,0,10261,10266,10271,10276,10281,10286,10291,10296,0,0,0,0,0,0,0,0,0,0,0,0,0,0,0,0,0,0,0,0,0,0,0,0,0,0,0,0,0,0,0,0,0,0,0,0,0,0,0,0,0,0,0,0,0,0,0,0,0,0,0,0,0,0,0,0,0,0,0,0,0,0,0,0,0,0,0,0,0,0,0,0,0,0,0,0,0,0,0,0,0,0,0,0,0,0,0,0,0,0,0,0,0,0,0,0,0,0,0,0,0,0,0,0,0,0,0,0,0,0,0,0,0,0,0,0,0,0,0,0,10261,10266,10271,10276,10281,10286,10291,10296,0,0,0,0,0,0,0,0,0,0,0,0,0,0,0,0,0,0,0,0,0,0,0,0,0,0,0,0,0,0,0,0,0,0,0,0,0,0,0,0,0,0,0,0,0,0,0,0,0,0,0,0,0,0,0,0,0,0,0,0,0,0,0,0,0,0,0,0,0,0,0,0,0,0,0,0,0,0,0,0,0,0,0,0,0,0,0,0,0,0,0,0,0,0,0,0,0,0,0,0,0,0,0,0,0,0,0,0,0,0,0,0,0,0,0,0,0,0,0,0,10301,10306,10311,10316,10321,10326,10331,10336,0,0,0,0,0,0,0,0,0,0,0,0,0,0,0,0,0,0,0,0,0,0,0,0,0,0,0,0,0,0,0,0,0,0,0,0,0,0,0,0,0,0,0,0,0,0,0,0,0,0,0,0,0,0,0,0,0,0,0,0,0,0,0,0,0,0,0,0,0,0,0,0,0,0,0,0,0,0,0,0,0,0,0,0,0,0,0,0,0,0,0,0,0,0,0,0,0,0,0,0,0,0,0,0,0,0,0,0,0,0,0,0,0,0,0,0,0,0,0,0,10301,10306,10311,10316,10321,10326,10331,10336,0,0,0,0,0,0,0,0,0,0,0,0,0,0,0,0,0,0,0,0,0,0,0,0,0,0,0,0,0,0,0,0,0,0,0,0,0,0,0,0,0,0,0,0,0,0,0,0,0,0,0,0,0,0,0,0,0,0,0,0,0,0,0,0,0,0,0,0,0,0,0,0,0,0,0,0,0,0,0,0,0,0,0,0,0,0,0,0,0,0,0,0,0,0,0,0,0,0,0,0,0,0,0,0,0,0,0,0,0,0,0,0,0,0,0,0,0,0,0,0,0,0,0,0,0,0,0,0,0,0,0,0,0,0,0,0,0,0,0,0,0,0,0,0,0,0,0,0,0,0,0,0,0,0,0,0,0,0,0,0,0,0,0,0,0,0,0,0,0,0,0,0,0,0,0,0,0,0,0,0,0,0,0,0,0,0,0,0,0,0,0,0,0,0,0,0,0,0,0,0,0,0,0,0,0,0,0,0,0,0,0,0,0,0,0,0,0,0,0,0,0,0,0,0,0,0,0,0,0,0,0,0,0,0,0,0,0,0,0,0,0,0,0,0,0,0,0,0,0,0,0,0,0,0,0,0,0,0,0,0,0,0,0,0,0,0,0,0,0,0,0,0,0,0,0,0,0,0,0,0,0,0,0,0,0,0,0,0,0,0,0,0,0,0,0,0,0,0,0,0,0,0,0,0,0,0,0,0,0,0,0,0,0,0,0,0,0,0,0,0,0,0,0,0,0,0,0,0,0,0,0,0,0,0,0,0,0,0,0,0,0,0,0,0,0,0,0,0,0,0,0,0,0,0,0,0,0,0,0,0,0,0,0,0,0,0,0,0,0,0,0,0,0,0,0,0,0,9335,9341,9347,9353,9359,9365,9371,0,0,0,0,0,0,0,0,0,0,0,0,0,0,0,0,0,0,0,0,0,0,0,0,0,0,0,0,0,0,0,0,0,0,0,0,0,0,0,0,0,0,0,0,0,0,0,0,0,0,0,0,0,0,0,0,0,0,0,0,0,0,0,0,0,0,0,0,0,0,0,0,0,0,0,0,0,0,0,0,0,0,0,0,0,0,0,0,0,0,0,0,0,0,0,0,0,0,0,0,0,0,0,0,0,0,0,0,0,0,0,0,0,0,0,0,0,0,0,0,0,9335,9341,9347,9353,9359,9365,9371,0,0,0,0,0,0,0,0,0,0,0,0,0,0,0,0,0,0,0,0,0,0,0,0,0,0,0,0,0,0,0,0,0,0,0,0,0,0,0,0,0,0,0,0,0,0,0,0,0,0,0,0,0,0,0,0,0,0,0,0,0,0,0,0,0,0,0,0,0,0,0,0,0,0,0,0,0,0,0,0,0,0,0,0,0,0,0,0,0,0,0,0,0,0,0,0,0,0,0,0,0,0,0,0,0,0,0,0,0,0,0,0,0,0,0,0,0,0,0,0,0,9412,9418,9424,9430,9436,9442,0,0,0,0,0,0,0,0,0,0,0,0,0,0,0,0,0,0,0,0,0,0,0,0,0,0,0,0,0,0,0,0,0,0,0,0,0,0,0,0,0,0,0,0,0,0,0,0,0,0,0,0,0,0,0,0,0,0,0,0,0,0,0,0,0,0,0,0,0,0,0,0,0,0,0,0,0,0,0,0,0,0,0,0,0,0,0,0,0,0,0,0,0,0,0,0,0,0,0,0,0,0,0,0,0,0,0,0,0,0,0,0,0,0,0,0,0,0,0,0,0,0,9412,9418,9424,9430,9436,9442,0,0,0,0,0,0,0,0,0,0,0,0,0,0,0,0,0,0,0,0,0,0,0,0,0,0,0,0,0,0,0,0,0,0,0,0,0,0,0,0,0,0,0,0,0,0,0,0,0,0,0,0,0,0,0,0,0,0,0,0,0,0,0,0,0,0,0,0,0,0,0,0,0,0,0,0,0,0,0,0,0,0,0,0,0,0,0,0,0,0,0,0,0,0,0,0,0,0,0,0,0,0,0,0,0,0,0,0,0,0,0,0,0,0,0,0,0,0,0,0,0,0,9335,9341,9347,9353,9359,9365,9371,0,0,0,0,0,0,0,0,0,0,0,0,0,0,0,0,0,0,0,0,0,0,0,0,0,0,0,0,0,0,0,0,0,0,0,0,0,0,0,0,0,0,0,0,0,0,0,0,0,0,0,0,0,0,0,0,0,0,0,0,0,0,0,0,0,0,0,0,0,0,0,0,0,0,0,0,0,0,0,0,0,0,0,0,0,0,0,0,0,0,0,0,0,0,0,0,0,0,0,0,0,0,0,0,0,0,0,0,0,0,0,0,0,0,0,0,0,0,0,0,0,9335,9341,9347,9353,9359,9365,9371,0,0,0,0,0,0,0,0,0,0,0,0,0,0,0,0,0,0,0,0,0,0,0,0,0,0,0,0,0,0,0,0,0,0,0,0,0,0,0,0,0,0,0,0,0,0,0,0,0,0,0,0,0,0,0,0,0,0,0,0]}],"tilesets":[{"firstgid":1,"source":"../Metano_Spriter_Pro_8px.tsj"}]}