<?xml version="1.0" encoding="UTF-8"?>
<map version="1.10" tiledversion="1.10.2" orientation="orthogonal" renderorder="right-down" width="20" height="15" tilewidth="24" tileheight="24" infinite="0" nextlayerid="2" nextobjectid="1">
 <tileset firstgid="1" source="lave.tsx"/>
 <layer id="1" name="lave" width="20" height="15">
  <data encoding="csv">
0,0,0,0,0,0,0,0,0,0,0,0,0,0,0,0,0,0,0,0,
0,0,0,0,0,0,0,0,0,0,0,0,0,0,0,0,0,0,0,0,
0,0,0,0,0,0,0,0,0,0,0,0,0,0,0,0,0,0,0,0,
0,0,0,0,0,0,0,0,0,0,0,0,0,0,0,0,0,0,0,0,
0,0,0,0,0,0,0,37,1,13,25,37,1,13,0,0,0,0,0,0,
0,0,0,0,0,0,37,1,13,25,37,1,13,25,37,0,0,0,0,0,
0,0,0,0,0,37,1,13,25,37,1,13,25,37,1,13,0,0,0,0,
0,0,0,0,0,1,13,25,37,1,13,25,37,1,13,25,0,0,0,0,
0,0,0,0,0,13,25,37,1,13,25,37,1,13,25,37,0,0,0,0,
0,0,0,0,0,25,37,1,13,25,37,1,13,25,37,1,0,0,0,0,
0,0,0,0,0,0,1,13,25,37,1,13,25,37,1,0,0,0,0,0,
0,0,0,0,0,0,0,25,37,1,13,25,37,1,0,0,0,0,0,0,
0,0,0,0,0,0,0,0,0,0,0,0,0,0,0,0,0,0,0,0,
0,0,0,0,0,0,0,0,0,0,0,0,0,0,0,0,0,0,0,0,
0,0,0,0,0,0,0,0,0,0,0,0,0,0,0,0,0,0,0,0
  </data>
 </layer>
</map>
