{
  "type": "map",
  "version": "1.10",
  "tiledversion": "1.11.0",
  "orientation": "orthogonal",
  "renderorder": "right-down",
  "width": 66,
  "height": 48,
  "tilewidth": 8,
  "tileheight": 8,
  "infinite": false,
  "nextlayerid": 5,
  "nextobjectid": 24,
  "layers": [
    {
      "id": 1,
      "name": "Sol",
      "type": "tilelayer",
      "width": 66,
      "height": 48,
      "x": 0,
      "y": 0,
      "visible": true,
      "opacity": 1,
      "data": [
        21,
        22,
        23,
        24,
        25,
        26,
        21,
        22,
        23,
        24,
        25,
        26,
        21,
        22,
        23,
        24,
        25,
        26,
        21,
        22,
        23,
        24,
        25,
        26,
        21,
        22,
        23,
        24,
        25,
        28,
        29,
        30,
        27,
        28,
        29,
        30,
        27,
        22,
        23,
        24,
        25,
        26,
        21,
        22,
        23,
        24,
        25,
        26,
        21,
        22,
        23,
        24,
        25,
        26,
        21,
        22,
        23,
        24,
        25,
        26,
        21,
        22,
        23,
        24,
        25,
        26,
        22,
        23,
        24,
        25,
        26,
        21,
        22,
        23,
        24,
        25,
        26,
        21,
        22,
        23,
        24,
        25,
        26,
        21,
        22,
        23,
        24,
        25,
        26,
        21,
        22,
        23,
        24,
        25,
        26,
        29,
        30,
        27,
        28,
        29,
        30,
        27,
        28,
        23,
        24,
        25,
        26,
        21,
        22,
        23,
        24,
        25,
        26,
        21,
        22,
        23,
        24,
        25,
        26,
        21,
        22,
        23,
        24,
        25,
        26,
        21,
        22,
        23,
        24,
        25,
        26,
        21,
        23,
        24,
        25,
        26,
        21,
        22,
        23,
        24,
        25,
        26,
        21,
        22,
        23,
        24,
        25,
        26,
        21,
        22,
        23,
        24,
        25,
        26,
        21,
        22,
        23,
        24,
        25,
        26,
        21,
        30,
        27,
        28,
        29,
        30,
        27,
        28,
        29,
        24,
        25,
        26,
        21,
        22,
        23,
        24,
        25,
        26,
        21,
        22,
        23,
        24,
        25,
        26,
        21,
        22,
        23,
        24,
        25,
        26,
        21,
        22,
        23,
        24,
        25,
        26,
        21,
        22,
        24,
        25,
        26,
        21,
        22,
        23,
        24,
        25,
        26,
        21,
        22,
        23,
        24,
        25,
        26,
        21,
        22,
        23,
        24,
        25,
        26,
        21,
        22,
        23,
        24,
        25,
        26,
        21,
        22,
        27,
        28,
        29,
        30,
        27,
        28,
        29,
        30,
        25,
        26,
        21,
        22,
        23,
        24,
        25,
        26,
        21,
        22,
        23,
        24,
        25,
        26,
        21,
        22,
        23,
        24,
        25,
        26,
        21,
        22,
        23,
        24,
        25,
        26,
        21,
        22,
        23,
        25,
        26,
        21,
        22,
        23,
        24,
        25,
        26,
        21,
        22,
        23,
        24,
        25,
        26,
        21,
        22,
        23,
        24,
        25,
        26,
        21,
        22,
        23,
        24,
        25,
        26,
        21,
        22,
        23,
        28,
        29,
        30,
        27,
        28,
        29,
        30,
        27,
        26,
        21,
        22,
        23,
        24,
        25,
        26,
        21,
        22,
        23,
        24,
        25,
        26,
        21,
        22,
        23,
        24,
        25,
        26,
        21,
        22,
        23,
        24,
        25,
        26,
        21,
        22,
        23,
        24,
        26,
        21,
        22,
        23,
        24,
        25,
        26,
        21,
        22,
        23,
        24,
        25,
        26,
        21,
        22,
        23,
        24,
        25,
        26,
        21,
        22,
        23,
        24,
        25,
        26,
        21,
        22,
        23,
        24,
        29,
        30,
        27,
        28,
        29,
        30,
        27,
        28,
        21,
        22,
        23,
        24,
        25,
        26,
        21,
        22,
        23,
        24,
        25,
        26,
        21,
        22,
        23,
        24,
        25,
        26,
        21,
        22,
        23,
        24,
        25,
        26,
        21,
        22,
        23,
        24,
        25,
        21,
        22,
        23,
        24,
        25,
        26,
        21,
        22,
        23,
        24,
        25,
        26,
        21,
        22,
        23,
        24,
        25,
        26,
        21,
        22,
        23,
        24,
        25,
        26,
        21,
        22,
        23,
        24,
        25,
        30,
        27,
        28,
        29,
        30,
        27,
        28,
        29,
        22,
        23,
        24,
        25,
        26,
        21,
        22,
        23,
        24,
        25,
        26,
        21,
        22,
        23,
        24,
        25,
        26,
        21,
        22,
        23,
        24,
        25,
        26,
        21,
        22,
        23,
        24,
        25,
        26,
        22,
        23,
        24,
        25,
        26,
        21,
        22,
        23,
        24,
        25,
        26,
        21,
        22,
        23,
        24,
        25,
        26,
        21,
        22,
        23,
        24,
        25,
        26,
        21,
        22,
        23,
        24,
        25,
        26,
        27,
        28,
        29,
        30,
        27,
        28,
        29,
        30,
        23,
        24,
        25,
        26,
        21,
        22,
        23,
        24,
        25,
        26,
        21,
        22,
        23,
        24,
        25,
        26,
        21,
        22,
        23,
        24,
        25,
        26,
        21,
        22,
        23,
        24,
        25,
        26,
        21,
        23,
        24,
        25,
        26,
        21,
        22,
        23,
        24,
        25,
        26,
        21,
        22,
        23,
        24,
        25,
        26,
        21,
        22,
        23,
        24,
        25,
        26,
        21,
        22,
        23,
        24,
        25,
        26,
        21,
        28,
        29,
        30,
        27,
        28,
        29,
        30,
        27,
        24,
        25,
        26,
        21,
        22,
        23,
        24,
        25,
        26,
        21,
        22,
        23,
        24,
        25,
        26,
        21,
        22,
        23,
        24,
        25,
        26,
        21,
        22,
        23,
        24,
        25,
        26,
        21,
        22,
        24,
        25,
        26,
        21,
        22,
        23,
        24,
        25,
        26,
        21,
        22,
        23,
        24,
        25,
        26,
        21,
        22,
        23,
        24,
        25,
        26,
        21,
        22,
        23,
        24,
        25,
        26,
        21,
        22,
        29,
        30,
        27,
        28,
        29,
        30,
        27,
        28,
        25,
        26,
        21,
        22,
        23,
        24,
        25,
        26,
        21,
        22,
        23,
        24,
        25,
        26,
        21,
        22,
        23,
        24,
        25,
        26,
        21,
        22,
        23,
        24,
        25,
        26,
        21,
        22,
        23,
        25,
        26,
        21,
        22,
        23,
        24,
        25,
        26,
        21,
        22,
        23,
        24,
        25,
        26,
        21,
        22,
        23,
        24,
        25,
        26,
        21,
        22,
        23,
        24,
        25,
        26,
        21,
        22,
        23,
        30,
        27,
        28,
        29,
        30,
        27,
        28,
        29,
        26,
        21,
        22,
        23,
        24,
        25,
        26,
        21,
        22,
        23,
        24,
        25,
        26,
        21,
        22,
        23,
        24,
        25,
        26,
        21,
        22,
        23,
        24,
        25,
        26,
        21,
        22,
        23,
        24,
        26,
        21,
        22,
        23,
        24,
        25,
        26,
        21,
        22,
        23,
        24,
        25,
        26,
        21,
        22,
        23,
        24,
        25,
        26,
        21,
        22,
        23,
        24,
        25,
        26,
        21,
        22,
        23,
        24,
        27,
        28,
        29,
        30,
        27,
        28,
        29,
        30,
        21,
        22,
        23,
        24,
        25,
        26,
        21,
        22,
        23,
        24,
        25,
        26,
        21,
        22,
        23,
        24,
        25,
        26,
        21,
        22,
        23,
        24,
        25,
        26,
        21,
        22,
        23,
        24,
        25,
        21,
        22,
        23,
        24,
        25,
        26,
        21,
        22,
        23,
        24,
        25,
        26,
        21,
        22,
        23,
        24,
        25,
        26,
        21,
        22,
        23,
        24,
        25,
        26,
        21,
        22,
        23,
        24,
        25,
        28,
        29,
        30,
        27,
        28,
        29,
        30,
        27,
        22,
        23,
        24,
        25,
        26,
        21,
        22,
        23,
        24,
        25,
        26,
        21,
        22,
        23,
        24,
        25,
        26,
        21,
        22,
        23,
        24,
        25,
        26,
        21,
        22,
        23,
        24,
        25,
        26,
        22,
        23,
        24,
        25,
        26,
        21,
        22,
        23,
        24,
        25,
        26,
        21,
        22,
        23,
        24,
        25,
        26,
        21,
        22,
        23,
        24,
        25,
        26,
        21,
        22,
        23,
        24,
        25,
        26,
        29,
        30,
        27,
        28,
        29,
        30,
        27,
        28,
        23,
        24,
        25,
        26,
        21,
        22,
        23,
        24,
        25,
        26,
        21,
        22,
        23,
        24,
        25,
        26,
        21,
        22,
        23,
        24,
        25,
        26,
        21,
        22,
        23,
        24,
        25,
        26,
        21,
        23,
        24,
        25,
        26,
        21,
        22,
        23,
        24,
        25,
        26,
        21,
        22,
        23,
        24,
        25,
        26,
        21,
        22,
        23,
        24,
        25,
        26,
        21,
        22,
        23,
        24,
        25,
        26,
        21,
        30,
        27,
        28,
        29,
        30,
        27,
        28,
        29,
        24,
        25,
        26,
        21,
        22,
        23,
        24,
        25,
        26,
        21,
        22,
        23,
        24,
        25,
        26,
        21,
        22,
        23,
        24,
        25,
        26,
        21,
        22,
        23,
        24,
        25,
        26,
        21,
        22,
        24,
        25,
        26,
        21,
        22,
        23,
        24,
        25,
        26,
        21,
        22,
        23,
        24,
        25,
        26,
        21,
        22,
        23,
        24,
        25,
        26,
        21,
        22,
        23,
        24,
        25,
        26,
        21,
        22,
        27,
        28,
        29,
        30,
        27,
        28,
        29,
        30,
        25,
        26,
        21,
        22,
        23,
        24,
        25,
        26,
        21,
        22,
        23,
        24,
        25,
        26,
        21,
        22,
        23,
        24,
        25,
        26,
        21,
        22,
        23,
        24,
        25,
        26,
        21,
        22,
        23,
        25,
        26,
        21,
        22,
        23,
        24,
        25,
        26,
        21,
        22,
        23,
        24,
        25,
        26,
        21,
        22,
        23,
        24,
        25,
        26,
        21,
        22,
        23,
        24,
        25,
        26,
        21,
        22,
        23,
        28,
        29,
        30,
        27,
        28,
        29,
        30,
        27,
        26,
        21,
        22,
        23,
        24,
        25,
        26,
        21,
        22,
        23,
        24,
        25,
        26,
        21,
        22,
        23,
        24,
        25,
        26,
        21,
        22,
        23,
        24,
        25,
        26,
        21,
        22,
        23,
        24,
        26,
        21,
        22,
        23,
        24,
        25,
        26,
        21,
        22,
        23,
        24,
        25,
        26,
        21,
        22,
        23,
        24,
        25,
        26,
        21,
        22,
        23,
        24,
        25,
        26,
        21,
        22,
        23,
        24,
        29,
        30,
        27,
        28,
        29,
        30,
        27,
        28,
        21,
        22,
        23,
        24,
        25,
        26,
        21,
        22,
        23,
        24,
        25,
        26,
        21,
        22,
        23,
        24,
        25,
        26,
        21,
        22,
        23,
        24,
        25,
        26,
        21,
        22,
        23,
        24,
        25,
        21,
        22,
        23,
        24,
        25,
        26,
        21,
        22,
        23,
        24,
        25,
        26,
        21,
        22,
        23,
        24,
        25,
        26,
        21,
        22,
        23,
        24,
        25,
        26,
        21,
        22,
        23,
        24,
        25,
        30,
        27,
        28,
        29,
        30,
        27,
        28,
        29,
        22,
        23,
        24,
        25,
        26,
        21,
        22,
        23,
        24,
        25,
        26,
        21,
        22,
        23,
        24,
        25,
        26,
        21,
        22,
        23,
        24,
        25,
        26,
        21,
        22,
        23,
        24,
        25,
        26,
        22,
        23,
        24,
        25,
        26,
        21,
        22,
        23,
        24,
        25,
        26,
        21,
        22,
        23,
        24,
        25,
        26,
        21,
        22,
        23,
        24,
        25,
        26,
        21,
        22,
        23,
        24,
        25,
        26,
        27,
        28,
        29,
        30,
        27,
        28,
        29,
        30,
        23,
        24,
        25,
        26,
        21,
        22,
        23,
        24,
        25,
        26,
        21,
        22,
        23,
        24,
        25,
        26,
        21,
        22,
        23,
        24,
        25,
        26,
        21,
        22,
        23,
        24,
        25,
        26,
        21,
        23,
        24,
        25,
        26,
        21,
        22,
        23,
        24,
        25,
        26,
        21,
        22,
        23,
        24,
        25,
        26,
        21,
        22,
        23,
        24,
        25,
        26,
        21,
        22,
        23,
        24,
        25,
        26,
        21,
        28,
        29,
        30,
        27,
        28,
        29,
        30,
        27,
        24,
        25,
        26,
        21,
        22,
        23,
        24,
        25,
        26,
        21,
        22,
        23,
        24,
        25,
        26,
        21,
        22,
        23,
        24,
        25,
        26,
        21,
        22,
        23,
        24,
        25,
        26,
        21,
        22,
        24,
        25,
        26,
        21,
        22,
        23,
        24,
        25,
        26,
        21,
        22,
        23,
        24,
        25,
        26,
        21,
        22,
        23,
        24,
        25,
        26,
        21,
        22,
        23,
        24,
        25,
        26,
        21,
        22,
        29,
        30,
        27,
        28,
        29,
        30,
        27,
        28,
        25,
        26,
        21,
        22,
        23,
        24,
        25,
        26,
        21,
        22,
        23,
        24,
        25,
        26,
        21,
        22,
        23,
        24,
        25,
        26,
        21,
        22,
        23,
        24,
        25,
        26,
        21,
        22,
        23,
        25,
        26,
        21,
        22,
        23,
        24,
        25,
        26,
        21,
        22,
        23,
        24,
        25,
        26,
        21,
        22,
        23,
        24,
        25,
        26,
        21,
        22,
        23,
        24,
        25,
        26,
        21,
        22,
        23,
        30,
        27,
        28,
        29,
        30,
        27,
        28,
        29,
        26,
        21,
        22,
        23,
        24,
        25,
        26,
        21,
        22,
        23,
        24,
        25,
        26,
        21,
        22,
        23,
        24,
        25,
        26,
        21,
        22,
        23,
        24,
        25,
        26,
        21,
        22,
        23,
        24,
        26,
        21,
        22,
        23,
        24,
        25,
        26,
        21,
        22,
        23,
        24,
        25,
        26,
        21,
        22,
        23,
        24,
        25,
        26,
        21,
        22,
        23,
        24,
        25,
        26,
        21,
        22,
        23,
        24,
        27,
        28,
        29,
        30,
        27,
        28,
        29,
        30,
        21,
        22,
        23,
        24,
        25,
        26,
        21,
        22,
        23,
        24,
        25,
        26,
        21,
        22,
        23,
        24,
        25,
        26,
        21,
        22,
        23,
        24,
        25,
        26,
        21,
        22,
        23,
        24,
        25,
        21,
        22,
        23,
        24,
        25,
        26,
        21,
        22,
        23,
        24,
        25,
        26,
        21,
        22,
        23,
        24,
        25,
        26,
        21,
        22,
        23,
        24,
        25,
        26,
        21,
        22,
        23,
        24,
        25,
        28,
        29,
        30,
        27,
        28,
        29,
        30,
        27,
        22,
        23,
        24,
        25,
        26,
        21,
        22,
        23,
        24,
        25,
        26,
        21,
        22,
        23,
        24,
        25,
        26,
        21,
        22,
        23,
        24,
        25,
        26,
        21,
        22,
        23,
        24,
        25,
        26,
        22,
        23,
        24,
        25,
        26,
        21,
        22,
        23,
        24,
        25,
        26,
        21,
        22,
        23,
        24,
        25,
        26,
        21,
        22,
        23,
        24,
        25,
        26,
        21,
        22,
        23,
        24,
        25,
        26,
        29,
        30,
        27,
        28,
        29,
        30,
        27,
        28,
        23,
        24,
        25,
        26,
        21,
        22,
        23,
        24,
        25,
        26,
        21,
        22,
        23,
        24,
        25,
        26,
        21,
        22,
        23,
        24,
        25,
        26,
        21,
        22,
        23,
        24,
        25,
        26,
        21,
        23,
        24,
        25,
        26,
        21,
        22,
        23,
        24,
        25,
        26,
        21,
        22,
        23,
        24,
        25,
        26,
        21,
        22,
        23,
        24,
        25,
        26,
        21,
        22,
        23,
        24,
        25,
        26,
        21,
        30,
        27,
        28,
        29,
        30,
        27,
        28,
        29,
        24,
        25,
        26,
        21,
        22,
        23,
        24,
        25,
        26,
        21,
        22,
        23,
        24,
        25,
        26,
        21,
        22,
        23,
        24,
        25,
        26,
        21,
        22,
        23,
        24,
        25,
        26,
        21,
        22,
        24,
        25,
        26,
        21,
        22,
        23,
        24,
        25,
        26,
        21,
        22,
        23,
        24,
        25,
        26,
        21,
        22,
        23,
        24,
        25,
        26,
        21,
        22,
        23,
        24,
        25,
        26,
        21,
        22,
        27,
        28,
        29,
        30,
        27,
        28,
        29,
        30,
        25,
        26,
        21,
        22,
        23,
        24,
        25,
        26,
        21,
        22,
        23,
        24,
        25,
        26,
        21,
        22,
        23,
        24,
        25,
        26,
        21,
        22,
        23,
        24,
        25,
        26,
        21,
        22,
        23,
        25,
        26,
        21,
        22,
        23,
        24,
        25,
        26,
        21,
        22,
        23,
        24,
        25,
        26,
        21,
        22,
        23,
        24,
        25,
        26,
        21,
        22,
        23,
        24,
        25,
        26,
        21,
        22,
        23,
        28,
        29,
        30,
        27,
        28,
        29,
        30,
        27,
        26,
        21,
        22,
        23,
        24,
        25,
        26,
        21,
        22,
        23,
        24,
        25,
        26,
        21,
        22,
        23,
        24,
        25,
        26,
        21,
        22,
        23,
        24,
        25,
        26,
        21,
        22,
        23,
        24,
        26,
        21,
        22,
        23,
        24,
        25,
        26,
        21,
        22,
        23,
        24,
        25,
        26,
        21,
        22,
        23,
        24,
        25,
        26,
        21,
        22,
        23,
        24,
        25,
        26,
        21,
        22,
        23,
        24,
        29,
        30,
        27,
        28,
        29,
        30,
        27,
        28,
        21,
        22,
        23,
        24,
        25,
        26,
        21,
        22,
        23,
        24,
        25,
        26,
        21,
        22,
        23,
        24,
        25,
        26,
        21,
        22,
        23,
        24,
        25,
        26,
        21,
        22,
        23,
        24,
        25,
        21,
        22,
        23,
        24,
        25,
        26,
        21,
        22,
        23,
        24,
        25,
        26,
        21,
        22,
        23,
        24,
        25,
        26,
        21,
        22,
        23,
        24,
        25,
        26,
        21,
        22,
        23,
        24,
        25,
        30,
        27,
        28,
        29,
        30,
        27,
        28,
        29,
        22,
        23,
        24,
        25,
        26,
        21,
        22,
        23,
        24,
        25,
        26,
        21,
        22,
        23,
        24,
        25,
        26,
        21,
        22,
        23,
        24,
        25,
        26,
        21,
        22,
        23,
        24,
        25,
        26,
        22,
        23,
        24,
        25,
        26,
        21,
        22,
        23,
        24,
        25,
        26,
        21,
        22,
        23,
        24,
        25,
        26,
        21,
        22,
        23,
        24,
        25,
        26,
        21,
        22,
        23,
        24,
        25,
        26,
        27,
        28,
        29,
        30,
        27,
        28,
        29,
        30,
        23,
        24,
        25,
        26,
        21,
        22,
        23,
        24,
        25,
        26,
        21,
        22,
        23,
        24,
        25,
        26,
        21,
        22,
        23,
        24,
        25,
        26,
        21,
        22,
        23,
        24,
        25,
        26,
        21,
        23,
        24,
        25,
        26,
        21,
        22,
        23,
        24,
        25,
        26,
        21,
        22,
        23,
        24,
        25,
        26,
        21,
        22,
        23,
        24,
        25,
        26,
        21,
        22,
        23,
        24,
        25,
        26,
        21,
        28,
        29,
        30,
        27,
        28,
        29,
        30,
        27,
        24,
        25,
        26,
        21,
        22,
        23,
        24,
        25,
        26,
        21,
        22,
        23,
        24,
        25,
        26,
        21,
        22,
        23,
        24,
        25,
        26,
        21,
        22,
        23,
        24,
        25,
        26,
        21,
        22,
        24,
        25,
        26,
        21,
        22,
        23,
        24,
        25,
        26,
        21,
        22,
        23,
        24,
        25,
        26,
        21,
        22,
        23,
        24,
        25,
        26,
        21,
        22,
        23,
        24,
        25,
        26,
        21,
        22,
        29,
        30,
        27,
        28,
        29,
        30,
        27,
        28,
        25,
        26,
        21,
        22,
        23,
        24,
        25,
        26,
        21,
        22,
        23,
        24,
        25,
        26,
        21,
        22,
        23,
        24,
        25,
        26,
        21,
        22,
        23,
        24,
        25,
        26,
        21,
        22,
        23,
        25,
        26,
        21,
        22,
        23,
        24,
        25,
        26,
        21,
        22,
        23,
        24,
        25,
        26,
        21,
        22,
        23,
        24,
        25,
        26,
        21,
        22,
        23,
        24,
        25,
        26,
        21,
        22,
        23,
        30,
        27,
        28,
        29,
        30,
        27,
        28,
        29,
        26,
        21,
        22,
        23,
        24,
        25,
        26,
        21,
        22,
        23,
        24,
        25,
        26,
        21,
        22,
        23,
        24,
        25,
        26,
        21,
        22,
        23,
        24,
        25,
        26,
        21,
        22,
        23,
        24,
        26,
        21,
        22,
        23,
        24,
        25,
        26,
        21,
        22,
        23,
        24,
        25,
        26,
        21,
        22,
        23,
        24,
        25,
        26,
        21,
        22,
        23,
        24,
        25,
        26,
        21,
        22,
        23,
        24,
        27,
        28,
        29,
        30,
        27,
        28,
        29,
        30,
        21,
        22,
        23,
        24,
        25,
        26,
        21,
        22,
        23,
        24,
        25,
        26,
        21,
        22,
        23,
        24,
        25,
        26,
        21,
        22,
        23,
        24,
        25,
        26,
        21,
        22,
        23,
        24,
        25,
        21,
        22,
        23,
        24,
        25,
        26,
        21,
        22,
        23,
        24,
        25,
        26,
        21,
        22,
        23,
        24,
        25,
        26,
        21,
        22,
        23,
        24,
        25,
        26,
        21,
        22,
        23,
        24,
        25,
        28,
        29,
        30,
        27,
        28,
        29,
        30,
        27,
        22,
        23,
        24,
        25,
        26,
        21,
        22,
        23,
        24,
        25,
        26,
        21,
        22,
        23,
        24,
        25,
        26,
        21,
        22,
        23,
        24,
        25,
        26,
        21,
        22,
        23,
        24,
        25,
        26,
        22,
        23,
        24,
        25,
        26,
        21,
        22,
        23,
        24,
        25,
        26,
        21,
        22,
        23,
        24,
        25,
        26,
        21,
        22,
        23,
        24,
        25,
        26,
        21,
        22,
        23,
        24,
        25,
        26,
        29,
        30,
        27,
        28,
        29,
        30,
        27,
        28,
        23,
        24,
        25,
        26,
        21,
        22,
        23,
        24,
        25,
        26,
        21,
        22,
        23,
        24,
        25,
        26,
        21,
        22,
        23,
        24,
        25,
        26,
        21,
        22,
        23,
        24,
        25,
        26,
        21,
        23,
        24,
        25,
        26,
        21,
        22,
        23,
        24,
        25,
        26,
        21,
        22,
        23,
        24,
        25,
        26,
        21,
        22,
        23,
        24,
        25,
        26,
        21,
        22,
        23,
        24,
        25,
        26,
        21,
        30,
        27,
        28,
        29,
        30,
        27,
        28,
        29,
        24,
        25,
        26,
        21,
        22,
        23,
        24,
        25,
        26,
        21,
        22,
        23,
        24,
        25,
        26,
        21,
        22,
        23,
        24,
        25,
        26,
        21,
        22,
        23,
        24,
        25,
        26,
        21,
        22,
        24,
        25,
        26,
        21,
        22,
        23,
        24,
        25,
        26,
        21,
        22,
        23,
        24,
        25,
        26,
        21,
        22,
        23,
        24,
        25,
        26,
        21,
        22,
        23,
        24,
        25,
        26,
        21,
        22,
        27,
        28,
        29,
        30,
        27,
        28,
        29,
        30,
        25,
        26,
        21,
        22,
        23,
        24,
        25,
        26,
        21,
        22,
        23,
        24,
        25,
        26,
        21,
        22,
        23,
        24,
        25,
        26,
        21,
        22,
        23,
        24,
        25,
        26,
        21,
        22,
        23,
        25,
        26,
        21,
        22,
        23,
        24,
        25,
        26,
        21,
        22,
        23,
        24,
        25,
        26,
        21,
        22,
        23,
        24,
        25,
        26,
        21,
        22,
        23,
        24,
        25,
        26,
        21,
        22,
        23,
        28,
        29,
        30,
        27,
        28,
        29,
        30,
        27,
        26,
        21,
        22,
        23,
        24,
        25,
        26,
        21,
        22,
        23,
        24,
        25,
        26,
        21,
        22,
        23,
        24,
        25,
        26,
        21,
        22,
        23,
        24,
        25,
        26,
        21,
        22,
        23,
        24,
        26,
        21,
        22,
        23,
        24,
        25,
        26,
        21,
        22,
        23,
        24,
        25,
        26,
        21,
        22,
        23,
        24,
        25,
        26,
        21,
        22,
        23,
        24,
        25,
        26,
        21,
        22,
        23,
        24,
        29,
        30,
        27,
        28,
        29,
        30,
        27,
        28,
        21,
        22,
        23,
        24,
        25,
        26,
        21,
        22,
        23,
        24,
        25,
        26,
        21,
        22,
        23,
        24,
        25,
        26,
        21,
        22,
        23,
        24,
        25,
        26,
        21,
        22,
        23,
        24,
        25,
        21,
        22,
        23,
        24,
        25,
        26,
        21,
        22,
        23,
        24,
        25,
        26,
        21,
        22,
        23,
        24,
        25,
        26,
        21,
        22,
        23,
        24,
        25,
        26,
        21,
        22,
        23,
        24,
        25,
        30,
        27,
        28,
        29,
        30,
        27,
        28,
        29,
        22,
        23,
        24,
        25,
        26,
        21,
        22,
        23,
        24,
        25,
        26,
        21,
        22,
        23,
        24,
        25,
        26,
        21,
        22,
        23,
        24,
        25,
        26,
        21,
        22,
        23,
        24,
        25,
        26,
        22,
        23,
        24,
        25,
        26,
        21,
        22,
        23,
        24,
        25,
        26,
        21,
        22,
        23,
        24,
        25,
        26,
        21,
        22,
        23,
        24,
        25,
        26,
        21,
        22,
        23,
        24,
        25,
        26,
        27,
        28,
        29,
        30,
        27,
        28,
        29,
        30,
        23,
        24,
        25,
        26,
        21,
        22,
        23,
        24,
        25,
        26,
        21,
        22,
        23,
        24,
        25,
        26,
        21,
        22,
        23,
        24,
        25,
        26,
        21,
        22,
        23,
        24,
        25,
        26,
        21,
        23,
        24,
        25,
        26,
        21,
        22,
        23,
        24,
        25,
        26,
        21,
        22,
        23,
        24,
        25,
        26,
        21,
        22,
        23,
        24,
        25,
        26,
        21,
        22,
        23,
        24,
        25,
        26,
        21,
        28,
        29,
        30,
        27,
        28,
        29,
        30,
        27,
        24,
        25,
        26,
        21,
        22,
        23,
        24,
        25,
        26,
        21,
        22,
        23,
        24,
        25,
        26,
        21,
        22,
        23,
        24,
        25,
        26,
        21,
        22,
        23,
        24,
        25,
        26,
        21,
        22,
        24,
        25,
        26,
        21,
        22,
        23,
        24,
        25,
        26,
        21,
        22,
        23,
        24,
        25,
        26,
        21,
        22,
        23,
        24,
        25,
        26,
        21,
        22,
        23,
        24,
        25,
        26,
        21,
        22,
        29,
        30,
        27,
        28,
        29,
        30,
        27,
        28,
        25,
        26,
        21,
        22,
        23,
        24,
        25,
        26,
        21,
        22,
        23,
        24,
        25,
        26,
        21,
        22,
        23,
        24,
        25,
        26,
        21,
        22,
        23,
        24,
        25,
        26,
        21,
        22,
        23,
        25,
        26,
        21,
        22,
        23,
        24,
        25,
        26,
        21,
        22,
        23,
        24,
        25,
        26,
        21,
        22,
        23,
        24,
        25,
        26,
        21,
        22,
        23,
        24,
        25,
        26,
        21,
        22,
        23,
        30,
        27,
        28,
        29,
        30,
        27,
        28,
        29,
        26,
        21,
        22,
        23,
        24,
        25,
        26,
        21,
        22,
        23,
        24,
        25,
        26,
        21,
        22,
        23,
        24,
        25,
        26,
        21,
        22,
        23,
        24,
        25,
        26,
        21,
        22,
        23,
        24,
        26,
        21,
        22,
        23,
        24,
        25,
        26,
        21,
        22,
        23,
        24,
        25,
        26,
        21,
        22,
        23,
        24,
        25,
        26,
        21,
        22,
        23,
        24,
        25,
        26,
        21,
        22,
        23,
        24,
        27,
        28,
        29,
        30,
        27,
        28,
        29,
        30,
        21,
        22,
        23,
        24,
        25,
        26,
        21,
        22,
        23,
        24,
        25,
        26,
        21,
        22,
        23,
        24,
        25,
        26,
        21,
        22,
        23,
        24,
        25,
        26,
        21,
        22,
        23,
        24,
        25
      ],
      "properties": [
        {
          "name": "pmd_role",
          "type": "string",
          "value": "base_ground"
        }
      ]
    },
    {
      "id": 2,
      "name": "Cliff entrance",
      "type": "tilelayer",
      "width": 66,
      "height": 48,
      "x": 0,
      "y": 0,
      "visible": true,
      "opacity": 1,
      "data": [
        0,
        0,
        0,
        0,
        0,
        0,
        0,
        0,
        0,
        0,
        0,
        0,
        0,
        0,
        0,
        0,
        0,
        0,
        0,
        0,
        0,
        6,
        7,
        0,
        0,
        0,
        0,
        0,
        0,
        0,
        0,
        0,
        0,
        0,
        0,
        0,
        0,
        0,
        0,
        0,
        0,
        0,
        0,
        12,
        13,
        0,
        0,
        0,
        0,
        0,
        0,
        0,
        0,
        0,
        0,
        0,
        0,
        0,
        0,
        0,
        0,
        0,
        0,
        0,
        0,
        0,
        0,
        0,
        0,
        0,
        0,
        0,
        0,
        0,
        0,
        0,
        0,
        0,
        0,
        0,
        0,
        0,
        0,
        0,
        0,
        0,
        0,
        7,
        8,
        0,
        0,
        0,
        0,
        0,
        0,
        0,
        0,
        0,
        0,
        0,
        0,
        0,
        0,
        0,
        0,
        0,
        0,
        0,
        0,
        13,
        14,
        0,
        0,
        0,
        0,
        0,
        0,
        0,
        0,
        0,
        0,
        0,
        0,
        0,
        0,
        0,
        0,
        0,
        0,
        0,
        0,
        0,
        0,
        0,
        0,
        0,
        0,
        0,
        0,
        0,
        0,
        0,
        0,
        0,
        0,
        0,
        0,
        0,
        0,
        0,
        0,
        0,
        0,
        8,
        1,
        0,
        0,
        0,
        0,
        0,
        0,
        0,
        0,
        0,
        0,
        0,
        0,
        0,
        0,
        0,
        0,
        0,
        0,
        0,
        0,
        14,
        15,
        0,
        0,
        0,
        0,
        0,
        0,
        0,
        0,
        0,
        0,
        0,
        0,
        0,
        0,
        0,
        0,
        0,
        0,
        0,
        0,
        0,
        0,
        0,
        0,
        0,
        0,
        0,
        0,
        0,
        0,
        0,
        0,
        0,
        0,
        0,
        0,
        0,
        0,
        0,
        0,
        0,
        8,
        1,
        0,
        0,
        0,
        0,
        0,
        0,
        0,
        0,
        0,
        0,
        0,
        0,
        0,
        0,
        0,
        0,
        0,
        0,
        0,
        0,
        0,
        0,
        16,
        9,
        0,
        0,
        0,
        0,
        0,
        0,
        0,
        0,
        0,
        0,
        0,
        0,
        0,
        0,
        0,
        0,
        0,
        0,
        0,
        0,
        0,
        0,
        0,
        0,
        0,
        0,
        0,
        0,
        0,
        0,
        0,
        0,
        0,
        0,
        0,
        0,
        0,
        0,
        0,
        0,
        1,
        2,
        0,
        0,
        0,
        0,
        0,
        0,
        0,
        0,
        0,
        0,
        0,
        0,
        0,
        0,
        0,
        0,
        0,
        0,
        0,
        0,
        0,
        0,
        9,
        10,
        0,
        0,
        0,
        0,
        0,
        0,
        0,
        0,
        0,
        0,
        0,
        0,
        0,
        0,
        0,
        0,
        0,
        0,
        0,
        0,
        0,
        0,
        0,
        0,
        0,
        0,
        0,
        0,
        0,
        0,
        0,
        0,
        0,
        0,
        0,
        0,
        0,
        0,
        0,
        0,
        2,
        3,
        0,
        0,
        0,
        0,
        0,
        0,
        0,
        0,
        0,
        0,
        0,
        0,
        0,
        0,
        0,
        0,
        0,
        0,
        0,
        0,
        0,
        0,
        10,
        11,
        0,
        0,
        0,
        0,
        0,
        0,
        0,
        0,
        0,
        0,
        0,
        0,
        0,
        0,
        0,
        0,
        0,
        0,
        0,
        0,
        0,
        0,
        0,
        0,
        0,
        0,
        0,
        0,
        0,
        0,
        0,
        0,
        0,
        0,
        0,
        0,
        0,
        0,
        0,
        2,
        3,
        0,
        0,
        0,
        0,
        0,
        0,
        0,
        0,
        0,
        0,
        0,
        0,
        0,
        0,
        0,
        0,
        0,
        0,
        0,
        0,
        0,
        0,
        0,
        0,
        12,
        13,
        0,
        0,
        0,
        0,
        0,
        0,
        0,
        0,
        0,
        0,
        0,
        0,
        0,
        0,
        0,
        0,
        0,
        0,
        0,
        0,
        0,
        0,
        0,
        0,
        0,
        0,
        0,
        0,
        0,
        0,
        0,
        0,
        0,
        0,
        0,
        0,
        0,
        0,
        3,
        4,
        0,
        0,
        0,
        0,
        0,
        0,
        0,
        0,
        0,
        0,
        0,
        0,
        0,
        0,
        0,
        0,
        0,
        0,
        0,
        0,
        0,
        0,
        0,
        0,
        13,
        14,
        0,
        0,
        0,
        0,
        0,
        0,
        0,
        0,
        0,
        0,
        0,
        0,
        0,
        0,
        0,
        0,
        0,
        0,
        0,
        0,
        0,
        0,
        0,
        0,
        0,
        0,
        0,
        0,
        0,
        0,
        0,
        0,
        0,
        0,
        0,
        0,
        0,
        0,
        4,
        5,
        0,
        0,
        0,
        0,
        0,
        0,
        0,
        0,
        0,
        0,
        0,
        0,
        0,
        0,
        0,
        0,
        0,
        0,
        0,
        0,
        0,
        0,
        0,
        0,
        14,
        15,
        0,
        0,
        0,
        0,
        0,
        0,
        0,
        0,
        0,
        0,
        0,
        0,
        0,
        0,
        0,
        0,
        0,
        0,
        0,
        0,
        0,
        0,
        0,
        0,
        0,
        0,
        0,
        0,
        0,
        0,
        0,
        0,
        0,
        0,
        0,
        0,
        0,
        4,
        5,
        0,
        0,
        0,
        0,
        0,
        0,
        0,
        0,
        0,
        0,
        0,
        0,
        0,
        0,
        0,
        0,
        0,
        0,
        0,
        0,
        0,
        0,
        0,
        0,
        0,
        0,
        16,
        9,
        0,
        0,
        0,
        0,
        0,
        0,
        0,
        0,
        0,
        0,
        0,
        0,
        0,
        0,
        0,
        0,
        0,
        0,
        0,
        0,
        0,
        0,
        0,
        0,
        0,
        0,
        0,
        0,
        0,
        0,
        0,
        0,
        0,
        0,
        0,
        0,
        5,
        6,
        0,
        0,
        0,
        0,
        0,
        0,
        0,
        0,
        0,
        0,
        0,
        0,
        0,
        0,
        0,
        0,
        0,
        0,
        0,
        0,
        0,
        0,
        0,
        0,
        0,
        0,
        9,
        10,
        0,
        0,
        0,
        0,
        0,
        0,
        0,
        0,
        0,
        0,
        0,
        0,
        0,
        0,
        0,
        0,
        0,
        0,
        0,
        0,
        0,
        0,
        0,
        0,
        0,
        0,
        0,
        0,
        0,
        0,
        0,
        0,
        0,
        0,
        0,
        0,
        6,
        7,
        0,
        0,
        0,
        0,
        0,
        0,
        0,
        0,
        0,
        0,
        0,
        0,
        0,
        0,
        0,
        0,
        0,
        0,
        0,
        0,
        0,
        0,
        0,
        0,
        0,
        0,
        10,
        11,
        0,
        0,
        0,
        0,
        0,
        0,
        0,
        0,
        0,
        0,
        0,
        0,
        0,
        0,
        0,
        0,
        0,
        0,
        0,
        0,
        0,
        0,
        0,
        0,
        0,
        0,
        0,
        0,
        0,
        0,
        0,
        0,
        0,
        0,
        0,
        6,
        7,
        0,
        0,
        0,
        0,
        0,
        0,
        0,
        0,
        0,
        0,
        0,
        0,
        0,
        0,
        0,
        0,
        0,
        0,
        0,
        0,
        0,
        0,
        0,
        0,
        0,
        0,
        0,
        0,
        12,
        13,
        0,
        0,
        0,
        0,
        0,
        0,
        0,
        0,
        0,
        0,
        0,
        0,
        0,
        0,
        0,
        0,
        0,
        0,
        0,
        0,
        0,
        0,
        0,
        0,
        0,
        0,
        0,
        0,
        0,
        0,
        0,
        0,
        0,
        0,
        7,
        8,
        0,
        0,
        0,
        0,
        0,
        0,
        0,
        0,
        0,
        0,
        0,
        0,
        0,
        0,
        0,
        0,
        0,
        0,
        0,
        0,
        0,
        0,
        0,
        0,
        0,
        0,
        0,
        0,
        13,
        14,
        0,
        0,
        0,
        0,
        0,
        0,
        0,
        0,
        0,
        0,
        0,
        0,
        0,
        0,
        0,
        0,
        0,
        0,
        0,
        0,
        0,
        0,
        0,
        0,
        0,
        0,
        0,
        0,
        0,
        0,
        0,
        0,
        0,
        0,
        8,
        1,
        0,
        0,
        0,
        0,
        0,
        0,
        0,
        0,
        0,
        0,
        0,
        0,
        0,
        0,
        0,
        0,
        0,
        0,
        0,
        0,
        0,
        0,
        0,
        0,
        0,
        0,
        0,
        0,
        14,
        15,
        0,
        0,
        0,
        0,
        0,
        0,
        0,
        0,
        0,
        0,
        0,
        0,
        0,
        0,
        0,
        0,
        0,
        0,
        0,
        0,
        0,
        0,
        0,
        0,
        0,
        0,
        0,
        0,
        0,
        0,
        0,
        0,
        0,
        8,
        1,
        0,
        0,
        0,
        0,
        0,
        0,
        0,
        0,
        0,
        0,
        0,
        0,
        0,
        0,
        0,
        0,
        0,
        0,
        0,
        0,
        0,
        0,
        0,
        0,
        0,
        0,
        0,
        0,
        0,
        0,
        16,
        9,
        0,
        0,
        0,
        0,
        0,
        0,
        0,
        0,
        0,
        0,
        0,
        0,
        0,
        0,
        0,
        0,
        0,
        0,
        0,
        0,
        0,
        0,
        0,
        0,
        0,
        0,
        0,
        0,
        0,
        0,
        0,
        0,
        1,
        2,
        0,
        0,
        0,
        0,
        0,
        0,
        0,
        0,
        0,
        0,
        0,
        0,
        0,
        0,
        0,
        0,
        0,
        0,
        0,
        0,
        0,
        0,
        0,
        0,
        0,
        0,
        0,
        0,
        0,
        0,
        9,
        10,
        0,
        0,
        0,
        0,
        0,
        0,
        0,
        0,
        0,
        0,
        0,
        0,
        0,
        0,
        0,
        0,
        0,
        0,
        0,
        0,
        0,
        0,
        0,
        0,
        0,
        0,
        0,
        0,
        0,
        0,
        0,
        0,
        2,
        3,
        0,
        0,
        0,
        0,
        0,
        0,
        0,
        0,
        0,
        0,
        0,
        0,
        0,
        0,
        0,
        0,
        0,
        0,
        0,
        0,
        0,
        0,
        0,
        0,
        0,
        0,
        0,
        0,
        0,
        0,
        10,
        11,
        0,
        0,
        0,
        0,
        0,
        0,
        0,
        0,
        0,
        0,
        0,
        0,
        0,
        0,
        0,
        0,
        0,
        0,
        0,
        0,
        0,
        0,
        0,
        0,
        0,
        0,
        0,
        0,
        0,
        0,
        0,
        0,
        0,
        0,
        0,
        0,
        0,
        0,
        0,
        0,
        0,
        0,
        0,
        0,
        0,
        0,
        0,
        0,
        0,
        0,
        0,
        0,
        0,
        0,
        0,
        0,
        0,
        0,
        0,
        0,
        0,
        0,
        0,
        0,
        0,
        0,
        0,
        0,
        0,
        0,
        0,
        0,
        0,
        0,
        0,
        0,
        0,
        0,
        0,
        0,
        0,
        0,
        0,
        0,
        0,
        0,
        0,
        0,
        0,
        0,
        0,
        0,
        0,
        0,
        0,
        0,
        0,
        0,
        0,
        0,
        0,
        0,
        0,
        0,
        0,
        0,
        0,
        0,
        0,
        0,
        0,
        0,
        0,
        0,
        0,
        0,
        0,
        0,
        0,
        0,
        0,
        0,
        0,
        0,
        0,
        0,
        0,
        0,
        0,
        0,
        0,
        0,
        0,
        0,
        0,
        0,
        0,
        0,
        0,
        0,
        0,
        0,
        0,
        0,
        0,
        0,
        0,
        0,
        0,
        0,
        0,
        0,
        0,
        0,
        0,
        0,
        0,
        0,
        0,
        0,
        0,
        0,
        0,
        0,
        0,
        0,
        0,
        0,
        0,
        0,
        0,
        0,
        0,
        0,
        0,
        0,
        0,
        0,
        0,
        0,
        0,
        0,
        0,
        0,
        0,
        0,
        0,
        0,
        0,
        0,
        0,
        0,
        0,
        0,
        0,
        0,
        0,
        0,
        0,
        0,
        0,
        0,
        0,
        0,
        0,
        0,
        0,
        0,
        0,
        0,
        0,
        0,
        0,
        0,
        0,
        0,
        0,
        0,
        0,
        0,
        0,
        0,
        0,
        0,
        0,
        0,
        0,
        0,
        0,
        0,
        0,
        0,
        0,
        0,
        0,
        0,
        0,
        0,
        0,
        0,
        0,
        0,
        0,
        0,
        0,
        0,
        0,
        0,
        0,
        0,
        0,
        0,
        0,
        0,
        0,
        0,
        0,
        0,
        0,
        0,
        0,
        0,
        0,
        0,
        0,
        0,
        0,
        0,
        0,
        0,
        0,
        0,
        0,
        0,
        0,
        0,
        0,
        0,
        0,
        0,
        0,
        0,
        0,
        0,
        0,
        0,
        0,
        0,
        0,
        0,
        0,
        0,
        0,
        0,
        0,
        0,
        0,
        0,
        0,
        0,
        0,
        0,
        0,
        0,
        0,
        0,
        0,
        0,
        0,
        0,
        0,
        0,
        0,
        0,
        0,
        0,
        0,
        0,
        0,
        0,
        0,
        0,
        0,
        0,
        0,
        0,
        0,
        0,
        0,
        0,
        0,
        0,
        0,
        0,
        0,
        0,
        0,
        0,
        0,
        0,
        0,
        0,
        0,
        0,
        0,
        0,
        0,
        0,
        0,
        0,
        0,
        0,
        0,
        0,
        0,
        0,
        0,
        0,
        0,
        0,
        0,
        0,
        0,
        0,
        0,
        0,
        0,
        0,
        0,
        0,
        0,
        0,
        0,
        0,
        0,
        0,
        0,
        0,
        0,
        0,
        0,
        0,
        0,
        0,
        0,
        0,
        0,
        0,
        0,
        0,
        0,
        0,
        0,
        0,
        0,
        0,
        0,
        0,
        0,
        0,
        0,
        0,
        0,
        0,
        0,
        0,
        0,
        0,
        0,
        0,
        0,
        0,
        0,
        0,
        0,
        0,
        0,
        0,
        0,
        0,
        0,
        0,
        0,
        0,
        0,
        0,
        0,
        0,
        0,
        0,
        0,
        0,
        0,
        0,
        0,
        0,
        0,
        0,
        0,
        0,
        0,
        0,
        0,
        0,
        0,
        0,
        0,
        0,
        0,
        0,
        0,
        0,
        0,
        0,
        0,
        0,
        0,
        0,
        0,
        0,
        0,
        0,
        0,
        0,
        0,
        0,
        0,
        0,
        0,
        0,
        0,
        0,
        0,
        0,
        0,
        0,
        0,
        0,
        0,
        0,
        0,
        0,
        0,
        0,
        0,
        0,
        0,
        0,
        0,
        0,
        0,
        0,
        0,
        0,
        0,
        0,
        0,
        0,
        0,
        0,
        0,
        0,
        0,
        0,
        0,
        0,
        0,
        0,
        0,
        0,
        0,
        0,
        0,
        0,
        0,
        0,
        0,
        0,
        0,
        0,
        0,
        0,
        0,
        0,
        0,
        0,
        0,
        0,
        0,
        0,
        0,
        0,
        0,
        0,
        0,
        0,
        0,
        0,
        0,
        0,
        0,
        0,
        0,
        0,
        0,
        0,
        0,
        0,
        0,
        0,
        0,
        0,
        0,
        0,
        0,
        0,
        0,
        0,
        0,
        0,
        0,
        0,
        0,
        0,
        0,
        0,
        0,
        0,
        0,
        0,
        0,
        0,
        0,
        0,
        0,
        0,
        0,
        0,
        0,
        0,
        0,
        0,
        0,
        0,
        0,
        0,
        0,
        0,
        0,
        0,
        0,
        0,
        0,
        0,
        0,
        0,
        0,
        0,
        0,
        0,
        0,
        0,
        0,
        0,
        0,
        0,
        0,
        0,
        0,
        0,
        0,
        0,
        0,
        0,
        0,
        0,
        0,
        0,
        0,
        0,
        0,
        0,
        0,
        0,
        0,
        0,
        0,
        0,
        0,
        0,
        0,
        0,
        0,
        0,
        0,
        0,
        0,
        0,
        0,
        0,
        0,
        0,
        0,
        0,
        0,
        0,
        0,
        0,
        0,
        0,
        0,
        0,
        0,
        0,
        0,
        0,
        0,
        0,
        0,
        0,
        0,
        0,
        0,
        0,
        0,
        0,
        0,
        0,
        0,
        0,
        0,
        0,
        0,
        0,
        0,
        0,
        0,
        0,
        0,
        0,
        0,
        0,
        0,
        0,
        0,
        0,
        0,
        0,
        0,
        0,
        0,
        0,
        0,
        0,
        0,
        0,
        0,
        0,
        0,
        0,
        0,
        0,
        0,
        0,
        0,
        0,
        0,
        0,
        0,
        0,
        0,
        0,
        0,
        0,
        0,
        0,
        0,
        0,
        0,
        0,
        0,
        0,
        0,
        0,
        0,
        0,
        0,
        0,
        0,
        0,
        0,
        0,
        0,
        0,
        0,
        0,
        0,
        0,
        0,
        0,
        0,
        0,
        0,
        0,
        0,
        0,
        0,
        0,
        0,
        0,
        0,
        0,
        0,
        0,
        0,
        0,
        0,
        0,
        0,
        0,
        0,
        0,
        0,
        0,
        0,
        0,
        0,
        0,
        0,
        0,
        0,
        0,
        0,
        0,
        0,
        0,
        0,
        0,
        0,
        0,
        0,
        0,
        0,
        0,
        0,
        0,
        0,
        0,
        0,
        0,
        0,
        0,
        0,
        0,
        0,
        0,
        0,
        0,
        0,
        0,
        0,
        0,
        0,
        0,
        0,
        0,
        0,
        0,
        0,
        0,
        0,
        0,
        0,
        0,
        0,
        0,
        0,
        0,
        0,
        0,
        0,
        0,
        0,
        0,
        0,
        0,
        0,
        0,
        0,
        0,
        0,
        0,
        0,
        0,
        0,
        0,
        0,
        0,
        0,
        0,
        0,
        0,
        0,
        0,
        0,
        0,
        0,
        0,
        0,
        0,
        0,
        0,
        0,
        0,
        0,
        0,
        0,
        0,
        0,
        0,
        0,
        0,
        0,
        0,
        0,
        0,
        0,
        0,
        0,
        0,
        0,
        0,
        0,
        0,
        0,
        0,
        0,
        0,
        0,
        0,
        0,
        0,
        0,
        0,
        0,
        0,
        0,
        0,
        0,
        0,
        0,
        0,
        0,
        0,
        0,
        0,
        0,
        0,
        0,
        0,
        0,
        0,
        0,
        0,
        0,
        0,
        0,
        0,
        0,
        0,
        0,
        0,
        0,
        0,
        0,
        0,
        0,
        0,
        0,
        0,
        0,
        0,
        0,
        0,
        0,
        0,
        0,
        0,
        0,
        0,
        0,
        0,
        0,
        0,
        0,
        0,
        0,
        0,
        0,
        0,
        0,
        0,
        0,
        0,
        0,
        0,
        0,
        0,
        0,
        0,
        0,
        0,
        0,
        0,
        0,
        0,
        0,
        0,
        0,
        0,
        0,
        0,
        0,
        0,
        0,
        0,
        0,
        0,
        0,
        0,
        0,
        0,
        0,
        0,
        0,
        0,
        0,
        0,
        0,
        0,
        0,
        0,
        0,
        0,
        0,
        0,
        0,
        0,
        0,
        0,
        0,
        0,
        0,
        0,
        0,
        0,
        0,
        0,
        0,
        0,
        0,
        0,
        0,
        0,
        0,
        0,
        0,
        0,
        0,
        0,
        0,
        0,
        0,
        0,
        0,
        0,
        0,
        0,
        0,
        0,
        0,
        0,
        0,
        0,
        0,
        0,
        0,
        0,
        0,
        0,
        0,
        0,
        0,
        0,
        0,
        0,
        0,
        0,
        0,
        0,
        0,
        0,
        0,
        0,
        0,
        0,
        0,
        0,
        0,
        0,
        0,
        0,
        0,
        0,
        0,
        0,
        0,
        0,
        0,
        0,
        0,
        0,
        0,
        0,
        0,
        0,
        0,
        0,
        0,
        0,
        0,
        0,
        0,
        0,
        0,
        0,
        0,
        0,
        0,
        0,
        0,
        0,
        0,
        0,
        0,
        0,
        0,
        0,
        0,
        0,
        0,
        0,
        0,
        0,
        0,
        0,
        0,
        0,
        0,
        0,
        0,
        0,
        0,
        0,
        0,
        0,
        0,
        0,
        0,
        0,
        0,
        0,
        0,
        0,
        0,
        0,
        0,
        0,
        0,
        0,
        0,
        0,
        0,
        0,
        0,
        0,
        0,
        0,
        0,
        0,
        0,
        0,
        0,
        0,
        0,
        0,
        0,
        0,
        0,
        0,
        0,
        0,
        0,
        0,
        0,
        0,
        0,
        0,
        0,
        0,
        0,
        0,
        0,
        0,
        0,
        0,
        0,
        0,
        0,
        0,
        0,
        0,
        0,
        0,
        0,
        0,
        0,
        0,
        0,
        0,
        0,
        0,
        0,
        0,
        0,
        0,
        0,
        0,
        0,
        0,
        0,
        0,
        0,
        0,
        0,
        0,
        0,
        0,
        0,
        0,
        0,
        0,
        0,
        0,
        0,
        0,
        0,
        0,
        0,
        0,
        0,
        0,
        0,
        0,
        0,
        0,
        0,
        0,
        0,
        0,
        0,
        0,
        0,
        0,
        0,
        0,
        0,
        0,
        0,
        0,
        0,
        0,
        0,
        0,
        0,
        0,
        0,
        0,
        0,
        0,
        0,
        0,
        0,
        0,
        0,
        0,
        0,
        0,
        0,
        0,
        0,
        0,
        0,
        0,
        0,
        0,
        0,
        0,
        0,
        0,
        0,
        0,
        0,
        0,
        0,
        0,
        0,
        0,
        0,
        0,
        0,
        0,
        0,
        0,
        0,
        0,
        0,
        0,
        0,
        0,
        0,
        0,
        0,
        0,
        0,
        0,
        0,
        0,
        0,
        0,
        0,
        0,
        0,
        0,
        0,
        0,
        0,
        0,
        0,
        0,
        0,
        0,
        0,
        0,
        0,
        0,
        0,
        0,
        0,
        0,
        0,
        0,
        0,
        0,
        0,
        0,
        0,
        0,
        0,
        0,
        0,
        0,
        0,
        0,
        0,
        0,
        0,
        0,
        0,
        0,
        0,
        0,
        0,
        0,
        0,
        0,
        0,
        0,
        0,
        0,
        0,
        0,
        0,
        0,
        0,
        0,
        0,
        0,
        0,
        0,
        0,
        0,
        0,
        0,
        0,
        0,
        0,
        0,
        0,
        0,
        0,
        0,
        0,
        0,
        0,
        0,
        0,
        0,
        0,
        0,
        0,
        0,
        0,
        0,
        0,
        0,
        0,
        0,
        0,
        0,
        0,
        0,
        0,
        0,
        0,
        0,
        0,
        0,
        0,
        0,
        0,
        0,
        0,
        0,
        0,
        0,
        0,
        0,
        0,
        0,
        0,
        0,
        0,
        0,
        0,
        0,
        0,
        0,
        0,
        0,
        0,
        0,
        0,
        0,
        0,
        0,
        0,
        0,
        0,
        0,
        0,
        0,
        0,
        0,
        0,
        0,
        0,
        0,
        0,
        0,
        0,
        0,
        0,
        0,
        0,
        0,
        0,
        0,
        0,
        0,
        0,
        0,
        0,
        0,
        0,
        0,
        0,
        0,
        0,
        0,
        0,
        0,
        0,
        0,
        0,
        0,
        0,
        0,
        0,
        0,
        0,
        0,
        0,
        0,
        0,
        0,
        0,
        0,
        0,
        0,
        0,
        0,
        0,
        0,
        0,
        0,
        0,
        0,
        0,
        0,
        0,
        0,
        0,
        0,
        0,
        0,
        0,
        0,
        0,
        0,
        0,
        0,
        0,
        0,
        0,
        0,
        0,
        0,
        0,
        0,
        0,
        0,
        0,
        0,
        0,
        0,
        0,
        0,
        0,
        0,
        0,
        0,
        0,
        0,
        0,
        0,
        0,
        0,
        0,
        0,
        0,
        0,
        0,
        0,
        0,
        0,
        0,
        0,
        0,
        0,
        0,
        0,
        0,
        0,
        0,
        0,
        0,
        0,
        0,
        0,
        0,
        0,
        0,
        0,
        0,
        0,
        0,
        0,
        0,
        0,
        0,
        0,
        0,
        0,
        0,
        0,
        0,
        0,
        0,
        0,
        0,
        0,
        0,
        0,
        0,
        0,
        0,
        0,
        0,
        0,
        0,
        0,
        0,
        0,
        0,
        0,
        0,
        0,
        0,
        0,
        0,
        0,
        0,
        0,
        0,
        0,
        0,
        0,
        0,
        0,
        0,
        0,
        0,
        0,
        0,
        0,
        0,
        0,
        0,
        0,
        0,
        0,
        0,
        0,
        0,
        0,
        0,
        0,
        0,
        0,
        0,
        0,
        0,
        0,
        0,
        0,
        0,
        0,
        0,
        0,
        0,
        0,
        0,
        0,
        0,
        0,
        0,
        0,
        0,
        0,
        0,
        0,
        0,
        0,
        0,
        0,
        0,
        0,
        0,
        0,
        0,
        0,
        0,
        0,
        0,
        0,
        0,
        0,
        0,
        0,
        0,
        0,
        0,
        0,
        0,
        0,
        0,
        0,
        0,
        0,
        0,
        0,
        0,
        0,
        0,
        0,
        0,
        0,
        0,
        0,
        0,
        0,
        0,
        0,
        0,
        0,
        0,
        0,
        0,
        0,
        0,
        0,
        0,
        0,
        0,
        0,
        0,
        0,
        0,
        0,
        0,
        0,
        0,
        0,
        0,
        0,
        0,
        0,
        0,
        0,
        0,
        0,
        0,
        0,
        0,
        0,
        0,
        0,
        0,
        0,
        0,
        0,
        0,
        0,
        0,
        0,
        0,
        0,
        0,
        0,
        0,
        0,
        0,
        0,
        0,
        0,
        0,
        0,
        0,
        0,
        0,
        0,
        0,
        0,
        0,
        0,
        0,
        0,
        0,
        0,
        0,
        0,
        0,
        0,
        0,
        0,
        0,
        0,
        0,
        0,
        0,
        0,
        0,
        0,
        0,
        0,
        0,
        0,
        0,
        0,
        0,
        0,
        0,
        0,
        0,
        0,
        0,
        0,
        0,
        0,
        0,
        0,
        0,
        0,
        0,
        0,
        0,
        0,
        0,
        0,
        0,
        0,
        0,
        0,
        0,
        0,
        0,
        0,
        0,
        0,
        0,
        0,
        0,
        0,
        0,
        0,
        0,
        0,
        0,
        0,
        0,
        0,
        0,
        0,
        0,
        0,
        0,
        0,
        0,
        0,
        0,
        0,
        0,
        0,
        0,
        0,
        0,
        0,
        0,
        0,
        0,
        0,
        0,
        0,
        0,
        0,
        0,
        0,
        0,
        0,
        0,
        0,
        0,
        0,
        0,
        0,
        0,
        0,
        0,
        0,
        0,
        0,
        0,
        0,
        0,
        0,
        0,
        0,
        0,
        0,
        0,
        0,
        0,
        0,
        0,
        0,
        0,
        0,
        0,
        0,
        0,
        0,
        0,
        0,
        0,
        0,
        0,
        0,
        0,
        0,
        0,
        0,
        0,
        0,
        0,
        0,
        0,
        0,
        0,
        0,
        0,
        0,
        0,
        0,
        0,
        0,
        0,
        0,
        0,
        0,
        0,
        0,
        0,
        0,
        0,
        0,
        0,
        0,
        0,
        0,
        0,
        0,
        0,
        0,
        0,
        0,
        0,
        0,
        0,
        0,
        0,
        0,
        0,
        0,
        0,
        0,
        0,
        0,
        0,
        0,
        0,
        0,
        0,
        0,
        0,
        0,
        0,
        0,
        0,
        0,
        0,
        0,
        0,
        0,
        0,
        0,
        0,
        0,
        0,
        0,
        0,
        0,
        0,
        0,
        0,
        0,
        0,
        0,
        0,
        0,
        0,
        0,
        0,
        0,
        0,
        0,
        0,
        0,
        0,
        0,
        0,
        0,
        0,
        0,
        0,
        0,
        0,
        0,
        0,
        0,
        0,
        0,
        0,
        0,
        0,
        0,
        0,
        0,
        0,
        0,
        0,
        0,
        0,
        0,
        0,
        0,
        0,
        0,
        0,
        0,
        0,
        0,
        0,
        0,
        0,
        0,
        0,
        0,
        0,
        0,
        0,
        0,
        0,
        0,
        0,
        0
      ],
      "properties": [
        {
          "name": "pmd_role",
          "type": "string",
          "value": "cliffs_and_entry"
        }
      ]
    },
    {
      "id": 3,
      "name": "Rochers et bordures",
      "type": "objectgroup",
      "draworder": "top",
      "objects": [
        {
          "id": 1,
          "name": "rocher_01",
          "type": "sprite",
          "x": 80,
          "y": 136,
          "width": 48,
          "height": 40,
          "properties": [
            {
              "name": "asset",
              "type": "file",
              "value": "../sprites/rocher_01.png"
            }
          ]
        },
        {
          "id": 2,
          "name": "rocher_02",
          "type": "sprite",
          "x": 356,
          "y": 136,
          "width": 48,
          "height": 40,
          "properties": [
            {
              "name": "asset",
              "type": "file",
              "value": "../sprites/rocher_02.png"
            }
          ]
        },
        {
          "id": 3,
          "name": "rocher_03",
          "type": "sprite",
          "x": 112,
          "y": 240,
          "width": 32,
          "height": 24,
          "properties": [
            {
              "name": "asset",
              "type": "file",
              "value": "../sprites/rocher_03.png"
            }
          ]
        },
        {
          "id": 4,
          "name": "rocher_04",
          "type": "sprite",
          "x": 400,
          "y": 240,
          "width": 32,
          "height": 24,
          "properties": [
            {
              "name": "asset",
              "type": "file",
              "value": "../sprites/rocher_04.png"
            }
          ]
        },
        {
          "id": 5,
          "name": "rocher_05",
          "type": "sprite",
          "x": 48,
          "y": 304,
          "width": 48,
          "height": 40,
          "properties": [
            {
              "name": "asset",
              "type": "file",
              "value": "../sprites/rocher_05.png"
            }
          ]
        },
        {
          "id": 6,
          "name": "rocher_06",
          "type": "sprite",
          "x": 432,
          "y": 304,
          "width": 48,
          "height": 40,
          "properties": [
            {
              "name": "asset",
              "type": "file",
              "value": "../sprites/rocher_06.png"
            }
          ]
        }
      ]
    },
    {
      "id": 4,
      "name": "Fleurs et végétation",
      "type": "objectgroup",
      "draworder": "top",
      "objects": [
        {
          "id": 20,
          "name": "fleurs_01",
          "type": "sprite",
          "x": 0,
          "y": 336,
          "width": 24,
          "height": 24,
          "properties": [
            {
              "name": "asset",
              "type": "file",
              "value": "../sprites/fleurs_01.png"
            }
          ]
        },
        {
          "id": 21,
          "name": "fleurs_02",
          "type": "sprite",
          "x": 24,
          "y": 344,
          "width": 24,
          "height": 24,
          "properties": [
            {
              "name": "asset",
              "type": "file",
              "value": "../sprites/fleurs_02.png"
            }
          ]
        },
        {
          "id": 22,
          "name": "fleurs_03",
          "type": "sprite",
          "x": 480,
          "y": 336,
          "width": 24,
          "height": 24,
          "properties": [
            {
              "name": "asset",
              "type": "file",
              "value": "../sprites/fleurs_03.png"
            }
          ]
        },
        {
          "id": 23,
          "name": "fleurs_04",
          "type": "sprite",
          "x": 504,
          "y": 344,
          "width": 24,
          "height": 24,
          "properties": [
            {
              "name": "asset",
              "type": "file",
              "value": "../sprites/fleurs_04.png"
            }
          ]
        }
      ]
    }
  ],
  "tilesets": [
    {
      "firstgid": 1,
      "source": "tilesets/01_cliff_entree.tsx"
    },
    {
      "firstgid": 21,
      "source": "tilesets/02_sol.tsx"
    }
  ],
  "properties": [
    {
      "name": "source_reference",
      "type": "file",
      "value": "../image.png"
    },
    {
      "name": "layout_reference",
      "type": "file",
      "value": "../IMG_4854.png"
    },
    {
      "name": "pmd_grid_px",
      "type": "int",
      "value": 8
    },
    {
      "name": "entity_removed",
      "type": "bool",
      "value": true
    },
    {
      "name": "seamless_ground",
      "type": "bool",
      "value": true
    }
  ]
}