{
  "type": "map",
  "version": "1.10",
  "tiledversion": "1.11.0",
  "orientation": "orthogonal",
  "renderorder": "right-down",
  "tilewidth": 32,
  "tileheight": 32,
  "width": 11,
  "height": 9,
  "infinite": false,
  "nextlayerid": 7,
  "nextobjectid": 9,
  "layers": [
    {
      "id": 1,
      "name": "00_parquet",
      "type": "tilelayer",
      "width": 11,
      "height": 9,
      "x": 0,
      "y": 0,
      "visible": true,
      "opacity": 1,
      "data": [
        0,
        0,
        0,
        0,
        0,
        0,
        0,
        0,
        0,
        0,
        0,
        0,
        0,
        0,
        0,
        0,
        0,
        0,
        0,
        0,
        0,
        0,
        0,
        0,
        7,
        14,
        5,
        12,
        3,
        10,
        1,
        0,
        0,
        4,
        11,
        2,
        9,
        16,
        7,
        14,
        5,
        12,
        3,
        10,
        15,
        6,
        13,
        4,
        11,
        2,
        9,
        16,
        7,
        14,
        5,
        10,
        1,
        8,
        15,
        6,
        13,
        4,
        11,
        2,
        9,
        16,
        0,
        0,
        3,
        10,
        1,
        8,
        15,
        6,
        13,
        0,
        0,
        0,
        0,
        0,
        0,
        0,
        0,
        0,
        0,
        0,
        0,
        0,
        0,
        0,
        0,
        0,
        0,
        0,
        0,
        0,
        0,
        0,
        0
      ]
    },
    {
      "id": 2,
      "name": "01_structure",
      "type": "tilelayer",
      "width": 11,
      "height": 9,
      "x": 0,
      "y": 0,
      "visible": true,
      "opacity": 1,
      "data": [
        0,
        0,
        0,
        0,
        0,
        0,
        0,
        0,
        0,
        0,
        0,
        0,
        53,
        37,
        37,
        37,
        37,
        37,
        37,
        37,
        59,
        0,
        37,
        39,
        0,
        0,
        0,
        0,
        0,
        0,
        0,
        45,
        37,
        0,
        0,
        0,
        0,
        0,
        0,
        0,
        0,
        0,
        0,
        0,
        0,
        0,
        0,
        0,
        0,
        0,
        0,
        0,
        0,
        0,
        0,
        0,
        0,
        0,
        0,
        0,
        0,
        0,
        0,
        0,
        0,
        0,
        34,
        36,
        0,
        0,
        0,
        0,
        0,
        0,
        0,
        42,
        34,
        0,
        49,
        34,
        34,
        34,
        34,
        34,
        34,
        34,
        67,
        0,
        0,
        0,
        0,
        0,
        0,
        0,
        0,
        0,
        0,
        0,
        0
      ]
    },
    {
      "id": 3,
      "name": "02_contacts",
      "type": "tilelayer",
      "width": 11,
      "height": 9,
      "x": 0,
      "y": 0,
      "visible": true,
      "opacity": 1,
      "data": [
        0,
        0,
        0,
        0,
        0,
        0,
        0,
        0,
        0,
        0,
        0,
        0,
        0,
        0,
        0,
        0,
        0,
        0,
        0,
        0,
        0,
        0,
        0,
        0,
        90,
        82,
        82,
        82,
        82,
        82,
        84,
        0,
        0,
        82,
        82,
        81,
        81,
        81,
        81,
        81,
        81,
        81,
        82,
        82,
        81,
        81,
        81,
        81,
        81,
        81,
        81,
        81,
        81,
        81,
        81,
        85,
        85,
        81,
        81,
        81,
        81,
        81,
        81,
        81,
        85,
        85,
        0,
        0,
        93,
        85,
        85,
        85,
        85,
        85,
        87,
        0,
        0,
        0,
        0,
        0,
        0,
        0,
        0,
        0,
        0,
        0,
        0,
        0,
        0,
        0,
        0,
        0,
        0,
        0,
        0,
        0,
        0,
        0,
        0
      ]
    },
    {
      "id": 4,
      "name": "03_spirales",
      "type": "tilelayer",
      "width": 11,
      "height": 9,
      "x": 0,
      "y": 0,
      "visible": true,
      "opacity": 1,
      "data": [
        0,
        0,
        0,
        0,
        0,
        0,
        0,
        0,
        0,
        0,
        0,
        0,
        0,
        0,
        0,
        0,
        0,
        0,
        0,
        0,
        0,
        0,
        0,
        0,
        0,
        0,
        0,
        0,
        0,
        0,
        0,
        0,
        0,
        0,
        0,
        0,
        0,
        0,
        0,
        0,
        0,
        0,
        0,
        0,
        0,
        0,
        0,
        0,
        0,
        0,
        0,
        0,
        0,
        0,
        0,
        0,
        0,
        0,
        0,
        115,
        116,
        0,
        0,
        0,
        0,
        0,
        0,
        0,
        0,
        0,
        123,
        124,
        0,
        0,
        0,
        0,
        0,
        0,
        0,
        0,
        0,
        0,
        0,
        0,
        0,
        0,
        0,
        0,
        0,
        0,
        0,
        0,
        0,
        0,
        0,
        0,
        0,
        0,
        0
      ]
    },
    {
      "id": 5,
      "name": "04_ombres_objets",
      "type": "objectgroup",
      "draworder": "index",
      "visible": true,
      "opacity": 1,
      "objects": [
        {
          "id": 1,
          "name": "tapis_ocre",
          "gid": 187,
          "x": 140,
          "y": 180,
          "width": 72,
          "height": 64,
          "rotation": 0,
          "visible": true
        },
        {
          "id": 2,
          "name": "panier_baies",
          "gid": 191,
          "x": 220,
          "y": 123,
          "width": 40,
          "height": 40,
          "rotation": 0,
          "visible": true
        },
        {
          "id": 3,
          "name": "jarre_feuille",
          "gid": 192,
          "x": 96,
          "y": 208,
          "width": 32,
          "height": 40,
          "rotation": 0,
          "visible": true
        },
        {
          "id": 4,
          "name": "coffre_feuille",
          "gid": 190,
          "x": 232,
          "y": 208,
          "width": 40,
          "height": 32,
          "rotation": 0,
          "visible": true
        }
      ]
    },
    {
      "id": 6,
      "name": "05_objets",
      "type": "objectgroup",
      "draworder": "index",
      "visible": true,
      "opacity": 1,
      "objects": [
        {
          "id": 5,
          "name": "tapis_ocre",
          "gid": 167,
          "x": 140,
          "y": 180,
          "width": 72,
          "height": 64,
          "rotation": 0,
          "visible": true
        },
        {
          "id": 6,
          "name": "panier_baies",
          "gid": 171,
          "x": 220,
          "y": 123,
          "width": 40,
          "height": 40,
          "rotation": 0,
          "visible": true
        },
        {
          "id": 7,
          "name": "jarre_feuille",
          "gid": 172,
          "x": 96,
          "y": 208,
          "width": 32,
          "height": 40,
          "rotation": 0,
          "visible": true
        },
        {
          "id": 8,
          "name": "coffre_feuille",
          "gid": 170,
          "x": 232,
          "y": 208,
          "width": 40,
          "height": 32,
          "rotation": 0,
          "visible": true
        }
      ]
    }
  ],
  "tilesets": [
    {
      "firstgid": 1,
      "source": "../../tiled/parquet_jour.tsj"
    },
    {
      "firstgid": 33,
      "source": "../../tiled/structure_jour.tsj"
    },
    {
      "firstgid": 81,
      "source": "../../tiled/contacts_jour.tsj"
    },
    {
      "firstgid": 97,
      "source": "../../tiled/spirales_jour.tsj"
    },
    {
      "firstgid": 161,
      "source": "../../tiled/objets_jour.tsj"
    },
    {
      "firstgid": 181,
      "source": "../../tiled/ombres_objets_jour.tsj"
    }
  ]
}
