{
  "type": "map",
  "version": "1.10",
  "orientation": "orthogonal",
  "renderorder": "right-down",
  "infinite": false,
  "tilewidth": 32,
  "tileheight": 32,
  "width": 16,
  "height": 13,
  "nextlayerid": 14,
  "nextobjectid": 54,
  "layers": [
    {
      "id": 1,
      "name": "00_fond_immersion",
      "visible": true,
      "opacity": 1,
      "properties": [
        {
          "name": "role",
          "type": "string",
          "value": "Fond d’immersion"
        }
      ],
      "type": "tilelayer",
      "width": 16,
      "height": 13,
      "x": 0,
      "y": 0,
      "data": [
        1,
        1,
        1,
        1,
        1,
        1,
        1,
        1,
        1,
        1,
        1,
        1,
        1,
        1,
        1,
        1,
        1,
        1,
        1,
        1,
        1,
        1,
        1,
        1,
        1,
        1,
        1,
        1,
        1,
        1,
        1,
        1,
        1,
        1,
        1,
        1,
        1,
        1,
        1,
        1,
        1,
        1,
        1,
        1,
        1,
        1,
        1,
        1,
        1,
        1,
        1,
        1,
        1,
        1,
        1,
        1,
        1,
        1,
        1,
        1,
        1,
        1,
        1,
        1,
        1,
        1,
        1,
        6,
        7,
        0,
        0,
        0,
        0,
        0,
        0,
        13,
        12,
        1,
        1,
        1,
        1,
        1,
        1,
        7,
        0,
        0,
        0,
        0,
        0,
        0,
        0,
        0,
        13,
        1,
        1,
        1,
        1,
        1,
        1,
        0,
        0,
        0,
        0,
        0,
        0,
        0,
        0,
        0,
        0,
        1,
        1,
        1,
        0,
        0,
        0,
        0,
        0,
        0,
        0,
        0,
        0,
        0,
        0,
        0,
        0,
        0,
        0,
        0,
        0,
        0,
        0,
        0,
        0,
        0,
        0,
        0,
        0,
        0,
        0,
        0,
        0,
        0,
        0,
        0,
        0,
        0,
        0,
        0,
        0,
        0,
        0,
        0,
        0,
        0,
        0,
        0,
        0,
        0,
        0,
        0,
        1,
        1,
        1,
        4,
        0,
        0,
        0,
        0,
        0,
        0,
        0,
        0,
        5,
        1,
        1,
        1,
        1,
        1,
        1,
        1,
        1,
        1,
        1,
        1,
        1,
        1,
        1,
        1,
        1,
        1,
        1,
        1,
        1,
        1,
        1,
        1,
        1,
        1,
        1,
        1,
        1,
        1,
        1,
        1,
        1,
        1,
        1,
        1
      ]
    },
    {
      "id": 2,
      "name": "01_soubassement",
      "visible": true,
      "opacity": 1,
      "properties": [
        {
          "name": "role",
          "type": "string",
          "value": "Soubassement d’écorce"
        }
      ],
      "type": "tilelayer",
      "width": 16,
      "height": 13,
      "x": 0,
      "y": 0,
      "data": [
        0,
        0,
        0,
        0,
        0,
        0,
        0,
        0,
        0,
        0,
        0,
        0,
        0,
        0,
        0,
        0,
        0,
        0,
        0,
        0,
        0,
        0,
        0,
        0,
        0,
        0,
        0,
        0,
        0,
        0,
        0,
        0,
        0,
        0,
        0,
        0,
        0,
        0,
        0,
        0,
        0,
        0,
        0,
        0,
        0,
        0,
        0,
        0,
        0,
        0,
        0,
        241,
        242,
        34,
        35,
        36,
        37,
        243,
        244,
        245,
        246,
        0,
        0,
        0,
        0,
        0,
        247,
        248,
        114,
        0,
        0,
        0,
        0,
        0,
        0,
        249,
        250,
        251,
        0,
        0,
        0,
        0,
        252,
        253,
        0,
        0,
        0,
        0,
        0,
        0,
        0,
        0,
        254,
        255,
        0,
        0,
        168,
        169,
        256,
        0,
        0,
        0,
        0,
        0,
        0,
        0,
        0,
        0,
        0,
        257,
        177,
        178,
        0,
        0,
        0,
        0,
        0,
        0,
        0,
        0,
        0,
        0,
        0,
        0,
        0,
        0,
        0,
        0,
        0,
        0,
        0,
        0,
        0,
        0,
        0,
        0,
        0,
        0,
        0,
        0,
        0,
        0,
        0,
        0,
        0,
        0,
        0,
        0,
        0,
        0,
        0,
        0,
        0,
        0,
        0,
        0,
        0,
        0,
        0,
        0,
        179,
        180,
        258,
        259,
        0,
        0,
        0,
        0,
        0,
        0,
        0,
        0,
        260,
        261,
        190,
        191,
        0,
        0,
        0,
        262,
        263,
        264,
        265,
        194,
        195,
        196,
        266,
        267,
        268,
        0,
        0,
        0,
        0,
        0,
        0,
        0,
        0,
        0,
        0,
        0,
        0,
        0,
        0,
        0,
        0,
        0,
        0,
        0
      ]
    },
    {
      "id": 3,
      "name": "02_feuillage_arriere",
      "visible": true,
      "opacity": 1,
      "properties": [
        {
          "name": "role",
          "type": "string",
          "value": "Feuillage arrière"
        }
      ],
      "type": "objectgroup",
      "draworder": "index",
      "objects": [
        {
          "id": 1,
          "name": "canopée_1",
          "gid": 369,
          "x": 40,
          "y": 173,
          "width": 64,
          "height": 36,
          "rotation": 0,
          "visible": true
        },
        {
          "id": 2,
          "name": "canopée_1",
          "gid": 369,
          "x": 46,
          "y": 173,
          "width": 64,
          "height": 36,
          "rotation": 0,
          "visible": true
        },
        {
          "id": 3,
          "name": "canopée_2",
          "gid": 370,
          "x": 83,
          "y": 101,
          "width": 58,
          "height": 43,
          "rotation": 0,
          "visible": true
        },
        {
          "id": 4,
          "name": "canopée_3",
          "gid": 371,
          "x": 143,
          "y": 77,
          "width": 58,
          "height": 43,
          "rotation": 0,
          "visible": true
        },
        {
          "id": 5,
          "name": "canopée_0",
          "gid": 374,
          "x": 196,
          "y": 77,
          "width": 64,
          "height": 36,
          "rotation": 0,
          "visible": true
        },
        {
          "id": 6,
          "name": "canopée_1",
          "gid": 369,
          "x": 252,
          "y": 77,
          "width": 64,
          "height": 36,
          "rotation": 0,
          "visible": true
        },
        {
          "id": 7,
          "name": "canopée_2",
          "gid": 370,
          "x": 311,
          "y": 77,
          "width": 58,
          "height": 43,
          "rotation": 0,
          "visible": true
        },
        {
          "id": 8,
          "name": "canopée_0",
          "gid": 374,
          "x": 368,
          "y": 101,
          "width": 64,
          "height": 36,
          "rotation": 0,
          "visible": true
        },
        {
          "id": 9,
          "name": "canopée_1",
          "gid": 369,
          "x": 402,
          "y": 173,
          "width": 64,
          "height": 36,
          "rotation": 0,
          "visible": true
        },
        {
          "id": 10,
          "name": "canopée_2",
          "gid": 370,
          "x": 411,
          "y": 173,
          "width": 58,
          "height": 43,
          "rotation": 0,
          "visible": true
        }
      ]
    },
    {
      "id": 4,
      "name": "03_parquet",
      "visible": true,
      "opacity": 1,
      "properties": [
        {
          "name": "role",
          "type": "string",
          "value": "Parquet"
        }
      ],
      "type": "tilelayer",
      "width": 16,
      "height": 13,
      "x": 0,
      "y": 0,
      "data": [
        0,
        0,
        0,
        0,
        0,
        0,
        0,
        0,
        0,
        0,
        0,
        0,
        0,
        0,
        0,
        0,
        0,
        0,
        0,
        0,
        0,
        0,
        0,
        0,
        0,
        0,
        0,
        0,
        0,
        0,
        0,
        0,
        0,
        0,
        0,
        0,
        0,
        0,
        0,
        0,
        0,
        0,
        0,
        0,
        0,
        0,
        0,
        0,
        0,
        0,
        0,
        0,
        0,
        0,
        0,
        0,
        0,
        0,
        0,
        0,
        0,
        0,
        0,
        0,
        0,
        0,
        0,
        427,
        428,
        380,
        381,
        382,
        383,
        393,
        394,
        429,
        430,
        0,
        0,
        0,
        0,
        0,
        0,
        431,
        389,
        390,
        391,
        392,
        380,
        381,
        382,
        383,
        432,
        0,
        0,
        0,
        0,
        0,
        0,
        385,
        386,
        387,
        388,
        389,
        390,
        391,
        392,
        380,
        381,
        0,
        0,
        0,
        382,
        383,
        393,
        394,
        395,
        396,
        385,
        386,
        387,
        388,
        389,
        390,
        391,
        392,
        380,
        381,
        392,
        380,
        381,
        382,
        383,
        393,
        394,
        395,
        396,
        385,
        386,
        387,
        388,
        389,
        390,
        391,
        389,
        390,
        391,
        392,
        380,
        381,
        382,
        383,
        393,
        394,
        395,
        396,
        385,
        386,
        387,
        388,
        0,
        0,
        0,
        433,
        390,
        391,
        392,
        380,
        381,
        382,
        383,
        393,
        434,
        0,
        0,
        0,
        0,
        0,
        0,
        0,
        0,
        0,
        0,
        0,
        0,
        0,
        0,
        0,
        0,
        0,
        0,
        0,
        0,
        0,
        0,
        0,
        0,
        0,
        0,
        0,
        0,
        0,
        0,
        0,
        0,
        0,
        0,
        0
      ]
    },
    {
      "id": 5,
      "name": "04_murs_fond",
      "visible": true,
      "opacity": 1,
      "properties": [
        {
          "name": "role",
          "type": "string",
          "value": "Panneaux du fond"
        }
      ],
      "type": "objectgroup",
      "draworder": "index",
      "objects": [
        {
          "id": 11,
          "name": "murs_fond_48_0",
          "gid": 476,
          "x": -3,
          "y": 229,
          "width": 56,
          "height": 72,
          "rotation": 0,
          "visible": true
        },
        {
          "id": 12,
          "name": "murs_fond_48_0",
          "gid": 476,
          "x": 45,
          "y": 229,
          "width": 56,
          "height": 72,
          "rotation": 0,
          "visible": true
        },
        {
          "id": 13,
          "name": "murs_fond_56_0",
          "gid": 478,
          "x": 141,
          "y": 133,
          "width": 64,
          "height": 72,
          "rotation": 0,
          "visible": true
        },
        {
          "id": 14,
          "name": "murs_fond_56_0",
          "gid": 478,
          "x": 197,
          "y": 133,
          "width": 64,
          "height": 72,
          "rotation": 0,
          "visible": true
        },
        {
          "id": 15,
          "name": "murs_fond_56_0",
          "gid": 478,
          "x": 253,
          "y": 133,
          "width": 64,
          "height": 72,
          "rotation": 0,
          "visible": true
        },
        {
          "id": 16,
          "name": "murs_fond_56_0",
          "gid": 478,
          "x": 309,
          "y": 133,
          "width": 64,
          "height": 72,
          "rotation": 0,
          "visible": true
        },
        {
          "id": 17,
          "name": "murs_fond_48_0",
          "gid": 476,
          "x": 413,
          "y": 229,
          "width": 56,
          "height": 72,
          "rotation": 0,
          "visible": true
        },
        {
          "id": 18,
          "name": "murs_fond_48_0",
          "gid": 476,
          "x": 461,
          "y": 229,
          "width": 56,
          "height": 72,
          "rotation": 0,
          "visible": true
        }
      ]
    },
    {
      "id": 6,
      "name": "05_murs_retours",
      "visible": true,
      "opacity": 1,
      "properties": [
        {
          "name": "role",
          "type": "string",
          "value": "Murs de retour"
        }
      ],
      "type": "objectgroup",
      "draworder": "index",
      "objects": [
        {
          "id": 19,
          "name": "murs_retours_0_-48",
          "gid": 507,
          "x": 75,
          "y": 229,
          "width": 32,
          "height": 96,
          "rotation": 0,
          "visible": true
        },
        {
          "id": 20,
          "name": "murs_fond_48_-48",
          "gid": 506,
          "x": 85,
          "y": 181,
          "width": 64,
          "height": 120,
          "rotation": 0,
          "visible": true
        },
        {
          "id": 21,
          "name": "murs_fond_48_48",
          "gid": 501,
          "x": 365,
          "y": 181,
          "width": 64,
          "height": 120,
          "rotation": 0,
          "visible": true
        },
        {
          "id": 22,
          "name": "murs_retours_0_48",
          "gid": 499,
          "x": 413,
          "y": 229,
          "width": 32,
          "height": 96,
          "rotation": 0,
          "visible": true
        },
        {
          "id": 23,
          "name": "joint_de_panneaux",
          "gid": 508,
          "x": 76,
          "y": 230,
          "width": 24,
          "height": 72,
          "rotation": 0,
          "visible": true
        },
        {
          "id": 24,
          "name": "joint_de_panneaux",
          "gid": 492,
          "x": 76,
          "y": 182,
          "width": 24,
          "height": 72,
          "rotation": 0,
          "visible": true
        },
        {
          "id": 25,
          "name": "joint_de_panneaux",
          "gid": 483,
          "x": 134,
          "y": 134,
          "width": 16,
          "height": 72,
          "rotation": 0,
          "visible": true
        },
        {
          "id": 26,
          "name": "joint_de_panneaux",
          "gid": 484,
          "x": 366,
          "y": 134,
          "width": 16,
          "height": 72,
          "rotation": 0,
          "visible": true
        },
        {
          "id": 27,
          "name": "joint_de_panneaux",
          "gid": 491,
          "x": 414,
          "y": 182,
          "width": 24,
          "height": 72,
          "rotation": 0,
          "visible": true
        },
        {
          "id": 28,
          "name": "joint_de_panneaux",
          "gid": 509,
          "x": 414,
          "y": 230,
          "width": 24,
          "height": 72,
          "rotation": 0,
          "visible": true
        }
      ]
    },
    {
      "id": 7,
      "name": "06_ombres_contact",
      "visible": true,
      "opacity": 1,
      "properties": [
        {
          "name": "role",
          "type": "string",
          "value": "Ombres de contact"
        }
      ],
      "type": "tilelayer",
      "width": 16,
      "height": 13,
      "x": 0,
      "y": 0,
      "data": [
        0,
        0,
        0,
        0,
        0,
        0,
        0,
        0,
        0,
        0,
        0,
        0,
        0,
        0,
        0,
        0,
        0,
        0,
        0,
        0,
        0,
        0,
        0,
        0,
        0,
        0,
        0,
        0,
        0,
        0,
        0,
        0,
        0,
        0,
        0,
        0,
        0,
        0,
        0,
        0,
        0,
        0,
        0,
        0,
        0,
        0,
        0,
        0,
        0,
        0,
        0,
        0,
        0,
        0,
        0,
        0,
        0,
        0,
        0,
        0,
        0,
        0,
        0,
        0,
        0,
        0,
        0,
        539,
        567,
        515,
        515,
        515,
        515,
        515,
        515,
        568,
        557,
        0,
        0,
        0,
        0,
        0,
        0,
        541,
        542,
        0,
        0,
        0,
        0,
        0,
        0,
        559,
        569,
        0,
        0,
        0,
        0,
        0,
        0,
        529,
        0,
        0,
        0,
        0,
        0,
        0,
        0,
        0,
        530,
        0,
        0,
        0,
        515,
        515,
        515,
        570,
        0,
        0,
        0,
        0,
        0,
        0,
        0,
        0,
        571,
        515,
        515,
        515,
        0,
        0,
        0,
        0,
        0,
        0,
        0,
        0,
        0,
        0,
        0,
        0,
        0,
        0,
        0,
        0,
        520,
        520,
        520,
        521,
        0,
        0,
        0,
        0,
        0,
        0,
        0,
        0,
        522,
        520,
        520,
        520,
        0,
        0,
        0,
        523,
        524,
        520,
        520,
        520,
        520,
        520,
        520,
        525,
        526,
        0,
        0,
        0,
        0,
        0,
        0,
        0,
        0,
        0,
        0,
        0,
        0,
        0,
        0,
        0,
        0,
        0,
        0,
        0,
        0,
        0,
        0,
        0,
        0,
        0,
        0,
        0,
        0,
        0,
        0,
        0,
        0,
        0,
        0,
        0
      ]
    },
    {
      "id": 8,
      "name": "07_reflets_seuils",
      "visible": true,
      "opacity": 1,
      "properties": [
        {
          "name": "role",
          "type": "string",
          "value": "Reflets des seuils"
        }
      ],
      "type": "tilelayer",
      "width": 16,
      "height": 13,
      "x": 0,
      "y": 0,
      "data": [
        0,
        0,
        0,
        0,
        0,
        0,
        0,
        0,
        0,
        0,
        0,
        0,
        0,
        0,
        0,
        0,
        0,
        0,
        0,
        0,
        0,
        0,
        0,
        0,
        0,
        0,
        0,
        0,
        0,
        0,
        0,
        0,
        0,
        0,
        0,
        0,
        0,
        0,
        0,
        0,
        0,
        0,
        0,
        0,
        0,
        0,
        0,
        0,
        0,
        0,
        0,
        0,
        0,
        0,
        0,
        0,
        0,
        0,
        0,
        0,
        0,
        0,
        0,
        0,
        0,
        0,
        0,
        0,
        0,
        0,
        0,
        0,
        0,
        0,
        0,
        0,
        0,
        0,
        0,
        0,
        0,
        0,
        0,
        0,
        0,
        0,
        0,
        0,
        0,
        0,
        0,
        0,
        0,
        0,
        0,
        0,
        0,
        0,
        0,
        0,
        0,
        0,
        0,
        0,
        0,
        0,
        0,
        0,
        0,
        0,
        0,
        0,
        593,
        0,
        0,
        0,
        0,
        0,
        0,
        0,
        0,
        0,
        0,
        0,
        0,
        0,
        0,
        594,
        0,
        0,
        0,
        0,
        0,
        0,
        0,
        0,
        0,
        0,
        0,
        0,
        0,
        0,
        0,
        0,
        595,
        0,
        0,
        0,
        0,
        0,
        0,
        0,
        0,
        0,
        0,
        0,
        0,
        0,
        0,
        596,
        0,
        0,
        0,
        0,
        0,
        0,
        0,
        0,
        0,
        0,
        0,
        0,
        0,
        0,
        0,
        0,
        0,
        0,
        0,
        0,
        0,
        0,
        0,
        0,
        0,
        0,
        0,
        0,
        0,
        0,
        0,
        0,
        0,
        0,
        0,
        0,
        0,
        0,
        0,
        0,
        0,
        0,
        0,
        0,
        0,
        0,
        0,
        0
      ]
    },
    {
      "id": 9,
      "name": "08_spirales",
      "visible": true,
      "opacity": 1,
      "properties": [
        {
          "name": "role",
          "type": "string",
          "value": "Traces spiralées"
        }
      ],
      "type": "objectgroup",
      "draworder": "index",
      "objects": [
        {
          "id": 29,
          "name": "spirale_06",
          "gid": 878,
          "x": 224,
          "y": 352,
          "width": 64,
          "height": 64,
          "rotation": 0,
          "visible": true
        }
      ]
    },
    {
      "id": 10,
      "name": "09_ombres_objets",
      "visible": true,
      "opacity": 1,
      "properties": [
        {
          "name": "role",
          "type": "string",
          "value": "Ombres des objets"
        }
      ],
      "type": "objectgroup",
      "draworder": "index",
      "objects": [
        {
          "id": 30,
          "name": "banniere_guilde",
          "gid": 890,
          "x": 180,
          "y": 120,
          "width": 40,
          "height": 48,
          "rotation": 0,
          "visible": true
        },
        {
          "id": 31,
          "name": "banniere_guilde",
          "gid": 890,
          "x": 292,
          "y": 120,
          "width": 40,
          "height": 48,
          "rotation": 0,
          "visible": true
        },
        {
          "id": 32,
          "name": "tapis_ocre",
          "gid": 895,
          "x": 220,
          "y": 278,
          "width": 72,
          "height": 64,
          "rotation": 0,
          "visible": true
        },
        {
          "id": 33,
          "name": "panier_baies",
          "gid": 899,
          "x": 332,
          "y": 221,
          "width": 40,
          "height": 40,
          "rotation": 0,
          "visible": true
        },
        {
          "id": 34,
          "name": "jarre_feuille",
          "gid": 900,
          "x": 136,
          "y": 316,
          "width": 32,
          "height": 40,
          "rotation": 0,
          "visible": true
        },
        {
          "id": 35,
          "name": "coffre_feuille",
          "gid": 898,
          "x": 342,
          "y": 321,
          "width": 40,
          "height": 32,
          "rotation": 0,
          "visible": true
        }
      ]
    },
    {
      "id": 11,
      "name": "10_objets",
      "visible": true,
      "opacity": 1,
      "properties": [
        {
          "name": "role",
          "type": "string",
          "value": "Objets et tentures"
        }
      ],
      "type": "objectgroup",
      "draworder": "index",
      "objects": [
        {
          "id": 36,
          "name": "banniere_guilde",
          "gid": 910,
          "x": 180,
          "y": 120,
          "width": 40,
          "height": 48,
          "rotation": 0,
          "visible": true
        },
        {
          "id": 37,
          "name": "banniere_guilde",
          "gid": 910,
          "x": 292,
          "y": 120,
          "width": 40,
          "height": 48,
          "rotation": 0,
          "visible": true
        },
        {
          "id": 38,
          "name": "tapis_ocre",
          "gid": 915,
          "x": 220,
          "y": 278,
          "width": 72,
          "height": 64,
          "rotation": 0,
          "visible": true
        },
        {
          "id": 39,
          "name": "panier_baies",
          "gid": 919,
          "x": 332,
          "y": 221,
          "width": 40,
          "height": 40,
          "rotation": 0,
          "visible": true
        },
        {
          "id": 40,
          "name": "jarre_feuille",
          "gid": 920,
          "x": 136,
          "y": 316,
          "width": 32,
          "height": 40,
          "rotation": 0,
          "visible": true
        },
        {
          "id": 41,
          "name": "coffre_feuille",
          "gid": 918,
          "x": 342,
          "y": 321,
          "width": 40,
          "height": 32,
          "rotation": 0,
          "visible": true
        }
      ]
    },
    {
      "id": 12,
      "name": "11_ecorce_racines_avant",
      "visible": true,
      "opacity": 1,
      "properties": [
        {
          "name": "role",
          "type": "string",
          "value": "Écorce et racines avant"
        }
      ],
      "type": "tilelayer",
      "width": 16,
      "height": 13,
      "x": 0,
      "y": 0,
      "data": [
        0,
        0,
        0,
        0,
        0,
        0,
        0,
        0,
        0,
        0,
        0,
        0,
        0,
        0,
        0,
        0,
        0,
        0,
        0,
        0,
        0,
        0,
        0,
        0,
        0,
        0,
        0,
        0,
        0,
        0,
        0,
        0,
        0,
        0,
        0,
        0,
        0,
        0,
        0,
        0,
        0,
        0,
        0,
        0,
        0,
        0,
        0,
        0,
        0,
        0,
        0,
        0,
        0,
        0,
        0,
        0,
        0,
        0,
        0,
        0,
        0,
        0,
        0,
        0,
        0,
        0,
        0,
        0,
        0,
        0,
        0,
        0,
        0,
        0,
        0,
        0,
        0,
        0,
        0,
        0,
        0,
        0,
        769,
        0,
        0,
        0,
        0,
        0,
        0,
        0,
        0,
        0,
        0,
        770,
        0,
        0,
        0,
        630,
        771,
        0,
        0,
        0,
        0,
        0,
        0,
        0,
        0,
        0,
        0,
        772,
        698,
        0,
        0,
        0,
        0,
        0,
        0,
        0,
        0,
        0,
        0,
        0,
        0,
        0,
        0,
        0,
        0,
        0,
        0,
        0,
        0,
        0,
        0,
        0,
        0,
        0,
        0,
        0,
        0,
        0,
        0,
        0,
        0,
        0,
        0,
        0,
        0,
        0,
        0,
        0,
        0,
        0,
        0,
        0,
        0,
        0,
        0,
        0,
        0,
        0,
        773,
        774,
        775,
        776,
        0,
        0,
        0,
        0,
        0,
        0,
        0,
        0,
        777,
        778,
        727,
        728,
        611,
        0,
        612,
        779,
        780,
        781,
        782,
        783,
        784,
        785,
        786,
        787,
        788,
        789,
        0,
        620,
        0,
        0,
        0,
        0,
        0,
        611,
        0,
        620,
        0,
        611,
        0,
        620,
        0,
        0,
        0,
        0
      ]
    },
    {
      "id": 13,
      "name": "12_feuillage_avant",
      "visible": true,
      "opacity": 1,
      "properties": [
        {
          "name": "role",
          "type": "string",
          "value": "Feuillage de premier plan"
        }
      ],
      "type": "objectgroup",
      "draworder": "index",
      "objects": [
        {
          "id": 42,
          "name": "bordure_végétale_3",
          "gid": 371,
          "x": 53,
          "y": 219,
          "width": 58,
          "height": 43,
          "rotation": 0,
          "visible": true
        },
        {
          "id": 43,
          "name": "retombée_1",
          "gid": 373,
          "x": 156,
          "y": 104,
          "width": 32,
          "height": 46,
          "rotation": 0,
          "visible": true
        },
        {
          "id": 44,
          "name": "retombée_1",
          "gid": 373,
          "x": 324,
          "y": 104,
          "width": 32,
          "height": 46,
          "rotation": 0,
          "visible": true
        },
        {
          "id": 45,
          "name": "bordure_végétale_7",
          "gid": 377,
          "x": 410,
          "y": 229,
          "width": 39,
          "height": 54,
          "rotation": 0,
          "visible": true
        },
        {
          "id": 46,
          "name": "retombée_0",
          "gid": 372,
          "x": 424,
          "y": 200,
          "width": 32,
          "height": 46,
          "rotation": 0,
          "visible": true
        },
        {
          "id": 47,
          "name": "bordure_végétale_6",
          "gid": 376,
          "x": 408,
          "y": 361,
          "width": 39,
          "height": 54,
          "rotation": 0,
          "visible": true
        },
        {
          "id": 48,
          "name": "bordure_végétale_0",
          "gid": 374,
          "x": 376,
          "y": 366,
          "width": 64,
          "height": 36,
          "rotation": 0,
          "visible": true
        },
        {
          "id": 49,
          "name": "bordure_végétale_3",
          "gid": 371,
          "x": 329,
          "y": 387,
          "width": 58,
          "height": 43,
          "rotation": 0,
          "visible": true
        },
        {
          "id": 50,
          "name": "bordure_végétale_4",
          "gid": 378,
          "x": 278,
          "y": 393,
          "width": 45,
          "height": 54,
          "rotation": 0,
          "visible": true
        },
        {
          "id": 51,
          "name": "bordure_végétale_5",
          "gid": 375,
          "x": 220,
          "y": 393,
          "width": 45,
          "height": 54,
          "rotation": 0,
          "visible": true
        },
        {
          "id": 52,
          "name": "bordure_végétale_6",
          "gid": 376,
          "x": 164,
          "y": 393,
          "width": 39,
          "height": 54,
          "rotation": 0,
          "visible": true
        },
        {
          "id": 53,
          "name": "bordure_végétale_6",
          "gid": 376,
          "x": 80,
          "y": 371,
          "width": 39,
          "height": 54,
          "rotation": 0,
          "visible": true
        }
      ]
    }
  ],
  "tilesets": [
    {
      "firstgid": 1,
      "source": "../../tiled/hallways_fond_nuit.tsj"
    },
    {
      "firstgid": 33,
      "source": "../../tiled/hallways_soubassement_nuit.tsj"
    },
    {
      "firstgid": 369,
      "source": "../../tiled/hallways_vegetation_nuit.tsj"
    },
    {
      "firstgid": 379,
      "source": "../../tiled/hallways_sol_decoupe_nuit.tsj"
    },
    {
      "firstgid": 475,
      "source": "../../tiled/hallways_murs_fond_nuit.tsj"
    },
    {
      "firstgid": 480,
      "source": "../../tiled/hallways_murs_retours_nuit.tsj"
    },
    {
      "firstgid": 513,
      "source": "../../tiled/hallways_contacts_nuit.tsj"
    },
    {
      "firstgid": 593,
      "source": "../../tiled/hallways_reflets_nuit.tsj"
    },
    {
      "firstgid": 601,
      "source": "../../tiled/hallways_ecorce_avant_nuit.tsj"
    },
    {
      "firstgid": 873,
      "source": "../../tiled/hallways_motifs_nuit.tsj"
    },
    {
      "firstgid": 889,
      "source": "../../tiled/hallways_ombres_objets_nuit.tsj"
    },
    {
      "firstgid": 909,
      "source": "../../tiled/hallways_objets_nuit.tsj"
    }
  ],
  "properties": [
    {
      "name": "architecture",
      "type": "string",
      "value": "panneaux verticaux + bordures d’immersion"
    }
  ]
}
