{"type":"map","version":"1.10","tiledversion":"1.11.0","orientation":"orthogonal","renderorder":"right-down","tilewidth":8,"tileheight":8,"width":74,"height":56,"infinite":false,"nextlayerid":6,"nextobjectid":1,"layers":[{"id":1,"name":"Ciel, horizon et nappe d'eau","type":"imagelayer","image":"../calques/jour/00_ciel_eau.png","visible":true,"opacity":1,"x":0,"y":0},{"id":2,"name":"Nuages de jour / étoiles de nuit","type":"imagelayer","image":"../calques/jour/01_nuages_astres.png","visible":true,"opacity":1,"x":0,"y":0},{"id":3,"name":"Îlot rocheux et relief central","type":"imagelayer","image":"../calques/jour/02_ilot_rocheux.png","visible":true,"opacity":1,"x":0,"y":0},{"id":4,"name":"Chutes et écume","type":"imagelayer","image":"../calques/jour/03_cascades.png","visible":true,"opacity":1,"x":0,"y":0},{"id":5,"name":"Roseaux, buissons et premier plan","type":"imagelayer","image":"../calques/jour/04_vegetation.png","visible":true,"opacity":1,"x":0,"y":0}],"tilesets":[],"properties":[{"name":"reference_layout","type":"string","value":"cascades"}]}