<?xml version="1.0" encoding="UTF-8"?>
<map version="1.10" tiledversion="1.10.2" orientation="orthogonal" renderorder="right-down" width="32" height="24" tilewidth="24" tileheight="24" infinite="0" nextlayerid="2" nextobjectid="1">
 <tileset firstgid="1" source="donjon_eos.tsx"/>
 <layer id="1" name="terrain" width="32" height="24">
  <data encoding="csv">
8,8,8,8,8,8,8,8,8,8,8,8,8,8,8,8,8,8,8,8,8,8,8,8,8,8,8,8,8,8,8,8,
8,31,14,14,14,14,32,8,8,8,8,8,8,8,8,8,8,8,8,8,8,8,8,8,8,31,14,14,14,32,8,8,
8,9,100,101,101,102,7,8,8,8,8,8,8,8,8,8,8,31,14,14,14,32,8,8,8,9,97,98,99,7,8,8,
8,9,106,49,51,106,7,8,8,8,8,8,8,8,8,8,8,9,97,98,99,13,14,14,14,15,103,104,105,7,8,8,
8,9,106,61,63,106,7,8,8,8,8,8,8,8,8,8,8,9,103,104,115,101,101,101,101,101,116,104,105,7,8,8,
8,9,112,101,117,108,7,8,8,8,8,8,8,8,8,8,8,9,109,110,130,1,2,2,2,3,109,110,111,7,8,8,
8,37,2,3,106,1,38,8,8,8,8,8,8,8,8,8,8,37,2,3,106,7,8,8,8,37,2,2,2,38,8,8,
8,8,8,9,106,7,8,8,8,8,8,8,8,8,8,8,8,8,8,9,106,7,8,8,8,8,8,8,8,8,8,8,
8,8,8,9,106,7,8,8,8,8,8,8,8,8,8,8,8,8,8,9,106,7,8,8,8,8,8,8,8,8,8,8,
8,31,14,15,106,13,32,8,8,31,14,14,14,32,8,8,8,8,31,15,106,13,32,8,8,8,8,8,8,8,8,8,
8,9,100,101,123,102,7,8,8,9,97,98,99,7,8,8,8,8,9,97,121,99,7,8,8,8,8,8,8,8,8,8,
8,9,106,49,51,106,13,14,14,15,103,104,105,13,14,14,14,14,15,103,104,105,7,8,8,8,8,8,8,8,8,8,
8,9,106,61,63,124,101,101,101,101,116,104,115,101,101,101,101,101,101,116,104,105,7,8,8,8,8,8,8,8,8,8,
8,9,112,101,101,108,1,2,2,3,109,122,111,1,2,2,2,2,3,109,122,111,7,8,8,8,8,8,8,8,8,8,
8,37,2,2,2,2,38,8,8,37,3,106,1,38,8,8,8,8,37,3,106,1,38,8,8,8,8,8,8,8,8,8,
8,8,8,8,8,8,8,8,8,8,9,106,7,8,8,8,8,8,8,9,106,7,8,8,8,8,8,8,8,8,8,8,
8,8,8,8,8,8,8,8,8,8,9,106,7,8,8,8,8,8,8,9,106,7,8,8,8,8,8,8,8,8,8,8,
8,8,8,8,8,8,8,8,8,8,9,106,7,8,8,8,8,8,8,9,106,7,8,8,8,31,14,14,14,14,32,8,
8,8,8,8,8,8,8,8,8,31,15,106,13,14,32,8,8,31,14,15,106,13,32,8,8,9,97,98,98,99,7,8,
8,8,8,8,8,8,8,8,8,9,97,121,98,99,13,14,14,15,97,98,121,99,13,14,14,15,103,104,104,105,7,8,
8,8,8,8,8,8,8,8,8,9,103,104,104,115,101,101,101,101,116,104,104,115,101,101,101,101,138,110,110,111,7,8,
8,8,8,8,8,8,8,8,8,9,109,110,110,111,1,2,2,3,109,110,110,111,1,2,2,2,2,2,2,2,38,8,
8,8,8,8,8,8,8,8,8,37,2,2,2,2,38,8,8,37,2,2,2,2,38,8,8,8,8,8,8,8,8,8,
8,8,8,8,8,8,8,8,8,8,8,8,8,8,8,8,8,8,8,8,8,8,8,8,8,8,8,8,8,8,8,8
  </data>
 </layer>
</map>
