{
 "type": "map",
 "version": "1.10",
 "tiledversion": "1.11.0",
 "orientation": "orthogonal",
 "renderorder": "right-down",
 "width": 43,
 "height": 21,
 "tilewidth": 24,
 "tileheight": 24,
 "infinite": false,
 "nextlayerid": 2,
 "nextobjectid": 1,
 "tilesets": [
  {
   "firstgid": 1,
   "source": "PLAGE_CV2_BRINE.tsx"
  }
 ],
 "layers": [
  {
   "id": 1,
   "name": "New Layer",
   "type": "tilelayer",
   "visible": true,
   "opacity": 1,
   "x": 0,
   "y": 0,
   "width": 43,
   "height": 21,
   "data": [
    1,
    2,
    3,
    4,
    5,
    6,
    7,
    8,
    9,
    10,
    11,
    12,
    13,
    14,
    15,
    16,
    17,
    18,
    19,
    20,
    21,
    22,
    23,
    24,
    25,
    26,
    27,
    20,
    21,
    22,
    23,
    24,
    25,
    26,
    27,
    20,
    21,
    22,
    23,
    24,
    25,
    26,
    27,
    406,
    407,
    408,
    409,
    410,
    411,
    412,
    413,
    414,
    415,
    416,
    417,
    418,
    419,
    420,
    421,
    422,
    423,
    424,
    425,
    426,
    427,
    428,
    429,
    430,
    431,
    432,
    425,
    426,
    427,
    428,
    429,
    430,
    431,
    432,
    425,
    426,
    427,
    428,
    429,
    430,
    431,
    432,
    811,
    812,
    813,
    814,
    815,
    816,
    817,
    818,
    819,
    820,
    821,
    822,
    823,
    824,
    825,
    826,
    827,
    828,
    829,
    830,
    831,
    832,
    833,
    834,
    835,
    836,
    837,
    830,
    831,
    832,
    833,
    834,
    835,
    836,
    837,
    830,
    831,
    832,
    833,
    834,
    835,
    836,
    837,
    1216,
    1217,
    1218,
    1219,
    1220,
    1221,
    1222,
    1223,
    1224,
    1225,
    1226,
    1227,
    1228,
    1229,
    1230,
    1231,
    1232,
    1233,
    1234,
    1235,
    1236,
    1237,
    1238,
    1239,
    1240,
    1241,
    1242,
    1235,
    1236,
    1237,
    1238,
    1239,
    1240,
    1241,
    1242,
    1235,
    1236,
    1237,
    1238,
    1239,
    1240,
    1241,
    1242,
    1621,
    1622,
    1623,
    1624,
    1625,
    1626,
    1627,
    1628,
    1629,
    1630,
    1631,
    1632,
    1633,
    1634,
    1635,
    1636,
    1637,
    1638,
    1639,
    1640,
    1641,
    1642,
    1643,
    1644,
    1645,
    1646,
    1647,
    1640,
    1641,
    1642,
    1643,
    1644,
    1645,
    1646,
    1647,
    1640,
    1641,
    1642,
    1643,
    1644,
    1645,
    1646,
    1647,
    2026,
    2027,
    2028,
    2029,
    2030,
    2031,
    2032,
    2033,
    2034,
    2035,
    2036,
    2037,
    2038,
    2039,
    2040,
    2041,
    2042,
    2043,
    2044,
    2045,
    2046,
    2047,
    2048,
    2049,
    2050,
    2051,
    2052,
    2045,
    2046,
    2047,
    2048,
    2049,
    2050,
    2051,
    2052,
    2045,
    2046,
    2047,
    2048,
    2049,
    2050,
    2051,
    2052,
    2431,
    2432,
    2433,
    2434,
    2435,
    2436,
    2437,
    2438,
    2439,
    2440,
    2441,
    2442,
    2443,
    2444,
    2445,
    2446,
    2447,
    2448,
    2449,
    2450,
    2451,
    2452,
    2453,
    2454,
    2455,
    2456,
    2457,
    2450,
    2451,
    2452,
    2453,
    2454,
    2455,
    2456,
    2457,
    2450,
    2451,
    2452,
    2453,
    2454,
    2455,
    2456,
    2457,
    2836,
    2837,
    2838,
    2839,
    2840,
    2841,
    2842,
    2843,
    2844,
    2845,
    2846,
    2847,
    2848,
    2849,
    2850,
    2851,
    2852,
    2853,
    2854,
    2855,
    2856,
    2857,
    2858,
    2859,
    2860,
    2861,
    2862,
    2855,
    2856,
    2857,
    2858,
    2859,
    2860,
    2861,
    2862,
    2855,
    2856,
    2857,
    2858,
    2859,
    2860,
    2861,
    2862,
    3241,
    3242,
    3243,
    3244,
    3245,
    3246,
    3247,
    3248,
    3249,
    3250,
    3251,
    3252,
    3253,
    3254,
    3255,
    3256,
    3257,
    3258,
    3259,
    3260,
    3261,
    3262,
    3263,
    3264,
    3265,
    3266,
    3267,
    3260,
    3261,
    3262,
    3263,
    3264,
    3265,
    3266,
    3267,
    3260,
    3261,
    3262,
    3263,
    3264,
    3265,
    3266,
    3267,
    3646,
    3647,
    3648,
    3649,
    3650,
    3651,
    3652,
    3653,
    3654,
    3655,
    3656,
    3657,
    3658,
    3659,
    3660,
    3661,
    3662,
    3663,
    3664,
    3665,
    3666,
    3667,
    3668,
    3669,
    3670,
    3671,
    3672,
    3665,
    3666,
    3667,
    3668,
    3669,
    3670,
    3671,
    3672,
    3665,
    3666,
    3667,
    3668,
    3669,
    3670,
    3671,
    3672,
    4051,
    4052,
    4053,
    4054,
    4055,
    4056,
    4057,
    4058,
    4059,
    4060,
    4061,
    4062,
    4063,
    4064,
    4065,
    4066,
    4067,
    4068,
    4069,
    4070,
    4071,
    4072,
    4073,
    4074,
    4075,
    4076,
    4077,
    4070,
    4071,
    4072,
    4073,
    4074,
    4075,
    4076,
    4077,
    4070,
    4071,
    4072,
    4073,
    4074,
    4075,
    4076,
    4077,
    4456,
    4457,
    4458,
    4459,
    4460,
    4461,
    4462,
    4463,
    4464,
    4465,
    4466,
    4467,
    4468,
    4469,
    4470,
    4471,
    4472,
    4473,
    4474,
    4475,
    4476,
    4477,
    4478,
    4479,
    4480,
    4481,
    4482,
    4475,
    4476,
    4477,
    4478,
    4479,
    4480,
    4481,
    4482,
    4475,
    4476,
    4477,
    4478,
    4479,
    4480,
    4481,
    4482,
    4861,
    4862,
    4863,
    4864,
    4865,
    4866,
    4867,
    4868,
    4869,
    4870,
    4871,
    4872,
    4873,
    4874,
    4875,
    4876,
    4877,
    4878,
    4879,
    4880,
    4881,
    4882,
    4883,
    4884,
    4885,
    4885,
    4885,
    4880,
    4881,
    4882,
    4883,
    4884,
    4885,
    4885,
    4885,
    4880,
    4881,
    4882,
    4883,
    4884,
    4885,
    4885,
    4885,
    5266,
    5267,
    5268,
    5269,
    5270,
    5271,
    5272,
    5273,
    5274,
    5275,
    5276,
    5277,
    5278,
    5279,
    5280,
    5281,
    5282,
    5283,
    5284,
    5285,
    5286,
    5287,
    5288,
    5289,
    5290,
    5290,
    5290,
    5285,
    5286,
    5287,
    5288,
    5289,
    5290,
    5290,
    5290,
    5285,
    5286,
    5287,
    5288,
    5289,
    5290,
    5290,
    5290,
    5671,
    5672,
    5673,
    5674,
    5675,
    5676,
    5677,
    5678,
    5679,
    5680,
    5681,
    5682,
    5683,
    5684,
    5685,
    5686,
    5687,
    5688,
    5689,
    5690,
    5691,
    5692,
    5693,
    5694,
    5695,
    5696,
    5697,
    5690,
    5691,
    5692,
    5693,
    5694,
    5695,
    5696,
    5697,
    5690,
    5691,
    5692,
    5693,
    5694,
    5695,
    5696,
    5697,
    6076,
    6077,
    6078,
    6079,
    6080,
    6081,
    6082,
    6083,
    6084,
    6085,
    6086,
    6087,
    6088,
    6089,
    6090,
    6091,
    6092,
    6093,
    6094,
    6095,
    6096,
    6097,
    6098,
    6099,
    6100,
    6101,
    6102,
    6095,
    6096,
    6097,
    6098,
    6099,
    6100,
    6101,
    6102,
    6095,
    6096,
    6097,
    6098,
    6099,
    6100,
    6101,
    6102,
    6481,
    6482,
    6483,
    6484,
    6485,
    6486,
    6487,
    6488,
    6489,
    6490,
    6491,
    6492,
    6493,
    6494,
    6495,
    6496,
    6497,
    6498,
    6499,
    6500,
    6501,
    6502,
    6503,
    6504,
    6505,
    6506,
    6507,
    6500,
    6501,
    6502,
    6503,
    6504,
    6505,
    6506,
    6507,
    6500,
    6501,
    6502,
    6503,
    6504,
    6505,
    6506,
    6507,
    6886,
    6887,
    6888,
    6889,
    6890,
    6891,
    6892,
    6893,
    6894,
    6895,
    6896,
    6897,
    6898,
    6899,
    6900,
    6901,
    6902,
    6903,
    6904,
    6905,
    6906,
    6907,
    6908,
    6909,
    6910,
    6911,
    6912,
    6905,
    6906,
    6907,
    6908,
    6909,
    6910,
    6911,
    6912,
    6905,
    6906,
    6907,
    6908,
    6909,
    6910,
    6911,
    6912,
    7291,
    7292,
    7293,
    7294,
    7295,
    7296,
    7297,
    7298,
    7299,
    7300,
    7301,
    7302,
    7303,
    7304,
    7305,
    7306,
    7307,
    7308,
    7309,
    7310,
    7311,
    7312,
    7313,
    7314,
    7315,
    7316,
    7317,
    7310,
    7311,
    7312,
    7313,
    7314,
    7315,
    7316,
    7317,
    7310,
    7311,
    7312,
    7313,
    7314,
    7315,
    7316,
    7317,
    7696,
    7697,
    7698,
    7699,
    7700,
    7701,
    7702,
    7703,
    7704,
    7705,
    7706,
    7707,
    7708,
    7709,
    7710,
    7711,
    7712,
    7713,
    7714,
    7715,
    7716,
    7717,
    7718,
    7719,
    7720,
    7721,
    7722,
    7715,
    7716,
    7717,
    7718,
    7719,
    7720,
    7721,
    7722,
    7715,
    7716,
    7717,
    7718,
    7719,
    7720,
    7721,
    7722,
    8101,
    8102,
    8103,
    8104,
    8105,
    8106,
    8107,
    8108,
    8109,
    8110,
    8111,
    8112,
    8113,
    8114,
    8115,
    8116,
    8117,
    8118,
    8119,
    8120,
    8121,
    8122,
    8123,
    8124,
    8125,
    8126,
    8127,
    8120,
    8121,
    8122,
    8123,
    8124,
    8125,
    8126,
    8127,
    8120,
    8121,
    8122,
    8123,
    8124,
    8125,
    8126,
    8127
   ]
  }
 ]
}