<?xml version="1.0" encoding="UTF-8"?>
<map version="1.10" orientation="orthogonal" renderorder="right-down" width="24" height="14" tilewidth="24" tileheight="24">
 <tileset firstgid="1" source="village_sol.tsx"/>
 <layer id="1" name="terrain" width="24" height="14">
  <data encoding="csv">
1,1,1,1,1,1,1,1,1,1,1,1,1,1,1,1,1,1,1,1,1,1,1,1,
1,1,1,1,1,1,1,1,1,1,1,1,1,1,1,1,1,1,1,1,1,1,1,1,
1,1,1,1,1,1,1,1,1,1,1,1,1,1,1,1,1,1,1,1,1,1,1,1,
1,1,1,1,1,1,1,1,1,1,1,1,1,1,1,1,1,1,1,1,1,1,1,1,
1,1,1,1,1,1,1,1,1,1,1,1,1,1,1,1,1,1,1,1,1,1,1,1,
1,1,1,1,1,1,1,1,1,1,1,1,1,1,1,1,1,1,1,1,1,1,1,1,
2,2,2,2,2,2,2,2,2,2,2,2,2,2,2,2,2,2,2,2,2,2,2,2,
2,2,2,2,2,2,2,2,2,2,2,2,2,2,2,2,2,2,2,2,2,2,2,2,
1,1,1,1,1,1,1,1,1,1,1,1,1,1,1,1,1,1,1,1,1,1,1,1,
1,1,1,1,1,1,1,1,1,1,1,1,1,1,1,1,1,1,1,1,1,1,1,1,
1,1,1,1,1,1,1,1,1,1,1,1,1,1,1,1,1,1,1,1,1,1,1,1,
1,1,1,1,1,1,1,1,1,1,1,1,1,1,1,1,1,1,1,1,1,1,1,1,
1,1,1,1,1,1,1,1,1,1,1,1,1,1,1,1,1,1,1,1,1,1,1,1,
1,1,1,1,1,1,1,1,1,1,1,1,1,1,1,1,1,1,1,1,1,1,1,1
  </data>
 </layer>
 <objectgroup id="2" name="structures">
  <object id="1" name="guilde_qg" x="216" y="0" width="168" height="120">
   <image source="../individuels/StructureTT_guilde_qg.png" width="168" height="120"/>
  </object>
  <object id="2" name="kecleon_boutique" x="24" y="48" width="144" height="120">
   <image source="../individuels/StructureTT_kecleon_boutique.png" width="144" height="120"/>
  </object>
  <object id="3" name="kangaskhan_reserve" x="144" y="48" width="144" height="144">
   <image source="../individuels/StructureTT_kangaskhan_reserve.png" width="144" height="144"/>
  </object>
  <object id="4" name="duskull_banque" x="384" y="48" width="144" height="144">
   <image source="../individuels/StructureTT_duskull_banque.png" width="144" height="144"/>
  </object>
  <object id="5" name="xatu_expertise" x="48" y="216" width="144" height="120">
   <image source="../individuels/StructureTT_xatu_expertise.png" width="144" height="120"/>
  </object>
  <object id="6" name="electivire_liaison" x="360" y="216" width="168" height="96">
   <image source="../individuels/StructureTT_electivire_liaison.png" width="168" height="96"/>
  </object>
  <object id="7" name="marowak_dojo" x="240" y="216" width="120" height="96">
   <image source="../individuels/StructureTT_marowak_dojo.png" width="120" height="96"/>
  </object>
 </objectgroup>
</map>
