{"type":"map","version":"1.10","tiledversion":"1.11.0","orientation":"orthogonal","renderorder":"right-down","tilewidth":8,"tileheight":8,"width":64,"height":40,"infinite":false,"nextlayerid":8,"nextobjectid":3,"layers":[{"id":1,"name":"Ciel et arrière-plan","visible":true,"opacity":1,"x":0,"y":0,"type":"imagelayer","image":"../calques/nuit/00_fond.png"},{"id":2,"name":"Lune fixe et étoiles nocturnes","visible":true,"opacity":1,"x":0,"y":0,"type":"objectgroup","draworder":"index","objects":[{"id":1,"name":"Lune fixe et étoiles nocturnes","type":"","gid":1,"x":0,"y":146,"width":512,"height":146,"rotation":0,"visible":true}]},{"id":3,"name":"Eau — fond","visible":true,"opacity":1,"x":0,"y":0,"type":"imagelayer","image":"../calques/nuit/02_eau.png"},{"id":4,"name":"Reflets et cascades — overlay","visible":true,"opacity":1,"x":0,"y":0,"type":"objectgroup","draworder":"index","objects":[{"id":2,"name":"Reflets et cascades — overlay","type":"","gid":25,"x":0,"y":273,"width":512,"height":125,"rotation":0,"visible":true}]},{"id":5,"name":"Terrain et végétation naturels","visible":true,"opacity":1,"x":0,"y":0,"type":"imagelayer","image":"../calques/nuit/04_terrain.png"},{"id":6,"name":"Structures — calque vide","visible":true,"opacity":1,"x":0,"y":0,"type":"imagelayer","image":"../calques/nuit/05_decor.png"},{"id":7,"name":"Repères — pas des collisions intégrées","type":"objectgroup","visible":false,"opacity":1,"x":0,"y":0,"draworder":"index","objects":[]}],"tilesets":[{"firstgid":1,"name":"etoiles_nuit","tilewidth":512,"tileheight":146,"tilecount":24,"columns":8,"margin":0,"spacing":0,"objectalignment":"bottomleft","image":"../animations/etoiles_nuit.png","imagewidth":4096,"imageheight":438,"tiles":[{"id":0,"animation":[{"tileid":0,"duration":250},{"tileid":1,"duration":250},{"tileid":2,"duration":250},{"tileid":3,"duration":250},{"tileid":4,"duration":250},{"tileid":5,"duration":250},{"tileid":6,"duration":250},{"tileid":7,"duration":250},{"tileid":8,"duration":250},{"tileid":9,"duration":250},{"tileid":10,"duration":250},{"tileid":11,"duration":250},{"tileid":12,"duration":250},{"tileid":13,"duration":250},{"tileid":14,"duration":250},{"tileid":15,"duration":250},{"tileid":16,"duration":250},{"tileid":17,"duration":250},{"tileid":18,"duration":250},{"tileid":19,"duration":250},{"tileid":20,"duration":250},{"tileid":21,"duration":250},{"tileid":22,"duration":250},{"tileid":23,"duration":250}]}]},{"firstgid":25,"name":"reflets_nuit","tilewidth":512,"tileheight":125,"tilecount":24,"columns":8,"margin":0,"spacing":0,"objectalignment":"bottomleft","image":"../animations/reflets_nuit.png","imagewidth":4096,"imageheight":375,"tiles":[{"id":0,"animation":[{"tileid":0,"duration":250},{"tileid":1,"duration":250},{"tileid":2,"duration":250},{"tileid":3,"duration":250},{"tileid":4,"duration":250},{"tileid":5,"duration":250},{"tileid":6,"duration":250},{"tileid":7,"duration":250},{"tileid":8,"duration":250},{"tileid":9,"duration":250},{"tileid":10,"duration":250},{"tileid":11,"duration":250},{"tileid":12,"duration":250},{"tileid":13,"duration":250},{"tileid":14,"duration":250},{"tileid":15,"duration":250},{"tileid":16,"duration":250},{"tileid":17,"duration":250},{"tileid":18,"duration":250},{"tileid":19,"duration":250},{"tileid":20,"duration":250},{"tileid":21,"duration":250},{"tileid":22,"duration":250},{"tileid":23,"duration":250}]}]}]}