{
  "type": "map",
  "version": "1.10",
  "orientation": "orthogonal",
  "renderorder": "right-down",
  "infinite": false,
  "tilewidth": 32,
  "tileheight": 32,
  "width": 10,
  "height": 14,
  "nextlayerid": 14,
  "nextobjectid": 42,
  "layers": [
    {
      "id": 1,
      "name": "00_fond_immersion",
      "visible": true,
      "opacity": 1,
      "properties": [
        {
          "name": "role",
          "type": "string",
          "value": "Fond d’immersion"
        }
      ],
      "type": "tilelayer",
      "width": 10,
      "height": 14,
      "x": 0,
      "y": 0,
      "data": [
        1,
        1,
        1,
        1,
        0,
        0,
        0,
        1,
        1,
        1,
        1,
        1,
        1,
        1,
        0,
        0,
        0,
        1,
        1,
        1,
        1,
        1,
        1,
        1,
        0,
        0,
        0,
        1,
        1,
        1,
        1,
        1,
        1,
        1,
        0,
        0,
        0,
        1,
        1,
        1,
        1,
        1,
        1,
        2,
        0,
        0,
        0,
        3,
        1,
        1,
        1,
        1,
        1,
        0,
        0,
        0,
        0,
        0,
        1,
        1,
        1,
        1,
        1,
        0,
        0,
        0,
        0,
        0,
        1,
        1,
        1,
        1,
        1,
        0,
        0,
        0,
        0,
        0,
        1,
        1,
        1,
        1,
        1,
        0,
        0,
        0,
        0,
        0,
        1,
        1,
        1,
        1,
        1,
        4,
        0,
        0,
        0,
        5,
        1,
        1,
        1,
        1,
        1,
        1,
        0,
        0,
        0,
        1,
        1,
        1,
        1,
        1,
        1,
        1,
        0,
        0,
        0,
        1,
        1,
        1,
        1,
        1,
        1,
        1,
        0,
        0,
        0,
        1,
        1,
        1,
        1,
        1,
        1,
        1,
        0,
        0,
        0,
        1,
        1,
        1
      ]
    },
    {
      "id": 2,
      "name": "01_soubassement",
      "visible": true,
      "opacity": 1,
      "properties": [
        {
          "name": "role",
          "type": "string",
          "value": "Soubassement d’écorce"
        }
      ],
      "type": "tilelayer",
      "width": 10,
      "height": 14,
      "x": 0,
      "y": 0,
      "data": [
        0,
        0,
        0,
        65,
        0,
        0,
        0,
        66,
        0,
        0,
        0,
        0,
        0,
        67,
        0,
        0,
        0,
        68,
        0,
        0,
        0,
        0,
        0,
        69,
        0,
        0,
        0,
        70,
        0,
        0,
        0,
        0,
        0,
        71,
        0,
        0,
        0,
        72,
        0,
        0,
        0,
        0,
        73,
        74,
        0,
        0,
        0,
        75,
        76,
        0,
        0,
        0,
        77,
        0,
        0,
        0,
        0,
        0,
        78,
        0,
        0,
        0,
        79,
        0,
        0,
        0,
        0,
        0,
        80,
        0,
        0,
        0,
        81,
        0,
        0,
        0,
        0,
        0,
        82,
        0,
        0,
        0,
        83,
        0,
        0,
        0,
        0,
        0,
        84,
        0,
        0,
        0,
        85,
        86,
        0,
        0,
        0,
        87,
        88,
        0,
        0,
        0,
        0,
        89,
        0,
        0,
        0,
        90,
        0,
        0,
        0,
        0,
        0,
        91,
        0,
        0,
        0,
        92,
        0,
        0,
        0,
        0,
        0,
        93,
        0,
        0,
        0,
        94,
        0,
        0,
        0,
        0,
        0,
        95,
        0,
        0,
        0,
        96,
        0,
        0
      ]
    },
    {
      "id": 3,
      "name": "02_feuillage_arriere",
      "visible": true,
      "opacity": 1,
      "properties": [
        {
          "name": "role",
          "type": "string",
          "value": "Feuillage arrière"
        }
      ],
      "type": "objectgroup",
      "draworder": "index",
      "objects": [
        {
          "id": 1,
          "name": "canopée_1",
          "gid": 369,
          "x": 216,
          "y": 93,
          "width": 64,
          "height": 36,
          "rotation": 0,
          "visible": true
        },
        {
          "id": 2,
          "name": "canopée_2",
          "gid": 370,
          "x": 245,
          "y": 165,
          "width": 58,
          "height": 43,
          "rotation": 0,
          "visible": true
        },
        {
          "id": 3,
          "name": "canopée_3",
          "gid": 371,
          "x": 245,
          "y": 229,
          "width": 58,
          "height": 43,
          "rotation": 0,
          "visible": true
        },
        {
          "id": 4,
          "name": "canopée_0",
          "gid": 374,
          "x": 210,
          "y": 325,
          "width": 64,
          "height": 36,
          "rotation": 0,
          "visible": true
        },
        {
          "id": 5,
          "name": "canopée_1",
          "gid": 369,
          "x": 210,
          "y": 389,
          "width": 64,
          "height": 36,
          "rotation": 0,
          "visible": true
        },
        {
          "id": 6,
          "name": "canopée_1",
          "gid": 369,
          "x": 78,
          "y": 389,
          "width": 64,
          "height": 36,
          "rotation": 0,
          "visible": true
        },
        {
          "id": 7,
          "name": "canopée_2",
          "gid": 370,
          "x": 81,
          "y": 325,
          "width": 58,
          "height": 43,
          "rotation": 0,
          "visible": true
        },
        {
          "id": 8,
          "name": "canopée_3",
          "gid": 371,
          "x": 49,
          "y": 229,
          "width": 58,
          "height": 43,
          "rotation": 0,
          "visible": true
        },
        {
          "id": 9,
          "name": "canopée_0",
          "gid": 374,
          "x": 46,
          "y": 165,
          "width": 64,
          "height": 36,
          "rotation": 0,
          "visible": true
        },
        {
          "id": 10,
          "name": "canopée_0",
          "gid": 374,
          "x": 72,
          "y": 93,
          "width": 64,
          "height": 36,
          "rotation": 0,
          "visible": true
        }
      ]
    },
    {
      "id": 4,
      "name": "03_parquet",
      "visible": true,
      "opacity": 1,
      "properties": [
        {
          "name": "role",
          "type": "string",
          "value": "Parquet"
        }
      ],
      "type": "tilelayer",
      "width": 10,
      "height": 14,
      "x": 0,
      "y": 0,
      "data": [
        0,
        0,
        0,
        0,
        388,
        389,
        390,
        0,
        0,
        0,
        0,
        0,
        0,
        0,
        385,
        386,
        387,
        0,
        0,
        0,
        0,
        0,
        0,
        0,
        394,
        395,
        396,
        0,
        0,
        0,
        0,
        0,
        0,
        0,
        382,
        383,
        393,
        0,
        0,
        0,
        0,
        0,
        0,
        399,
        392,
        380,
        381,
        400,
        0,
        0,
        0,
        0,
        0,
        388,
        389,
        390,
        391,
        392,
        0,
        0,
        0,
        0,
        0,
        385,
        386,
        387,
        388,
        389,
        0,
        0,
        0,
        0,
        0,
        394,
        395,
        396,
        385,
        386,
        0,
        0,
        0,
        0,
        0,
        382,
        383,
        393,
        394,
        395,
        0,
        0,
        0,
        0,
        0,
        401,
        380,
        381,
        382,
        402,
        0,
        0,
        0,
        0,
        0,
        0,
        390,
        391,
        392,
        0,
        0,
        0,
        0,
        0,
        0,
        0,
        387,
        388,
        389,
        0,
        0,
        0,
        0,
        0,
        0,
        0,
        396,
        385,
        386,
        0,
        0,
        0,
        0,
        0,
        0,
        0,
        393,
        394,
        395,
        0,
        0,
        0
      ]
    },
    {
      "id": 5,
      "name": "04_murs_fond",
      "visible": true,
      "opacity": 1,
      "properties": [
        {
          "name": "role",
          "type": "string",
          "value": "Panneaux du fond"
        }
      ],
      "type": "objectgroup",
      "draworder": "index",
      "objects": []
    },
    {
      "id": 6,
      "name": "05_murs_retours",
      "visible": true,
      "opacity": 1,
      "properties": [
        {
          "name": "role",
          "type": "string",
          "value": "Murs de retour"
        }
      ],
      "type": "objectgroup",
      "draworder": "index",
      "objects": [
        {
          "id": 11,
          "name": "murs_retours_0_64",
          "gid": 486,
          "x": 221,
          "y": 69,
          "width": 32,
          "height": 112,
          "rotation": 0,
          "visible": true
        },
        {
          "id": 12,
          "name": "murs_retours_0_64",
          "gid": 486,
          "x": 221,
          "y": 133,
          "width": 32,
          "height": 112,
          "rotation": 0,
          "visible": true
        },
        {
          "id": 13,
          "name": "murs_fond_32_32",
          "gid": 481,
          "x": 221,
          "y": 165,
          "width": 48,
          "height": 104,
          "rotation": 0,
          "visible": true
        },
        {
          "id": 14,
          "name": "murs_retours_0_64",
          "gid": 486,
          "x": 253,
          "y": 229,
          "width": 32,
          "height": 112,
          "rotation": 0,
          "visible": true
        },
        {
          "id": 15,
          "name": "murs_retours_0_64",
          "gid": 486,
          "x": 253,
          "y": 293,
          "width": 32,
          "height": 112,
          "rotation": 0,
          "visible": true
        },
        {
          "id": 16,
          "name": "murs_retours_0_64",
          "gid": 487,
          "x": 221,
          "y": 389,
          "width": 32,
          "height": 112,
          "rotation": 0,
          "visible": true
        },
        {
          "id": 17,
          "name": "murs_retours_0_64",
          "gid": 486,
          "x": 221,
          "y": 453,
          "width": 32,
          "height": 112,
          "rotation": 0,
          "visible": true
        },
        {
          "id": 18,
          "name": "murs_retours_0_-64",
          "gid": 488,
          "x": 107,
          "y": 453,
          "width": 32,
          "height": 112,
          "rotation": 0,
          "visible": true
        },
        {
          "id": 19,
          "name": "murs_retours_0_-64",
          "gid": 489,
          "x": 107,
          "y": 389,
          "width": 32,
          "height": 112,
          "rotation": 0,
          "visible": true
        },
        {
          "id": 20,
          "name": "murs_retours_0_-64",
          "gid": 488,
          "x": 75,
          "y": 293,
          "width": 32,
          "height": 112,
          "rotation": 0,
          "visible": true
        },
        {
          "id": 21,
          "name": "murs_retours_0_-64",
          "gid": 488,
          "x": 75,
          "y": 229,
          "width": 32,
          "height": 112,
          "rotation": 0,
          "visible": true
        },
        {
          "id": 22,
          "name": "murs_fond_32_-32",
          "gid": 480,
          "x": 85,
          "y": 165,
          "width": 48,
          "height": 104,
          "rotation": 0,
          "visible": true
        },
        {
          "id": 23,
          "name": "murs_retours_0_-64",
          "gid": 488,
          "x": 107,
          "y": 133,
          "width": 32,
          "height": 112,
          "rotation": 0,
          "visible": true
        },
        {
          "id": 24,
          "name": "murs_retours_0_-64",
          "gid": 488,
          "x": 107,
          "y": 69,
          "width": 32,
          "height": 112,
          "rotation": 0,
          "visible": true
        },
        {
          "id": 25,
          "name": "joint_de_panneaux",
          "gid": 490,
          "x": 222,
          "y": 134,
          "width": 24,
          "height": 72,
          "rotation": 0,
          "visible": true
        },
        {
          "id": 26,
          "name": "joint_de_panneaux",
          "gid": 491,
          "x": 254,
          "y": 166,
          "width": 24,
          "height": 72,
          "rotation": 0,
          "visible": true
        },
        {
          "id": 27,
          "name": "joint_de_panneaux",
          "gid": 492,
          "x": 76,
          "y": 166,
          "width": 24,
          "height": 72,
          "rotation": 0,
          "visible": true
        },
        {
          "id": 28,
          "name": "joint_de_panneaux",
          "gid": 493,
          "x": 108,
          "y": 134,
          "width": 24,
          "height": 72,
          "rotation": 0,
          "visible": true
        }
      ]
    },
    {
      "id": 7,
      "name": "06_ombres_contact",
      "visible": true,
      "opacity": 1,
      "properties": [
        {
          "name": "role",
          "type": "string",
          "value": "Ombres de contact"
        }
      ],
      "type": "tilelayer",
      "width": 10,
      "height": 14,
      "x": 0,
      "y": 0,
      "data": [
        0,
        0,
        0,
        0,
        527,
        0,
        528,
        0,
        0,
        0,
        0,
        0,
        0,
        0,
        527,
        0,
        528,
        0,
        0,
        0,
        0,
        0,
        0,
        0,
        527,
        0,
        528,
        0,
        0,
        0,
        0,
        0,
        0,
        0,
        529,
        0,
        530,
        0,
        0,
        0,
        0,
        0,
        0,
        513,
        531,
        0,
        532,
        517,
        0,
        0,
        0,
        0,
        0,
        533,
        0,
        0,
        0,
        534,
        0,
        0,
        0,
        0,
        0,
        527,
        0,
        0,
        0,
        528,
        0,
        0,
        0,
        0,
        0,
        527,
        0,
        0,
        0,
        528,
        0,
        0,
        0,
        0,
        0,
        527,
        0,
        0,
        0,
        528,
        0,
        0,
        0,
        0,
        0,
        535,
        536,
        0,
        537,
        538,
        0,
        0,
        0,
        0,
        0,
        0,
        527,
        0,
        528,
        0,
        0,
        0,
        0,
        0,
        0,
        0,
        527,
        0,
        528,
        0,
        0,
        0,
        0,
        0,
        0,
        0,
        527,
        0,
        528,
        0,
        0,
        0,
        0,
        0,
        0,
        0,
        527,
        0,
        528,
        0,
        0,
        0
      ]
    },
    {
      "id": 8,
      "name": "07_reflets_seuils",
      "visible": true,
      "opacity": 1,
      "properties": [
        {
          "name": "role",
          "type": "string",
          "value": "Reflets des seuils"
        }
      ],
      "type": "tilelayer",
      "width": 10,
      "height": 14,
      "x": 0,
      "y": 0,
      "data": [
        0,
        0,
        0,
        0,
        597,
        0,
        598,
        0,
        0,
        0,
        0,
        0,
        0,
        0,
        0,
        0,
        0,
        0,
        0,
        0,
        0,
        0,
        0,
        0,
        0,
        0,
        0,
        0,
        0,
        0,
        0,
        0,
        0,
        0,
        0,
        0,
        0,
        0,
        0,
        0,
        0,
        0,
        0,
        0,
        0,
        0,
        0,
        0,
        0,
        0,
        0,
        0,
        0,
        0,
        0,
        0,
        0,
        0,
        0,
        0,
        0,
        0,
        0,
        0,
        0,
        0,
        0,
        0,
        0,
        0,
        0,
        0,
        0,
        0,
        0,
        0,
        0,
        0,
        0,
        0,
        0,
        0,
        0,
        0,
        0,
        0,
        0,
        0,
        0,
        0,
        0,
        0,
        0,
        0,
        0,
        0,
        0,
        0,
        0,
        0,
        0,
        0,
        0,
        0,
        0,
        0,
        0,
        0,
        0,
        0,
        0,
        0,
        0,
        0,
        0,
        0,
        0,
        0,
        0,
        0,
        0,
        0,
        0,
        0,
        0,
        0,
        0,
        0,
        0,
        0,
        0,
        0,
        0,
        0,
        599,
        0,
        600,
        0,
        0,
        0
      ]
    },
    {
      "id": 9,
      "name": "08_spirales",
      "visible": true,
      "opacity": 1,
      "properties": [
        {
          "name": "role",
          "type": "string",
          "value": "Traces spiralées"
        }
      ],
      "type": "objectgroup",
      "draworder": "index",
      "objects": []
    },
    {
      "id": 10,
      "name": "09_ombres_objets",
      "visible": true,
      "opacity": 1,
      "properties": [
        {
          "name": "role",
          "type": "string",
          "value": "Ombres des objets"
        }
      ],
      "type": "objectgroup",
      "draworder": "index",
      "objects": []
    },
    {
      "id": 11,
      "name": "10_objets",
      "visible": true,
      "opacity": 1,
      "properties": [
        {
          "name": "role",
          "type": "string",
          "value": "Objets et tentures"
        }
      ],
      "type": "objectgroup",
      "draworder": "index",
      "objects": []
    },
    {
      "id": 12,
      "name": "11_ecorce_racines_avant",
      "visible": true,
      "opacity": 1,
      "properties": [
        {
          "name": "role",
          "type": "string",
          "value": "Écorce et racines avant"
        }
      ],
      "type": "tilelayer",
      "width": 10,
      "height": 14,
      "x": 0,
      "y": 0,
      "data": [
        0,
        0,
        0,
        621,
        0,
        0,
        0,
        622,
        623,
        0,
        0,
        0,
        624,
        625,
        0,
        0,
        0,
        626,
        0,
        0,
        0,
        0,
        0,
        627,
        0,
        0,
        0,
        628,
        629,
        0,
        0,
        0,
        630,
        631,
        0,
        0,
        0,
        632,
        633,
        0,
        0,
        0,
        634,
        0,
        0,
        0,
        0,
        0,
        635,
        0,
        0,
        0,
        636,
        0,
        0,
        0,
        0,
        0,
        637,
        623,
        0,
        624,
        638,
        0,
        0,
        0,
        0,
        0,
        639,
        0,
        0,
        0,
        640,
        0,
        0,
        0,
        0,
        0,
        641,
        629,
        0,
        630,
        642,
        0,
        0,
        0,
        0,
        0,
        643,
        633,
        0,
        0,
        644,
        645,
        0,
        0,
        0,
        646,
        647,
        0,
        0,
        0,
        648,
        649,
        0,
        0,
        0,
        650,
        651,
        0,
        0,
        0,
        624,
        652,
        0,
        0,
        0,
        653,
        0,
        0,
        0,
        0,
        0,
        654,
        0,
        0,
        0,
        655,
        629,
        0,
        0,
        0,
        630,
        656,
        0,
        0,
        0,
        657,
        633,
        0
      ]
    },
    {
      "id": 13,
      "name": "12_feuillage_avant",
      "visible": true,
      "opacity": 1,
      "properties": [
        {
          "name": "role",
          "type": "string",
          "value": "Feuillage de premier plan"
        }
      ],
      "type": "objectgroup",
      "draworder": "index",
      "objects": [
        {
          "id": 29,
          "name": "bordure_végétale_1",
          "gid": 369,
          "x": 214,
          "y": 102,
          "width": 64,
          "height": 36,
          "rotation": 0,
          "visible": true
        },
        {
          "id": 30,
          "name": "retombée_0",
          "gid": 375,
          "x": 252,
          "y": 264,
          "width": 45,
          "height": 54,
          "rotation": 0,
          "visible": true
        },
        {
          "id": 31,
          "name": "bordure_végétale_6",
          "gid": 376,
          "x": 250,
          "y": 213,
          "width": 39,
          "height": 54,
          "rotation": 0,
          "visible": true
        },
        {
          "id": 32,
          "name": "bordure_végétale_7",
          "gid": 377,
          "x": 250,
          "y": 271,
          "width": 39,
          "height": 54,
          "rotation": 0,
          "visible": true
        },
        {
          "id": 33,
          "name": "bordure_végétale_1",
          "gid": 369,
          "x": 216,
          "y": 334,
          "width": 64,
          "height": 36,
          "rotation": 0,
          "visible": true
        },
        {
          "id": 34,
          "name": "bordure_végétale_4",
          "gid": 378,
          "x": 216,
          "y": 373,
          "width": 45,
          "height": 54,
          "rotation": 0,
          "visible": true
        },
        {
          "id": 35,
          "name": "retombée_1",
          "gid": 374,
          "x": 78,
          "y": 342,
          "width": 64,
          "height": 36,
          "rotation": 0,
          "visible": true
        },
        {
          "id": 36,
          "name": "bordure_végétale_0",
          "gid": 374,
          "x": 74,
          "y": 382,
          "width": 64,
          "height": 36,
          "rotation": 0,
          "visible": true
        },
        {
          "id": 37,
          "name": "bordure_végétale_2",
          "gid": 370,
          "x": 71,
          "y": 333,
          "width": 58,
          "height": 43,
          "rotation": 0,
          "visible": true
        },
        {
          "id": 38,
          "name": "bordure_végétale_5",
          "gid": 375,
          "x": 60,
          "y": 289,
          "width": 45,
          "height": 54,
          "rotation": 0,
          "visible": true
        },
        {
          "id": 39,
          "name": "bordure_végétale_6",
          "gid": 376,
          "x": 62,
          "y": 231,
          "width": 39,
          "height": 54,
          "rotation": 0,
          "visible": true
        },
        {
          "id": 40,
          "name": "retombée_1",
          "gid": 378,
          "x": 88,
          "y": 104,
          "width": 45,
          "height": 54,
          "rotation": 0,
          "visible": true
        },
        {
          "id": 41,
          "name": "bordure_végétale_3",
          "gid": 371,
          "x": 85,
          "y": 123,
          "width": 58,
          "height": 43,
          "rotation": 0,
          "visible": true
        }
      ]
    }
  ],
  "tilesets": [
    {
      "firstgid": 1,
      "source": "../../tiled/hallways_fond_jour.tsj"
    },
    {
      "firstgid": 33,
      "source": "../../tiled/hallways_soubassement_jour.tsj"
    },
    {
      "firstgid": 369,
      "source": "../../tiled/hallways_vegetation_jour.tsj"
    },
    {
      "firstgid": 379,
      "source": "../../tiled/hallways_sol_decoupe_jour.tsj"
    },
    {
      "firstgid": 475,
      "source": "../../tiled/hallways_murs_fond_jour.tsj"
    },
    {
      "firstgid": 480,
      "source": "../../tiled/hallways_murs_retours_jour.tsj"
    },
    {
      "firstgid": 513,
      "source": "../../tiled/hallways_contacts_jour.tsj"
    },
    {
      "firstgid": 593,
      "source": "../../tiled/hallways_reflets_jour.tsj"
    },
    {
      "firstgid": 601,
      "source": "../../tiled/hallways_ecorce_avant_jour.tsj"
    },
    {
      "firstgid": 873,
      "source": "../../tiled/hallways_motifs_jour.tsj"
    },
    {
      "firstgid": 889,
      "source": "../../tiled/hallways_ombres_objets_jour.tsj"
    },
    {
      "firstgid": 909,
      "source": "../../tiled/hallways_objets_jour.tsj"
    }
  ],
  "properties": [
    {
      "name": "architecture",
      "type": "string",
      "value": "panneaux verticaux + bordures d’immersion"
    }
  ]
}
