{"type":"map","version":"1.10","tiledversion":"1.11.0","orientation":"orthogonal","renderorder":"right-down","tilewidth":8,"tileheight":8,"width":86,"height":48,"infinite":false,"nextlayerid":10,"nextobjectid":3,"layers":[{"id":1,"name":"Ciel et montagnes lointaines","visible":true,"opacity":1,"x":0,"y":0,"type":"imagelayer","image":"../calques/nuit/00_ciel.png"},{"id":2,"name":"Lune fixe et étoiles scintillantes","visible":true,"opacity":1,"x":0,"y":0,"type":"objectgroup","draworder":"index","objects":[{"id":1,"name":"Lune fixe et étoiles scintillantes","type":"","gid":1,"x":0,"y":32,"width":688,"height":28,"rotation":0,"visible":true}]},{"id":3,"name":"Nuages — défilement horizontal","visible":true,"opacity":1,"x":0,"y":0,"type":"imagelayer","image":"../calques/nuit/02_nuages.png"},{"id":4,"name":"Mer et profondeur","visible":true,"opacity":1,"x":0,"y":0,"type":"imagelayer","image":"../calques/nuit/03_mer_reflets.png"},{"id":5,"name":"Vagues et reflets — cycle léger","visible":true,"opacity":1,"x":0,"y":0,"type":"objectgroup","draworder":"index","objects":[{"id":2,"name":"Vagues et reflets — cycle léger","type":"","gid":25,"x":0,"y":121,"width":688,"height":72,"rotation":0,"visible":true}]},{"id":6,"name":"Parois rocheuses et rebords","visible":true,"opacity":1,"x":0,"y":0,"type":"imagelayer","image":"../calques/nuit/05_falaises.png"},{"id":7,"name":"Prairie centrale et chemin","visible":true,"opacity":1,"x":0,"y":0,"type":"imagelayer","image":"../calques/nuit/06_prairie_chemin.png"},{"id":8,"name":"Fleurs, herbes et buissons","visible":true,"opacity":1,"x":0,"y":0,"type":"imagelayer","image":"../calques/nuit/07_fleurs_vegetation.png"},{"id":9,"name":"Repères — pas des collisions intégrées","type":"objectgroup","visible":false,"opacity":1,"x":0,"y":0,"draworder":"index","objects":[]}],"tilesets":[{"firstgid":1,"name":"etoiles_nuit","tilewidth":688,"tileheight":28,"tilecount":24,"columns":8,"margin":0,"spacing":0,"objectalignment":"bottomleft","image":"../animations/etoiles_nuit.png","imagewidth":5504,"imageheight":84,"tiles":[{"id":0,"animation":[{"tileid":0,"duration":250},{"tileid":1,"duration":250},{"tileid":2,"duration":250},{"tileid":3,"duration":250},{"tileid":4,"duration":250},{"tileid":5,"duration":250},{"tileid":6,"duration":250},{"tileid":7,"duration":250},{"tileid":8,"duration":250},{"tileid":9,"duration":250},{"tileid":10,"duration":250},{"tileid":11,"duration":250},{"tileid":12,"duration":250},{"tileid":13,"duration":250},{"tileid":14,"duration":250},{"tileid":15,"duration":250},{"tileid":16,"duration":250},{"tileid":17,"duration":250},{"tileid":18,"duration":250},{"tileid":19,"duration":250},{"tileid":20,"duration":250},{"tileid":21,"duration":250},{"tileid":22,"duration":250},{"tileid":23,"duration":250}]}]},{"firstgid":25,"name":"vagues_nuit","tilewidth":688,"tileheight":72,"tilecount":24,"columns":8,"margin":0,"spacing":0,"objectalignment":"bottomleft","image":"../animations/vagues_nuit.png","imagewidth":5504,"imageheight":216,"tiles":[{"id":0,"animation":[{"tileid":0,"duration":250},{"tileid":1,"duration":250},{"tileid":2,"duration":250},{"tileid":3,"duration":250},{"tileid":4,"duration":250},{"tileid":5,"duration":250},{"tileid":6,"duration":250},{"tileid":7,"duration":250},{"tileid":8,"duration":250},{"tileid":9,"duration":250},{"tileid":10,"duration":250},{"tileid":11,"duration":250},{"tileid":12,"duration":250},{"tileid":13,"duration":250},{"tileid":14,"duration":250},{"tileid":15,"duration":250},{"tileid":16,"duration":250},{"tileid":17,"duration":250},{"tileid":18,"duration":250},{"tileid":19,"duration":250},{"tileid":20,"duration":250},{"tileid":21,"duration":250},{"tileid":22,"duration":250},{"tileid":23,"duration":250}]}]}]}