{"type":"map","version":"1.10","tiledversion":"1.11.0","orientation":"orthogonal","renderorder":"right-down","tilewidth":8,"tileheight":8,"width":86,"height":48,"infinite":false,"nextlayerid":9,"nextobjectid":1,"layers":[{"id":1,"name":"Ciel et montagnes lointaines","visible":true,"opacity":1,"x":0,"y":0,"type":"imagelayer","image":"../calques/jour/00_ciel.png"},{"id":2,"name":"Lune fixe et étoiles scintillantes","visible":true,"opacity":1,"x":0,"y":0,"type":"imagelayer","image":"../calques/jour/01_astres.png"},{"id":3,"name":"Nuages — défilement horizontal","visible":true,"opacity":1,"x":0,"y":0,"type":"imagelayer","image":"../calques/jour/02_nuages.png"},{"id":4,"name":"Mer et reflets","visible":true,"opacity":1,"x":0,"y":0,"type":"imagelayer","image":"../calques/jour/03_mer_reflets.png"},{"id":5,"name":"Parois rocheuses et rebords","visible":true,"opacity":1,"x":0,"y":0,"type":"imagelayer","image":"../calques/jour/04_falaises.png"},{"id":6,"name":"Prairie centrale et chemin","visible":true,"opacity":1,"x":0,"y":0,"type":"imagelayer","image":"../calques/jour/05_prairie_chemin.png"},{"id":7,"name":"Fleurs, herbes et buissons","visible":true,"opacity":1,"x":0,"y":0,"type":"imagelayer","image":"../calques/jour/06_fleurs_vegetation.png"},{"id":8,"name":"Repères — pas des collisions intégrées","type":"objectgroup","visible":false,"opacity":1,"x":0,"y":0,"draworder":"index","objects":[]}],"tilesets":[]}