{"type":"map","version":"1.10","tiledversion":"1.11.0","orientation":"orthogonal","renderorder":"right-down","tilewidth":8,"tileheight":8,"width":86,"height":48,"infinite":false,"nextlayerid":7,"nextobjectid":3,"layers":[{"id":1,"name":"Ciel ouvert — sans nuage","visible":true,"opacity":1,"x":0,"y":0,"type":"imagelayer","image":"../calques_rgba/original/00_ciel.png"},{"id":2,"name":"Nuages — overlay horizontal, wrap parfait","visible":true,"opacity":1,"x":0,"y":0,"type":"objectgroup","draworder":"index","objects":[{"id":1,"name":"Nuages — overlay horizontal, wrap parfait","type":"","gid":1,"x":0,"y":226,"width":688,"height":206,"rotation":0,"visible":true}]},{"id":3,"name":"Mer — cycle de palette sans déplacement","visible":true,"opacity":1,"x":0,"y":0,"type":"objectgroup","draworder":"index","objects":[{"id":2,"name":"Mer — cycle de palette sans déplacement","type":"","gid":345,"x":0,"y":384,"width":688,"height":234,"rotation":0,"visible":true}]},{"id":4,"name":"Plateaux et reliefs naturels","visible":true,"opacity":1,"x":0,"y":0,"type":"imagelayer","image":"../calques_rgba/original/03_plateaux_reliefs.png"},{"id":5,"name":"Falaise naturelle de premier plan","visible":true,"opacity":1,"x":0,"y":0,"type":"imagelayer","image":"../calques_rgba/original/04_falaise.png"},{"id":6,"name":"Repères — pas des collisions intégrées","type":"objectgroup","visible":false,"opacity":1,"x":0,"y":0,"draworder":"index","objects":[]}],"tilesets":[{"firstgid":1,"name":"nuages_wrap_original","tilewidth":688,"tileheight":206,"tilecount":344,"columns":8,"margin":0,"spacing":0,"objectalignment":"bottomleft","image":"../animations/nuages_wrap_original.png","imagewidth":5504,"imageheight":8858,"tiles":[{"id":0,"animation":[{"tileid":0,"duration":250},{"tileid":1,"duration":250},{"tileid":2,"duration":250},{"tileid":3,"duration":250},{"tileid":4,"duration":250},{"tileid":5,"duration":250},{"tileid":6,"duration":250},{"tileid":7,"duration":250},{"tileid":8,"duration":250},{"tileid":9,"duration":250},{"tileid":10,"duration":250},{"tileid":11,"duration":250},{"tileid":12,"duration":250},{"tileid":13,"duration":250},{"tileid":14,"duration":250},{"tileid":15,"duration":250},{"tileid":16,"duration":250},{"tileid":17,"duration":250},{"tileid":18,"duration":250},{"tileid":19,"duration":250},{"tileid":20,"duration":250},{"tileid":21,"duration":250},{"tileid":22,"duration":250},{"tileid":23,"duration":250},{"tileid":24,"duration":250},{"tileid":25,"duration":250},{"tileid":26,"duration":250},{"tileid":27,"duration":250},{"tileid":28,"duration":250},{"tileid":29,"duration":250},{"tileid":30,"duration":250},{"tileid":31,"duration":250},{"tileid":32,"duration":250},{"tileid":33,"duration":250},{"tileid":34,"duration":250},{"tileid":35,"duration":250},{"tileid":36,"duration":250},{"tileid":37,"duration":250},{"tileid":38,"duration":250},{"tileid":39,"duration":250},{"tileid":40,"duration":250},{"tileid":41,"duration":250},{"tileid":42,"duration":250},{"tileid":43,"duration":250},{"tileid":44,"duration":250},{"tileid":45,"duration":250},{"tileid":46,"duration":250},{"tileid":47,"duration":250},{"tileid":48,"duration":250},{"tileid":49,"duration":250},{"tileid":50,"duration":250},{"tileid":51,"duration":250},{"tileid":52,"duration":250},{"tileid":53,"duration":250},{"tileid":54,"duration":250},{"tileid":55,"duration":250},{"tileid":56,"duration":250},{"tileid":57,"duration":250},{"tileid":58,"duration":250},{"tileid":59,"duration":250},{"tileid":60,"duration":250},{"tileid":61,"duration":250},{"tileid":62,"duration":250},{"tileid":63,"duration":250},{"tileid":64,"duration":250},{"tileid":65,"duration":250},{"tileid":66,"duration":250},{"tileid":67,"duration":250},{"tileid":68,"duration":250},{"tileid":69,"duration":250},{"tileid":70,"duration":250},{"tileid":71,"duration":250},{"tileid":72,"duration":250},{"tileid":73,"duration":250},{"tileid":74,"duration":250},{"tileid":75,"duration":250},{"tileid":76,"duration":250},{"tileid":77,"duration":250},{"tileid":78,"duration":250},{"tileid":79,"duration":250},{"tileid":80,"duration":250},{"tileid":81,"duration":250},{"tileid":82,"duration":250},{"tileid":83,"duration":250},{"tileid":84,"duration":250},{"tileid":85,"duration":250},{"tileid":86,"duration":250},{"tileid":87,"duration":250},{"tileid":88,"duration":250},{"tileid":89,"duration":250},{"tileid":90,"duration":250},{"tileid":91,"duration":250},{"tileid":92,"duration":250},{"tileid":93,"duration":250},{"tileid":94,"duration":250},{"tileid":95,"duration":250},{"tileid":96,"duration":250},{"tileid":97,"duration":250},{"tileid":98,"duration":250},{"tileid":99,"duration":250},{"tileid":100,"duration":250},{"tileid":101,"duration":250},{"tileid":102,"duration":250},{"tileid":103,"duration":250},{"tileid":104,"duration":250},{"tileid":105,"duration":250},{"tileid":106,"duration":250},{"tileid":107,"duration":250},{"tileid":108,"duration":250},{"tileid":109,"duration":250},{"tileid":110,"duration":250},{"tileid":111,"duration":250},{"tileid":112,"duration":250},{"tileid":113,"duration":250},{"tileid":114,"duration":250},{"tileid":115,"duration":250},{"tileid":116,"duration":250},{"tileid":117,"duration":250},{"tileid":118,"duration":250},{"tileid":119,"duration":250},{"tileid":120,"duration":250},{"tileid":121,"duration":250},{"tileid":122,"duration":250},{"tileid":123,"duration":250},{"tileid":124,"duration":250},{"tileid":125,"duration":250},{"tileid":126,"duration":250},{"tileid":127,"duration":250},{"tileid":128,"duration":250},{"tileid":129,"duration":250},{"tileid":130,"duration":250},{"tileid":131,"duration":250},{"tileid":132,"duration":250},{"tileid":133,"duration":250},{"tileid":134,"duration":250},{"tileid":135,"duration":250},{"tileid":136,"duration":250},{"tileid":137,"duration":250},{"tileid":138,"duration":250},{"tileid":139,"duration":250},{"tileid":140,"duration":250},{"tileid":141,"duration":250},{"tileid":142,"duration":250},{"tileid":143,"duration":250},{"tileid":144,"duration":250},{"tileid":145,"duration":250},{"tileid":146,"duration":250},{"tileid":147,"duration":250},{"tileid":148,"duration":250},{"tileid":149,"duration":250},{"tileid":150,"duration":250},{"tileid":151,"duration":250},{"tileid":152,"duration":250},{"tileid":153,"duration":250},{"tileid":154,"duration":250},{"tileid":155,"duration":250},{"tileid":156,"duration":250},{"tileid":157,"duration":250},{"tileid":158,"duration":250},{"tileid":159,"duration":250},{"tileid":160,"duration":250},{"tileid":161,"duration":250},{"tileid":162,"duration":250},{"tileid":163,"duration":250},{"tileid":164,"duration":250},{"tileid":165,"duration":250},{"tileid":166,"duration":250},{"tileid":167,"duration":250},{"tileid":168,"duration":250},{"tileid":169,"duration":250},{"tileid":170,"duration":250},{"tileid":171,"duration":250},{"tileid":172,"duration":250},{"tileid":173,"duration":250},{"tileid":174,"duration":250},{"tileid":175,"duration":250},{"tileid":176,"duration":250},{"tileid":177,"duration":250},{"tileid":178,"duration":250},{"tileid":179,"duration":250},{"tileid":180,"duration":250},{"tileid":181,"duration":250},{"tileid":182,"duration":250},{"tileid":183,"duration":250},{"tileid":184,"duration":250},{"tileid":185,"duration":250},{"tileid":186,"duration":250},{"tileid":187,"duration":250},{"tileid":188,"duration":250},{"tileid":189,"duration":250},{"tileid":190,"duration":250},{"tileid":191,"duration":250},{"tileid":192,"duration":250},{"tileid":193,"duration":250},{"tileid":194,"duration":250},{"tileid":195,"duration":250},{"tileid":196,"duration":250},{"tileid":197,"duration":250},{"tileid":198,"duration":250},{"tileid":199,"duration":250},{"tileid":200,"duration":250},{"tileid":201,"duration":250},{"tileid":202,"duration":250},{"tileid":203,"duration":250},{"tileid":204,"duration":250},{"tileid":205,"duration":250},{"tileid":206,"duration":250},{"tileid":207,"duration":250},{"tileid":208,"duration":250},{"tileid":209,"duration":250},{"tileid":210,"duration":250},{"tileid":211,"duration":250},{"tileid":212,"duration":250},{"tileid":213,"duration":250},{"tileid":214,"duration":250},{"tileid":215,"duration":250},{"tileid":216,"duration":250},{"tileid":217,"duration":250},{"tileid":218,"duration":250},{"tileid":219,"duration":250},{"tileid":220,"duration":250},{"tileid":221,"duration":250},{"tileid":222,"duration":250},{"tileid":223,"duration":250},{"tileid":224,"duration":250},{"tileid":225,"duration":250},{"tileid":226,"duration":250},{"tileid":227,"duration":250},{"tileid":228,"duration":250},{"tileid":229,"duration":250},{"tileid":230,"duration":250},{"tileid":231,"duration":250},{"tileid":232,"duration":250},{"tileid":233,"duration":250},{"tileid":234,"duration":250},{"tileid":235,"duration":250},{"tileid":236,"duration":250},{"tileid":237,"duration":250},{"tileid":238,"duration":250},{"tileid":239,"duration":250},{"tileid":240,"duration":250},{"tileid":241,"duration":250},{"tileid":242,"duration":250},{"tileid":243,"duration":250},{"tileid":244,"duration":250},{"tileid":245,"duration":250},{"tileid":246,"duration":250},{"tileid":247,"duration":250},{"tileid":248,"duration":250},{"tileid":249,"duration":250},{"tileid":250,"duration":250},{"tileid":251,"duration":250},{"tileid":252,"duration":250},{"tileid":253,"duration":250},{"tileid":254,"duration":250},{"tileid":255,"duration":250},{"tileid":256,"duration":250},{"tileid":257,"duration":250},{"tileid":258,"duration":250},{"tileid":259,"duration":250},{"tileid":260,"duration":250},{"tileid":261,"duration":250},{"tileid":262,"duration":250},{"tileid":263,"duration":250},{"tileid":264,"duration":250},{"tileid":265,"duration":250},{"tileid":266,"duration":250},{"tileid":267,"duration":250},{"tileid":268,"duration":250},{"tileid":269,"duration":250},{"tileid":270,"duration":250},{"tileid":271,"duration":250},{"tileid":272,"duration":250},{"tileid":273,"duration":250},{"tileid":274,"duration":250},{"tileid":275,"duration":250},{"tileid":276,"duration":250},{"tileid":277,"duration":250},{"tileid":278,"duration":250},{"tileid":279,"duration":250},{"tileid":280,"duration":250},{"tileid":281,"duration":250},{"tileid":282,"duration":250},{"tileid":283,"duration":250},{"tileid":284,"duration":250},{"tileid":285,"duration":250},{"tileid":286,"duration":250},{"tileid":287,"duration":250},{"tileid":288,"duration":250},{"tileid":289,"duration":250},{"tileid":290,"duration":250},{"tileid":291,"duration":250},{"tileid":292,"duration":250},{"tileid":293,"duration":250},{"tileid":294,"duration":250},{"tileid":295,"duration":250},{"tileid":296,"duration":250},{"tileid":297,"duration":250},{"tileid":298,"duration":250},{"tileid":299,"duration":250},{"tileid":300,"duration":250},{"tileid":301,"duration":250},{"tileid":302,"duration":250},{"tileid":303,"duration":250},{"tileid":304,"duration":250},{"tileid":305,"duration":250},{"tileid":306,"duration":250},{"tileid":307,"duration":250},{"tileid":308,"duration":250},{"tileid":309,"duration":250},{"tileid":310,"duration":250},{"tileid":311,"duration":250},{"tileid":312,"duration":250},{"tileid":313,"duration":250},{"tileid":314,"duration":250},{"tileid":315,"duration":250},{"tileid":316,"duration":250},{"tileid":317,"duration":250},{"tileid":318,"duration":250},{"tileid":319,"duration":250},{"tileid":320,"duration":250},{"tileid":321,"duration":250},{"tileid":322,"duration":250},{"tileid":323,"duration":250},{"tileid":324,"duration":250},{"tileid":325,"duration":250},{"tileid":326,"duration":250},{"tileid":327,"duration":250},{"tileid":328,"duration":250},{"tileid":329,"duration":250},{"tileid":330,"duration":250},{"tileid":331,"duration":250},{"tileid":332,"duration":250},{"tileid":333,"duration":250},{"tileid":334,"duration":250},{"tileid":335,"duration":250},{"tileid":336,"duration":250},{"tileid":337,"duration":250},{"tileid":338,"duration":250},{"tileid":339,"duration":250},{"tileid":340,"duration":250},{"tileid":341,"duration":250},{"tileid":342,"duration":250},{"tileid":343,"duration":250}]}]},{"firstgid":345,"name":"mer_palette_original","tilewidth":688,"tileheight":234,"tilecount":24,"columns":8,"margin":0,"spacing":0,"objectalignment":"bottomleft","image":"../animations/mer_palette_original.png","imagewidth":5504,"imageheight":702,"tiles":[{"id":0,"animation":[{"tileid":0,"duration":250},{"tileid":1,"duration":250},{"tileid":2,"duration":250},{"tileid":3,"duration":250},{"tileid":4,"duration":250},{"tileid":5,"duration":250},{"tileid":6,"duration":250},{"tileid":7,"duration":250},{"tileid":8,"duration":250},{"tileid":9,"duration":250},{"tileid":10,"duration":250},{"tileid":11,"duration":250},{"tileid":12,"duration":250},{"tileid":13,"duration":250},{"tileid":14,"duration":250},{"tileid":15,"duration":250},{"tileid":16,"duration":250},{"tileid":17,"duration":250},{"tileid":18,"duration":250},{"tileid":19,"duration":250},{"tileid":20,"duration":250},{"tileid":21,"duration":250},{"tileid":22,"duration":250},{"tileid":23,"duration":250}]}]}]}