{
  "type": "map",
  "version": "1.10",
  "orientation": "orthogonal",
  "renderorder": "right-down",
  "infinite": false,
  "tilewidth": 32,
  "tileheight": 32,
  "width": 14,
  "height": 14,
  "nextlayerid": 14,
  "nextobjectid": 42,
  "layers": [
    {
      "id": 1,
      "name": "00_fond_immersion",
      "visible": true,
      "opacity": 1,
      "properties": [
        {
          "name": "role",
          "type": "string",
          "value": "Fond d’immersion"
        }
      ],
      "type": "tilelayer",
      "width": 14,
      "height": 14,
      "x": 0,
      "y": 0,
      "data": [
        1,
        1,
        1,
        1,
        1,
        1,
        0,
        0,
        0,
        1,
        1,
        1,
        1,
        1,
        1,
        1,
        1,
        1,
        1,
        1,
        0,
        0,
        0,
        1,
        1,
        1,
        1,
        1,
        1,
        1,
        1,
        1,
        1,
        1,
        0,
        0,
        0,
        1,
        1,
        1,
        1,
        1,
        1,
        1,
        1,
        1,
        1,
        1,
        0,
        0,
        0,
        1,
        1,
        1,
        1,
        1,
        1,
        1,
        1,
        1,
        1,
        6,
        0,
        0,
        0,
        12,
        1,
        1,
        1,
        1,
        1,
        1,
        1,
        1,
        6,
        7,
        0,
        0,
        0,
        13,
        12,
        1,
        1,
        1,
        0,
        0,
        0,
        0,
        0,
        0,
        0,
        0,
        0,
        0,
        0,
        0,
        0,
        0,
        0,
        0,
        0,
        0,
        0,
        0,
        0,
        0,
        0,
        0,
        0,
        0,
        0,
        0,
        0,
        0,
        0,
        0,
        0,
        0,
        0,
        0,
        0,
        0,
        0,
        0,
        0,
        0,
        1,
        1,
        1,
        1,
        10,
        11,
        0,
        0,
        0,
        8,
        9,
        1,
        1,
        1,
        1,
        1,
        1,
        1,
        1,
        10,
        0,
        0,
        0,
        9,
        1,
        1,
        1,
        1,
        1,
        1,
        1,
        1,
        1,
        1,
        0,
        0,
        0,
        1,
        1,
        1,
        1,
        1,
        1,
        1,
        1,
        1,
        1,
        1,
        0,
        0,
        0,
        1,
        1,
        1,
        1,
        1,
        1,
        1,
        1,
        1,
        1,
        1,
        0,
        0,
        0,
        1,
        1,
        1,
        1,
        1
      ]
    },
    {
      "id": 2,
      "name": "01_soubassement",
      "visible": true,
      "opacity": 1,
      "properties": [
        {
          "name": "role",
          "type": "string",
          "value": "Soubassement d’écorce"
        }
      ],
      "type": "tilelayer",
      "width": 14,
      "height": 14,
      "x": 0,
      "y": 0,
      "data": [
        0,
        0,
        0,
        0,
        0,
        199,
        0,
        0,
        0,
        200,
        0,
        0,
        0,
        0,
        0,
        0,
        0,
        0,
        0,
        201,
        0,
        0,
        0,
        202,
        0,
        0,
        0,
        0,
        0,
        0,
        0,
        0,
        0,
        203,
        0,
        0,
        0,
        204,
        0,
        0,
        0,
        0,
        0,
        0,
        0,
        0,
        0,
        205,
        0,
        0,
        0,
        206,
        0,
        0,
        0,
        0,
        0,
        0,
        0,
        0,
        207,
        208,
        0,
        0,
        0,
        209,
        210,
        0,
        0,
        0,
        211,
        212,
        213,
        214,
        215,
        216,
        0,
        0,
        0,
        217,
        218,
        112,
        219,
        220,
        0,
        0,
        0,
        0,
        0,
        0,
        0,
        0,
        0,
        0,
        0,
        0,
        0,
        0,
        0,
        0,
        0,
        0,
        0,
        0,
        0,
        0,
        0,
        0,
        0,
        0,
        0,
        0,
        0,
        0,
        0,
        0,
        0,
        0,
        0,
        0,
        0,
        0,
        0,
        0,
        0,
        0,
        221,
        222,
        223,
        224,
        225,
        226,
        0,
        0,
        0,
        227,
        228,
        123,
        229,
        230,
        0,
        0,
        0,
        0,
        231,
        232,
        0,
        0,
        0,
        233,
        234,
        0,
        0,
        0,
        0,
        0,
        0,
        0,
        0,
        235,
        0,
        0,
        0,
        236,
        0,
        0,
        0,
        0,
        0,
        0,
        0,
        0,
        0,
        237,
        0,
        0,
        0,
        238,
        0,
        0,
        0,
        0,
        0,
        0,
        0,
        0,
        0,
        239,
        0,
        0,
        0,
        240,
        0,
        0,
        0,
        0
      ]
    },
    {
      "id": 3,
      "name": "02_feuillage_arriere",
      "visible": true,
      "opacity": 1,
      "properties": [
        {
          "name": "role",
          "type": "string",
          "value": "Feuillage arrière"
        }
      ],
      "type": "objectgroup",
      "draworder": "index",
      "objects": [
        {
          "id": 1,
          "name": "canopée_2",
          "gid": 370,
          "x": 277,
          "y": 93,
          "width": 58,
          "height": 43,
          "rotation": 0,
          "visible": true
        },
        {
          "id": 2,
          "name": "canopée_1",
          "gid": 369,
          "x": 288,
          "y": 117,
          "width": 64,
          "height": 36,
          "rotation": 0,
          "visible": true
        },
        {
          "id": 3,
          "name": "canopée_2",
          "gid": 370,
          "x": 335,
          "y": 141,
          "width": 58,
          "height": 43,
          "rotation": 0,
          "visible": true
        },
        {
          "id": 4,
          "name": "canopée_1",
          "gid": 369,
          "x": 274,
          "y": 337,
          "width": 64,
          "height": 36,
          "rotation": 0,
          "visible": true
        },
        {
          "id": 5,
          "name": "canopée_2",
          "gid": 370,
          "x": 277,
          "y": 393,
          "width": 58,
          "height": 43,
          "rotation": 0,
          "visible": true
        },
        {
          "id": 6,
          "name": "canopée_2",
          "gid": 370,
          "x": 145,
          "y": 393,
          "width": 58,
          "height": 43,
          "rotation": 0,
          "visible": true
        },
        {
          "id": 7,
          "name": "canopée_3",
          "gid": 371,
          "x": 145,
          "y": 337,
          "width": 58,
          "height": 43,
          "rotation": 0,
          "visible": true
        },
        {
          "id": 8,
          "name": "canopée_2",
          "gid": 370,
          "x": 43,
          "y": 141,
          "width": 58,
          "height": 43,
          "rotation": 0,
          "visible": true
        },
        {
          "id": 9,
          "name": "canopée_3",
          "gid": 371,
          "x": 91,
          "y": 141,
          "width": 58,
          "height": 43,
          "rotation": 0,
          "visible": true
        },
        {
          "id": 10,
          "name": "canopée_2",
          "gid": 370,
          "x": 131,
          "y": 117,
          "width": 58,
          "height": 43,
          "rotation": 0,
          "visible": true
        },
        {
          "id": 11,
          "name": "canopée_3",
          "gid": 371,
          "x": 145,
          "y": 93,
          "width": 58,
          "height": 43,
          "rotation": 0,
          "visible": true
        }
      ]
    },
    {
      "id": 4,
      "name": "03_parquet",
      "visible": true,
      "opacity": 1,
      "properties": [
        {
          "name": "role",
          "type": "string",
          "value": "Parquet"
        }
      ],
      "type": "tilelayer",
      "width": 14,
      "height": 14,
      "x": 0,
      "y": 0,
      "data": [
        0,
        0,
        0,
        0,
        0,
        0,
        390,
        391,
        392,
        0,
        0,
        0,
        0,
        0,
        0,
        0,
        0,
        0,
        0,
        0,
        387,
        388,
        389,
        0,
        0,
        0,
        0,
        0,
        0,
        0,
        0,
        0,
        0,
        0,
        396,
        385,
        386,
        0,
        0,
        0,
        0,
        0,
        0,
        0,
        0,
        0,
        0,
        0,
        393,
        394,
        395,
        0,
        0,
        0,
        0,
        0,
        0,
        0,
        0,
        0,
        0,
        417,
        381,
        382,
        383,
        418,
        0,
        0,
        0,
        0,
        0,
        0,
        0,
        0,
        403,
        419,
        391,
        392,
        380,
        420,
        421,
        0,
        0,
        0,
        394,
        395,
        396,
        385,
        386,
        387,
        388,
        389,
        390,
        391,
        392,
        380,
        381,
        382,
        382,
        383,
        393,
        394,
        395,
        396,
        385,
        386,
        387,
        388,
        389,
        390,
        391,
        392,
        392,
        380,
        381,
        382,
        383,
        393,
        394,
        395,
        396,
        385,
        386,
        387,
        388,
        389,
        0,
        0,
        0,
        0,
        422,
        423,
        382,
        383,
        393,
        424,
        425,
        0,
        0,
        0,
        0,
        0,
        0,
        0,
        0,
        413,
        392,
        380,
        381,
        426,
        0,
        0,
        0,
        0,
        0,
        0,
        0,
        0,
        0,
        0,
        389,
        390,
        391,
        0,
        0,
        0,
        0,
        0,
        0,
        0,
        0,
        0,
        0,
        0,
        386,
        387,
        388,
        0,
        0,
        0,
        0,
        0,
        0,
        0,
        0,
        0,
        0,
        0,
        395,
        396,
        385,
        0,
        0,
        0,
        0,
        0
      ]
    },
    {
      "id": 5,
      "name": "04_murs_fond",
      "visible": true,
      "opacity": 1,
      "properties": [
        {
          "name": "role",
          "type": "string",
          "value": "Panneaux du fond"
        }
      ],
      "type": "objectgroup",
      "draworder": "index",
      "objects": [
        {
          "id": 12,
          "name": "murs_fond_56_0",
          "gid": 478,
          "x": 333,
          "y": 197,
          "width": 64,
          "height": 72,
          "rotation": 0,
          "visible": true
        },
        {
          "id": 13,
          "name": "murs_fond_56_0",
          "gid": 478,
          "x": 389,
          "y": 197,
          "width": 64,
          "height": 72,
          "rotation": 0,
          "visible": true
        },
        {
          "id": 14,
          "name": "murs_fond_48_0",
          "gid": 476,
          "x": -3,
          "y": 197,
          "width": 56,
          "height": 72,
          "rotation": 0,
          "visible": true
        },
        {
          "id": 15,
          "name": "murs_fond_48_0",
          "gid": 476,
          "x": 45,
          "y": 197,
          "width": 56,
          "height": 72,
          "rotation": 0,
          "visible": true
        },
        {
          "id": 16,
          "name": "murs_fond_48_0",
          "gid": 476,
          "x": 93,
          "y": 197,
          "width": 56,
          "height": 72,
          "rotation": 0,
          "visible": true
        }
      ]
    },
    {
      "id": 6,
      "name": "05_murs_retours",
      "visible": true,
      "opacity": 1,
      "properties": [
        {
          "name": "role",
          "type": "string",
          "value": "Murs de retour"
        }
      ],
      "type": "objectgroup",
      "draworder": "index",
      "objects": [
        {
          "id": 17,
          "name": "murs_retours_0_48",
          "gid": 499,
          "x": 285,
          "y": 53,
          "width": 32,
          "height": 96,
          "rotation": 0,
          "visible": true
        },
        {
          "id": 18,
          "name": "murs_retours_0_48",
          "gid": 499,
          "x": 285,
          "y": 101,
          "width": 32,
          "height": 96,
          "rotation": 0,
          "visible": true
        },
        {
          "id": 19,
          "name": "murs_retours_0_48",
          "gid": 499,
          "x": 285,
          "y": 149,
          "width": 32,
          "height": 96,
          "rotation": 0,
          "visible": true
        },
        {
          "id": 20,
          "name": "murs_fond_48_48",
          "gid": 501,
          "x": 285,
          "y": 197,
          "width": 64,
          "height": 120,
          "rotation": 0,
          "visible": true
        },
        {
          "id": 21,
          "name": "murs_retours_0_56",
          "gid": 502,
          "x": 285,
          "y": 397,
          "width": 32,
          "height": 104,
          "rotation": 0,
          "visible": true
        },
        {
          "id": 22,
          "name": "murs_retours_0_56",
          "gid": 503,
          "x": 285,
          "y": 453,
          "width": 32,
          "height": 104,
          "rotation": 0,
          "visible": true
        },
        {
          "id": 23,
          "name": "murs_retours_0_-56",
          "gid": 504,
          "x": 171,
          "y": 453,
          "width": 32,
          "height": 104,
          "rotation": 0,
          "visible": true
        },
        {
          "id": 24,
          "name": "murs_retours_0_-56",
          "gid": 505,
          "x": 171,
          "y": 397,
          "width": 32,
          "height": 104,
          "rotation": 0,
          "visible": true
        },
        {
          "id": 25,
          "name": "murs_fond_48_-48",
          "gid": 506,
          "x": 133,
          "y": 197,
          "width": 64,
          "height": 120,
          "rotation": 0,
          "visible": true
        },
        {
          "id": 26,
          "name": "murs_retours_0_-48",
          "gid": 507,
          "x": 171,
          "y": 149,
          "width": 32,
          "height": 96,
          "rotation": 0,
          "visible": true
        },
        {
          "id": 27,
          "name": "murs_retours_0_-48",
          "gid": 507,
          "x": 171,
          "y": 101,
          "width": 32,
          "height": 96,
          "rotation": 0,
          "visible": true
        },
        {
          "id": 28,
          "name": "murs_retours_0_-48",
          "gid": 507,
          "x": 171,
          "y": 53,
          "width": 32,
          "height": 96,
          "rotation": 0,
          "visible": true
        },
        {
          "id": 29,
          "name": "joint_de_panneaux",
          "gid": 490,
          "x": 286,
          "y": 150,
          "width": 24,
          "height": 72,
          "rotation": 0,
          "visible": true
        },
        {
          "id": 30,
          "name": "joint_de_panneaux",
          "gid": 485,
          "x": 334,
          "y": 198,
          "width": 16,
          "height": 72,
          "rotation": 0,
          "visible": true
        },
        {
          "id": 31,
          "name": "joint_de_panneaux",
          "gid": 482,
          "x": 134,
          "y": 198,
          "width": 16,
          "height": 72,
          "rotation": 0,
          "visible": true
        },
        {
          "id": 32,
          "name": "joint_de_panneaux",
          "gid": 493,
          "x": 172,
          "y": 150,
          "width": 24,
          "height": 72,
          "rotation": 0,
          "visible": true
        }
      ]
    },
    {
      "id": 7,
      "name": "06_ombres_contact",
      "visible": true,
      "opacity": 1,
      "properties": [
        {
          "name": "role",
          "type": "string",
          "value": "Ombres de contact"
        }
      ],
      "type": "tilelayer",
      "width": 14,
      "height": 14,
      "x": 0,
      "y": 0,
      "data": [
        0,
        0,
        0,
        0,
        0,
        0,
        527,
        0,
        528,
        0,
        0,
        0,
        0,
        0,
        0,
        0,
        0,
        0,
        0,
        0,
        527,
        0,
        528,
        0,
        0,
        0,
        0,
        0,
        0,
        0,
        0,
        0,
        0,
        0,
        527,
        0,
        528,
        0,
        0,
        0,
        0,
        0,
        0,
        0,
        0,
        0,
        0,
        0,
        527,
        0,
        528,
        0,
        0,
        0,
        0,
        0,
        0,
        0,
        0,
        0,
        0,
        539,
        540,
        0,
        556,
        557,
        0,
        0,
        0,
        0,
        0,
        0,
        0,
        0,
        539,
        558,
        542,
        0,
        559,
        560,
        557,
        0,
        0,
        0,
        515,
        515,
        515,
        515,
        561,
        542,
        0,
        0,
        0,
        559,
        562,
        515,
        515,
        515,
        0,
        0,
        0,
        0,
        0,
        0,
        0,
        0,
        0,
        0,
        0,
        0,
        0,
        0,
        520,
        520,
        520,
        520,
        550,
        0,
        0,
        0,
        0,
        0,
        551,
        520,
        520,
        520,
        0,
        0,
        0,
        0,
        552,
        563,
        0,
        0,
        0,
        564,
        555,
        0,
        0,
        0,
        0,
        0,
        0,
        0,
        0,
        565,
        566,
        0,
        546,
        547,
        0,
        0,
        0,
        0,
        0,
        0,
        0,
        0,
        0,
        0,
        527,
        0,
        528,
        0,
        0,
        0,
        0,
        0,
        0,
        0,
        0,
        0,
        0,
        0,
        527,
        0,
        528,
        0,
        0,
        0,
        0,
        0,
        0,
        0,
        0,
        0,
        0,
        0,
        527,
        0,
        528,
        0,
        0,
        0,
        0,
        0
      ]
    },
    {
      "id": 8,
      "name": "07_reflets_seuils",
      "visible": true,
      "opacity": 1,
      "properties": [
        {
          "name": "role",
          "type": "string",
          "value": "Reflets des seuils"
        }
      ],
      "type": "tilelayer",
      "width": 14,
      "height": 14,
      "x": 0,
      "y": 0,
      "data": [
        0,
        0,
        0,
        0,
        0,
        0,
        597,
        0,
        598,
        0,
        0,
        0,
        0,
        0,
        0,
        0,
        0,
        0,
        0,
        0,
        0,
        0,
        0,
        0,
        0,
        0,
        0,
        0,
        0,
        0,
        0,
        0,
        0,
        0,
        0,
        0,
        0,
        0,
        0,
        0,
        0,
        0,
        0,
        0,
        0,
        0,
        0,
        0,
        0,
        0,
        0,
        0,
        0,
        0,
        0,
        0,
        0,
        0,
        0,
        0,
        0,
        0,
        0,
        0,
        0,
        0,
        0,
        0,
        0,
        0,
        0,
        0,
        0,
        0,
        0,
        0,
        0,
        0,
        0,
        0,
        0,
        0,
        0,
        0,
        593,
        0,
        0,
        0,
        0,
        0,
        0,
        0,
        0,
        0,
        0,
        0,
        0,
        594,
        0,
        0,
        0,
        0,
        0,
        0,
        0,
        0,
        0,
        0,
        0,
        0,
        0,
        0,
        595,
        0,
        0,
        0,
        0,
        0,
        0,
        0,
        0,
        0,
        0,
        0,
        0,
        596,
        0,
        0,
        0,
        0,
        0,
        0,
        0,
        0,
        0,
        0,
        0,
        0,
        0,
        0,
        0,
        0,
        0,
        0,
        0,
        0,
        0,
        0,
        0,
        0,
        0,
        0,
        0,
        0,
        0,
        0,
        0,
        0,
        0,
        0,
        0,
        0,
        0,
        0,
        0,
        0,
        0,
        0,
        0,
        0,
        0,
        0,
        0,
        0,
        0,
        0,
        0,
        0,
        0,
        0,
        0,
        0,
        0,
        0,
        0,
        0,
        0,
        0,
        599,
        0,
        600,
        0,
        0,
        0,
        0,
        0
      ]
    },
    {
      "id": 9,
      "name": "08_spirales",
      "visible": true,
      "opacity": 1,
      "properties": [
        {
          "name": "role",
          "type": "string",
          "value": "Traces spiralées"
        }
      ],
      "type": "objectgroup",
      "draworder": "index",
      "objects": []
    },
    {
      "id": 10,
      "name": "09_ombres_objets",
      "visible": true,
      "opacity": 1,
      "properties": [
        {
          "name": "role",
          "type": "string",
          "value": "Ombres des objets"
        }
      ],
      "type": "objectgroup",
      "draworder": "index",
      "objects": []
    },
    {
      "id": 11,
      "name": "10_objets",
      "visible": true,
      "opacity": 1,
      "properties": [
        {
          "name": "role",
          "type": "string",
          "value": "Objets et tentures"
        }
      ],
      "type": "objectgroup",
      "draworder": "index",
      "objects": []
    },
    {
      "id": 12,
      "name": "11_ecorce_racines_avant",
      "visible": true,
      "opacity": 1,
      "properties": [
        {
          "name": "role",
          "type": "string",
          "value": "Écorce et racines avant"
        }
      ],
      "type": "tilelayer",
      "width": 14,
      "height": 14,
      "x": 0,
      "y": 0,
      "data": [
        0,
        0,
        0,
        0,
        0,
        738,
        0,
        0,
        0,
        739,
        623,
        0,
        0,
        0,
        0,
        0,
        0,
        0,
        663,
        740,
        0,
        0,
        0,
        741,
        0,
        0,
        0,
        0,
        0,
        0,
        0,
        0,
        0,
        742,
        0,
        0,
        0,
        743,
        629,
        0,
        0,
        0,
        0,
        0,
        0,
        0,
        658,
        744,
        0,
        0,
        0,
        745,
        633,
        0,
        0,
        0,
        0,
        0,
        0,
        0,
        0,
        746,
        0,
        0,
        0,
        747,
        0,
        0,
        0,
        0,
        0,
        0,
        0,
        0,
        0,
        0,
        0,
        0,
        0,
        0,
        0,
        0,
        0,
        0,
        0,
        0,
        0,
        0,
        0,
        0,
        0,
        0,
        0,
        0,
        0,
        0,
        0,
        0,
        0,
        0,
        0,
        0,
        0,
        0,
        0,
        0,
        0,
        0,
        0,
        0,
        0,
        0,
        0,
        0,
        0,
        0,
        0,
        0,
        0,
        0,
        0,
        0,
        0,
        0,
        0,
        0,
        748,
        749,
        750,
        751,
        752,
        753,
        0,
        0,
        0,
        754,
        755,
        756,
        757,
        758,
        0,
        730,
        0,
        729,
        759,
        760,
        0,
        0,
        0,
        761,
        762,
        611,
        0,
        620,
        0,
        0,
        0,
        0,
        624,
        763,
        0,
        0,
        0,
        764,
        698,
        0,
        0,
        0,
        0,
        0,
        0,
        0,
        0,
        765,
        0,
        0,
        0,
        766,
        0,
        0,
        0,
        0,
        0,
        0,
        0,
        0,
        630,
        767,
        0,
        0,
        0,
        768,
        703,
        0,
        0,
        0
      ]
    },
    {
      "id": 13,
      "name": "12_feuillage_avant",
      "visible": true,
      "opacity": 1,
      "properties": [
        {
          "name": "role",
          "type": "string",
          "value": "Feuillage de premier plan"
        }
      ],
      "type": "objectgroup",
      "draworder": "index",
      "objects": [
        {
          "id": 33,
          "name": "bordure_végétale_1",
          "gid": 369,
          "x": 278,
          "y": 102,
          "width": 64,
          "height": 36,
          "rotation": 0,
          "visible": true
        },
        {
          "id": 34,
          "name": "bordure_végétale_2",
          "gid": 370,
          "x": 273,
          "y": 163,
          "width": 58,
          "height": 43,
          "rotation": 0,
          "visible": true
        },
        {
          "id": 35,
          "name": "bordure_végétale_2",
          "gid": 370,
          "x": 335,
          "y": 323,
          "width": 58,
          "height": 43,
          "rotation": 0,
          "visible": true
        },
        {
          "id": 36,
          "name": "bordure_végétale_4",
          "gid": 378,
          "x": 305,
          "y": 343,
          "width": 45,
          "height": 54,
          "rotation": 0,
          "visible": true
        },
        {
          "id": 37,
          "name": "bordure_végétale_7",
          "gid": 377,
          "x": 282,
          "y": 389,
          "width": 39,
          "height": 54,
          "rotation": 0,
          "visible": true
        },
        {
          "id": 38,
          "name": "bordure_végétale_3",
          "gid": 371,
          "x": 149,
          "y": 385,
          "width": 58,
          "height": 43,
          "rotation": 0,
          "visible": true
        },
        {
          "id": 39,
          "name": "bordure_végétale_5",
          "gid": 375,
          "x": 141,
          "y": 355,
          "width": 45,
          "height": 54,
          "rotation": 0,
          "visible": true
        },
        {
          "id": 40,
          "name": "bordure_végétale_0",
          "gid": 374,
          "x": 86,
          "y": 320,
          "width": 64,
          "height": 36,
          "rotation": 0,
          "visible": true
        },
        {
          "id": 41,
          "name": "bordure_végétale_1",
          "gid": 369,
          "x": 138,
          "y": 136,
          "width": 64,
          "height": 36,
          "rotation": 0,
          "visible": true
        }
      ]
    }
  ],
  "tilesets": [
    {
      "firstgid": 1,
      "source": "../../tiled/hallways_fond_jour.tsj"
    },
    {
      "firstgid": 33,
      "source": "../../tiled/hallways_soubassement_jour.tsj"
    },
    {
      "firstgid": 369,
      "source": "../../tiled/hallways_vegetation_jour.tsj"
    },
    {
      "firstgid": 379,
      "source": "../../tiled/hallways_sol_decoupe_jour.tsj"
    },
    {
      "firstgid": 475,
      "source": "../../tiled/hallways_murs_fond_jour.tsj"
    },
    {
      "firstgid": 480,
      "source": "../../tiled/hallways_murs_retours_jour.tsj"
    },
    {
      "firstgid": 513,
      "source": "../../tiled/hallways_contacts_jour.tsj"
    },
    {
      "firstgid": 593,
      "source": "../../tiled/hallways_reflets_jour.tsj"
    },
    {
      "firstgid": 601,
      "source": "../../tiled/hallways_ecorce_avant_jour.tsj"
    },
    {
      "firstgid": 873,
      "source": "../../tiled/hallways_motifs_jour.tsj"
    },
    {
      "firstgid": 889,
      "source": "../../tiled/hallways_ombres_objets_jour.tsj"
    },
    {
      "firstgid": 909,
      "source": "../../tiled/hallways_objets_jour.tsj"
    }
  ],
  "properties": [
    {
      "name": "architecture",
      "type": "string",
      "value": "panneaux verticaux + bordures d’immersion"
    }
  ]
}
