{
  "type": "map",
  "version": "1.10",
  "tiledversion": "1.11.0",
  "orientation": "orthogonal",
  "renderorder": "right-down",
  "tilewidth": 32,
  "tileheight": 32,
  "width": 9,
  "height": 9,
  "infinite": false,
  "nextlayerid": 7,
  "nextobjectid": 1,
  "layers": [
    {
      "id": 1,
      "name": "00_parquet",
      "type": "tilelayer",
      "width": 9,
      "height": 9,
      "x": 0,
      "y": 0,
      "visible": true,
      "opacity": 1,
      "data": [
        0,
        0,
        0,
        5,
        12,
        3,
        0,
        0,
        0,
        0,
        0,
        0,
        16,
        7,
        14,
        0,
        0,
        0,
        0,
        0,
        0,
        11,
        2,
        9,
        0,
        0,
        0,
        1,
        8,
        15,
        6,
        13,
        4,
        11,
        2,
        9,
        12,
        3,
        10,
        1,
        8,
        15,
        6,
        13,
        4,
        7,
        14,
        5,
        12,
        3,
        10,
        1,
        8,
        15,
        0,
        0,
        0,
        7,
        14,
        5,
        0,
        0,
        0,
        0,
        0,
        0,
        2,
        9,
        16,
        0,
        0,
        0,
        0,
        0,
        0,
        13,
        4,
        11,
        0,
        0,
        0
      ]
    },
    {
      "id": 2,
      "name": "01_structure",
      "type": "tilelayer",
      "width": 9,
      "height": 9,
      "x": 0,
      "y": 0,
      "visible": true,
      "opacity": 1,
      "data": [
        0,
        0,
        35,
        0,
        0,
        0,
        41,
        0,
        0,
        0,
        0,
        35,
        0,
        0,
        0,
        41,
        0,
        0,
        37,
        37,
        39,
        0,
        0,
        0,
        45,
        37,
        37,
        0,
        0,
        0,
        0,
        0,
        0,
        0,
        0,
        0,
        0,
        0,
        0,
        0,
        0,
        0,
        0,
        0,
        0,
        0,
        0,
        0,
        0,
        0,
        0,
        0,
        0,
        0,
        34,
        34,
        36,
        0,
        0,
        0,
        42,
        34,
        34,
        0,
        0,
        35,
        0,
        0,
        0,
        41,
        0,
        0,
        0,
        0,
        35,
        0,
        0,
        0,
        41,
        0,
        0
      ]
    },
    {
      "id": 3,
      "name": "02_contacts",
      "type": "tilelayer",
      "width": 9,
      "height": 9,
      "x": 0,
      "y": 0,
      "visible": true,
      "opacity": 1,
      "data": [
        0,
        0,
        0,
        89,
        81,
        83,
        0,
        0,
        0,
        0,
        0,
        0,
        89,
        81,
        83,
        0,
        0,
        0,
        0,
        0,
        0,
        89,
        81,
        83,
        0,
        0,
        0,
        82,
        82,
        82,
        81,
        81,
        81,
        82,
        82,
        82,
        81,
        81,
        81,
        81,
        81,
        81,
        81,
        81,
        81,
        85,
        85,
        85,
        81,
        81,
        81,
        85,
        85,
        85,
        0,
        0,
        0,
        89,
        81,
        83,
        0,
        0,
        0,
        0,
        0,
        0,
        89,
        81,
        83,
        0,
        0,
        0,
        0,
        0,
        0,
        89,
        81,
        83,
        0,
        0,
        0
      ]
    },
    {
      "id": 4,
      "name": "03_spirales",
      "type": "tilelayer",
      "width": 9,
      "height": 9,
      "x": 0,
      "y": 0,
      "visible": true,
      "opacity": 1,
      "data": [
        0,
        0,
        0,
        0,
        0,
        0,
        0,
        0,
        0,
        0,
        0,
        0,
        0,
        0,
        0,
        0,
        0,
        0,
        0,
        0,
        0,
        0,
        0,
        0,
        0,
        0,
        0,
        0,
        0,
        0,
        0,
        0,
        0,
        0,
        0,
        0,
        0,
        0,
        0,
        0,
        0,
        0,
        0,
        0,
        0,
        0,
        0,
        0,
        0,
        0,
        0,
        0,
        0,
        0,
        0,
        0,
        0,
        0,
        0,
        0,
        0,
        0,
        0,
        0,
        0,
        0,
        0,
        0,
        0,
        0,
        0,
        0,
        0,
        0,
        0,
        0,
        0,
        0,
        0,
        0,
        0
      ]
    },
    {
      "id": 5,
      "name": "04_ombres_objets",
      "type": "objectgroup",
      "draworder": "index",
      "visible": true,
      "opacity": 1,
      "objects": []
    },
    {
      "id": 6,
      "name": "05_objets",
      "type": "objectgroup",
      "draworder": "index",
      "visible": true,
      "opacity": 1,
      "objects": []
    }
  ],
  "tilesets": [
    {
      "firstgid": 1,
      "source": "../../tiled/parquet_nuit.tsj"
    },
    {
      "firstgid": 33,
      "source": "../../tiled/structure_nuit.tsj"
    },
    {
      "firstgid": 81,
      "source": "../../tiled/contacts_nuit.tsj"
    },
    {
      "firstgid": 97,
      "source": "../../tiled/spirales_nuit.tsj"
    },
    {
      "firstgid": 161,
      "source": "../../tiled/objets_nuit.tsj"
    },
    {
      "firstgid": 181,
      "source": "../../tiled/ombres_objets_nuit.tsj"
    }
  ]
}
