{
  "type": "map",
  "version": "1.10",
  "orientation": "orthogonal",
  "renderorder": "right-down",
  "infinite": false,
  "tilewidth": 32,
  "tileheight": 32,
  "width": 16,
  "height": 15,
  "nextlayerid": 14,
  "nextobjectid": 60,
  "layers": [
    {
      "id": 1,
      "name": "00_fond_immersion",
      "visible": true,
      "opacity": 1,
      "properties": [
        {
          "name": "role",
          "type": "string",
          "value": "Fond d’immersion"
        }
      ],
      "type": "tilelayer",
      "width": 16,
      "height": 15,
      "x": 0,
      "y": 0,
      "data": [
        1,
        1,
        1,
        1,
        1,
        1,
        1,
        0,
        0,
        0,
        1,
        1,
        1,
        1,
        1,
        1,
        1,
        1,
        1,
        1,
        1,
        1,
        1,
        0,
        0,
        0,
        1,
        1,
        1,
        1,
        1,
        1,
        1,
        1,
        1,
        1,
        1,
        1,
        1,
        0,
        0,
        0,
        1,
        1,
        1,
        1,
        1,
        1,
        1,
        1,
        1,
        1,
        1,
        1,
        1,
        0,
        0,
        0,
        1,
        1,
        1,
        1,
        1,
        1,
        1,
        1,
        1,
        1,
        1,
        1,
        2,
        0,
        0,
        0,
        0,
        0,
        3,
        1,
        1,
        1,
        1,
        1,
        1,
        6,
        7,
        0,
        0,
        0,
        0,
        0,
        0,
        0,
        0,
        18,
        1,
        1,
        1,
        1,
        1,
        7,
        0,
        0,
        0,
        0,
        0,
        0,
        0,
        0,
        0,
        15,
        1,
        1,
        1,
        1,
        1,
        0,
        0,
        0,
        0,
        0,
        0,
        0,
        0,
        0,
        0,
        0,
        0,
        0,
        1,
        1,
        1,
        0,
        0,
        0,
        0,
        0,
        0,
        0,
        0,
        0,
        0,
        0,
        0,
        0,
        1,
        1,
        1,
        0,
        0,
        0,
        0,
        0,
        0,
        0,
        0,
        0,
        0,
        0,
        0,
        0,
        1,
        1,
        1,
        0,
        0,
        0,
        0,
        0,
        0,
        0,
        0,
        0,
        0,
        15,
        1,
        1,
        1,
        1,
        1,
        11,
        0,
        0,
        0,
        0,
        0,
        0,
        0,
        0,
        0,
        17,
        1,
        1,
        1,
        1,
        1,
        10,
        11,
        0,
        0,
        0,
        0,
        0,
        0,
        0,
        5,
        1,
        1,
        1,
        1,
        1,
        1,
        1,
        1,
        1,
        1,
        1,
        1,
        1,
        1,
        1,
        1,
        1,
        1,
        1,
        1,
        1,
        1,
        1,
        1,
        1,
        1,
        1,
        1,
        1,
        1,
        1,
        1,
        1,
        1,
        1
      ]
    },
    {
      "id": 2,
      "name": "01_soubassement",
      "visible": true,
      "opacity": 1,
      "properties": [
        {
          "name": "role",
          "type": "string",
          "value": "Soubassement d’écorce"
        }
      ],
      "type": "tilelayer",
      "width": 16,
      "height": 15,
      "x": 0,
      "y": 0,
      "data": [
        0,
        0,
        0,
        0,
        0,
        0,
        154,
        0,
        0,
        0,
        155,
        0,
        0,
        0,
        0,
        0,
        0,
        0,
        0,
        0,
        0,
        0,
        156,
        0,
        0,
        0,
        157,
        0,
        0,
        0,
        0,
        0,
        0,
        0,
        0,
        0,
        0,
        0,
        158,
        0,
        0,
        0,
        159,
        0,
        0,
        0,
        0,
        0,
        0,
        0,
        0,
        0,
        0,
        0,
        314,
        0,
        0,
        0,
        315,
        316,
        317,
        0,
        0,
        0,
        0,
        0,
        0,
        318,
        319,
        320,
        321,
        0,
        0,
        0,
        0,
        0,
        322,
        323,
        0,
        0,
        0,
        0,
        324,
        325,
        114,
        0,
        0,
        0,
        0,
        0,
        0,
        0,
        0,
        326,
        327,
        0,
        0,
        0,
        328,
        253,
        0,
        0,
        0,
        0,
        0,
        0,
        0,
        0,
        0,
        329,
        330,
        178,
        0,
        0,
        81,
        0,
        0,
        0,
        0,
        0,
        0,
        0,
        0,
        0,
        0,
        0,
        0,
        0,
        0,
        0,
        83,
        0,
        0,
        0,
        0,
        0,
        0,
        0,
        0,
        0,
        0,
        0,
        0,
        0,
        0,
        0,
        331,
        0,
        0,
        0,
        0,
        0,
        0,
        0,
        0,
        0,
        0,
        0,
        0,
        0,
        0,
        0,
        332,
        0,
        0,
        0,
        0,
        0,
        0,
        0,
        0,
        0,
        0,
        333,
        334,
        191,
        0,
        0,
        335,
        336,
        0,
        0,
        0,
        0,
        0,
        0,
        0,
        0,
        0,
        337,
        338,
        0,
        0,
        0,
        339,
        340,
        341,
        0,
        0,
        0,
        0,
        0,
        0,
        0,
        342,
        343,
        0,
        0,
        0,
        0,
        0,
        344,
        345,
        346,
        347,
        348,
        349,
        350,
        351,
        352,
        353,
        0,
        0,
        0,
        0,
        0,
        0,
        0,
        0,
        0,
        0,
        0,
        0,
        0,
        0,
        0,
        0,
        0,
        0,
        0
      ]
    },
    {
      "id": 3,
      "name": "02_feuillage_arriere",
      "visible": true,
      "opacity": 1,
      "properties": [
        {
          "name": "role",
          "type": "string",
          "value": "Feuillage arrière"
        }
      ],
      "type": "objectgroup",
      "draworder": "index",
      "objects": [
        {
          "id": 1,
          "name": "canopée_1",
          "gid": 369,
          "x": 320,
          "y": 77,
          "width": 64,
          "height": 36,
          "rotation": 0,
          "visible": true
        },
        {
          "id": 2,
          "name": "canopée_2",
          "gid": 370,
          "x": 387,
          "y": 101,
          "width": 58,
          "height": 43,
          "rotation": 0,
          "visible": true
        },
        {
          "id": 3,
          "name": "canopée_2",
          "gid": 370,
          "x": 49,
          "y": 314,
          "width": 58,
          "height": 43,
          "rotation": 0,
          "visible": true
        },
        {
          "id": 4,
          "name": "canopée_3",
          "gid": 371,
          "x": 49,
          "y": 261,
          "width": 58,
          "height": 43,
          "rotation": 0,
          "visible": true
        },
        {
          "id": 5,
          "name": "canopée_0",
          "gid": 374,
          "x": 46,
          "y": 208,
          "width": 64,
          "height": 36,
          "rotation": 0,
          "visible": true
        },
        {
          "id": 6,
          "name": "canopée_3",
          "gid": 371,
          "x": 83,
          "y": 133,
          "width": 58,
          "height": 43,
          "rotation": 0,
          "visible": true
        },
        {
          "id": 7,
          "name": "canopée_0",
          "gid": 374,
          "x": 136,
          "y": 109,
          "width": 64,
          "height": 36,
          "rotation": 0,
          "visible": true
        },
        {
          "id": 8,
          "name": "canopée_1",
          "gid": 369,
          "x": 168,
          "y": 93,
          "width": 64,
          "height": 36,
          "rotation": 0,
          "visible": true
        }
      ]
    },
    {
      "id": 4,
      "name": "03_parquet",
      "visible": true,
      "opacity": 1,
      "properties": [
        {
          "name": "role",
          "type": "string",
          "value": "Parquet"
        }
      ],
      "type": "tilelayer",
      "width": 16,
      "height": 15,
      "x": 0,
      "y": 0,
      "data": [
        0,
        0,
        0,
        0,
        0,
        0,
        0,
        391,
        392,
        380,
        0,
        0,
        0,
        0,
        0,
        0,
        0,
        0,
        0,
        0,
        0,
        0,
        0,
        388,
        389,
        390,
        0,
        0,
        0,
        0,
        0,
        0,
        0,
        0,
        0,
        0,
        0,
        0,
        0,
        385,
        386,
        387,
        0,
        0,
        0,
        0,
        0,
        0,
        0,
        0,
        0,
        0,
        0,
        0,
        0,
        394,
        395,
        396,
        0,
        0,
        0,
        0,
        0,
        0,
        0,
        0,
        0,
        0,
        0,
        0,
        453,
        382,
        383,
        393,
        394,
        395,
        454,
        0,
        0,
        0,
        0,
        0,
        0,
        455,
        456,
        390,
        391,
        392,
        380,
        381,
        382,
        383,
        393,
        457,
        0,
        0,
        0,
        0,
        0,
        458,
        386,
        387,
        388,
        389,
        390,
        391,
        392,
        380,
        381,
        459,
        0,
        0,
        0,
        0,
        0,
        394,
        395,
        396,
        385,
        386,
        387,
        388,
        389,
        390,
        391,
        392,
        380,
        381,
        0,
        0,
        0,
        382,
        383,
        393,
        394,
        395,
        396,
        385,
        386,
        387,
        388,
        389,
        390,
        391,
        0,
        0,
        0,
        392,
        380,
        381,
        382,
        383,
        393,
        394,
        395,
        396,
        385,
        386,
        387,
        388,
        0,
        0,
        0,
        389,
        390,
        391,
        392,
        380,
        381,
        382,
        383,
        393,
        394,
        446,
        0,
        0,
        0,
        0,
        0,
        460,
        387,
        388,
        389,
        390,
        391,
        392,
        380,
        381,
        382,
        461,
        0,
        0,
        0,
        0,
        0,
        462,
        463,
        385,
        386,
        387,
        388,
        389,
        390,
        391,
        464,
        0,
        0,
        0,
        0,
        0,
        0,
        0,
        0,
        0,
        0,
        0,
        0,
        0,
        0,
        0,
        0,
        0,
        0,
        0,
        0,
        0,
        0,
        0,
        0,
        0,
        0,
        0,
        0,
        0,
        0,
        0,
        0,
        0,
        0,
        0
      ]
    },
    {
      "id": 5,
      "name": "04_murs_fond",
      "visible": true,
      "opacity": 1,
      "properties": [
        {
          "name": "role",
          "type": "string",
          "value": "Panneaux du fond"
        }
      ],
      "type": "objectgroup",
      "draworder": "index",
      "objects": [
        {
          "id": 9,
          "name": "murs_fond_64_0",
          "gid": 475,
          "x": 317,
          "y": 133,
          "width": 72,
          "height": 72,
          "rotation": 0,
          "visible": true
        },
        {
          "id": 10,
          "name": "murs_fond_40_0",
          "gid": 479,
          "x": 429,
          "y": 229,
          "width": 48,
          "height": 72,
          "rotation": 0,
          "visible": true
        },
        {
          "id": 11,
          "name": "murs_fond_40_0",
          "gid": 479,
          "x": 469,
          "y": 229,
          "width": 48,
          "height": 72,
          "rotation": 0,
          "visible": true
        },
        {
          "id": 12,
          "name": "murs_fond_48_0",
          "gid": 476,
          "x": 141,
          "y": 165,
          "width": 56,
          "height": 72,
          "rotation": 0,
          "visible": true
        }
      ]
    },
    {
      "id": 6,
      "name": "05_murs_retours",
      "visible": true,
      "opacity": 1,
      "properties": [
        {
          "name": "role",
          "type": "string",
          "value": "Murs de retour"
        }
      ],
      "type": "objectgroup",
      "draworder": "index",
      "objects": [
        {
          "id": 13,
          "name": "murs_retours_0_64",
          "gid": 486,
          "x": 317,
          "y": 69,
          "width": 32,
          "height": 112,
          "rotation": 0,
          "visible": true
        },
        {
          "id": 14,
          "name": "murs_retours_0_64",
          "gid": 486,
          "x": 317,
          "y": 133,
          "width": 32,
          "height": 112,
          "rotation": 0,
          "visible": true
        },
        {
          "id": 15,
          "name": "murs_fond_48_48",
          "gid": 501,
          "x": 381,
          "y": 181,
          "width": 64,
          "height": 120,
          "rotation": 0,
          "visible": true
        },
        {
          "id": 16,
          "name": "murs_retours_0_48",
          "gid": 499,
          "x": 429,
          "y": 229,
          "width": 32,
          "height": 96,
          "rotation": 0,
          "visible": true
        },
        {
          "id": 17,
          "name": "murs_retours_0_48",
          "gid": 511,
          "x": 429,
          "y": 373,
          "width": 32,
          "height": 96,
          "rotation": 0,
          "visible": true
        },
        {
          "id": 18,
          "name": "murs_retours_0_-53",
          "gid": 500,
          "x": 75,
          "y": 376,
          "width": 32,
          "height": 104,
          "rotation": 0,
          "visible": true
        },
        {
          "id": 19,
          "name": "murs_retours_0_-53",
          "gid": 500,
          "x": 75,
          "y": 323,
          "width": 32,
          "height": 104,
          "rotation": 0,
          "visible": true
        },
        {
          "id": 20,
          "name": "murs_retours_0_-53",
          "gid": 500,
          "x": 75,
          "y": 269,
          "width": 32,
          "height": 104,
          "rotation": 0,
          "visible": true
        },
        {
          "id": 21,
          "name": "murs_fond_48_-48",
          "gid": 506,
          "x": 85,
          "y": 213,
          "width": 64,
          "height": 120,
          "rotation": 0,
          "visible": true
        },
        {
          "id": 22,
          "name": "murs_fond_32_-32",
          "gid": 480,
          "x": 181,
          "y": 165,
          "width": 48,
          "height": 104,
          "rotation": 0,
          "visible": true
        },
        {
          "id": 23,
          "name": "murs_retours_0_-64",
          "gid": 488,
          "x": 203,
          "y": 133,
          "width": 32,
          "height": 112,
          "rotation": 0,
          "visible": true
        },
        {
          "id": 24,
          "name": "murs_retours_0_-64",
          "gid": 488,
          "x": 203,
          "y": 69,
          "width": 32,
          "height": 112,
          "rotation": 0,
          "visible": true
        },
        {
          "id": 25,
          "name": "joint_de_panneaux",
          "gid": 509,
          "x": 318,
          "y": 134,
          "width": 24,
          "height": 72,
          "rotation": 0,
          "visible": true
        },
        {
          "id": 26,
          "name": "joint_de_panneaux",
          "gid": 484,
          "x": 382,
          "y": 134,
          "width": 16,
          "height": 72,
          "rotation": 0,
          "visible": true
        },
        {
          "id": 27,
          "name": "joint_de_panneaux",
          "gid": 491,
          "x": 430,
          "y": 182,
          "width": 24,
          "height": 72,
          "rotation": 0,
          "visible": true
        },
        {
          "id": 28,
          "name": "joint_de_panneaux",
          "gid": 509,
          "x": 430,
          "y": 230,
          "width": 24,
          "height": 72,
          "rotation": 0,
          "visible": true
        },
        {
          "id": 29,
          "name": "joint_de_panneaux",
          "gid": 492,
          "x": 76,
          "y": 214,
          "width": 24,
          "height": 72,
          "rotation": 0,
          "visible": true
        },
        {
          "id": 30,
          "name": "joint_de_panneaux",
          "gid": 483,
          "x": 134,
          "y": 166,
          "width": 16,
          "height": 72,
          "rotation": 0,
          "visible": true
        },
        {
          "id": 31,
          "name": "joint_de_panneaux",
          "gid": 482,
          "x": 182,
          "y": 166,
          "width": 16,
          "height": 72,
          "rotation": 0,
          "visible": true
        },
        {
          "id": 32,
          "name": "joint_de_panneaux",
          "gid": 493,
          "x": 204,
          "y": 134,
          "width": 24,
          "height": 72,
          "rotation": 0,
          "visible": true
        }
      ]
    },
    {
      "id": 7,
      "name": "06_ombres_contact",
      "visible": true,
      "opacity": 1,
      "properties": [
        {
          "name": "role",
          "type": "string",
          "value": "Ombres de contact"
        }
      ],
      "type": "tilelayer",
      "width": 16,
      "height": 15,
      "x": 0,
      "y": 0,
      "data": [
        0,
        0,
        0,
        0,
        0,
        0,
        0,
        527,
        0,
        528,
        0,
        0,
        0,
        0,
        0,
        0,
        0,
        0,
        0,
        0,
        0,
        0,
        0,
        527,
        0,
        528,
        0,
        0,
        0,
        0,
        0,
        0,
        0,
        0,
        0,
        0,
        0,
        0,
        0,
        527,
        0,
        528,
        0,
        0,
        0,
        0,
        0,
        0,
        0,
        0,
        0,
        0,
        0,
        0,
        0,
        529,
        0,
        530,
        0,
        0,
        0,
        0,
        0,
        0,
        0,
        0,
        0,
        0,
        0,
        0,
        513,
        531,
        0,
        571,
        515,
        516,
        517,
        0,
        0,
        0,
        0,
        0,
        0,
        539,
        567,
        515,
        518,
        0,
        0,
        0,
        0,
        0,
        549,
        582,
        0,
        0,
        0,
        0,
        0,
        541,
        542,
        0,
        0,
        0,
        0,
        0,
        0,
        0,
        0,
        583,
        0,
        0,
        0,
        0,
        0,
        527,
        0,
        0,
        0,
        0,
        0,
        0,
        0,
        0,
        0,
        584,
        515,
        515,
        0,
        0,
        0,
        527,
        0,
        0,
        0,
        0,
        0,
        0,
        0,
        0,
        0,
        0,
        0,
        0,
        0,
        0,
        0,
        527,
        0,
        0,
        0,
        0,
        0,
        0,
        0,
        0,
        0,
        585,
        520,
        520,
        0,
        0,
        0,
        527,
        0,
        0,
        0,
        0,
        0,
        0,
        0,
        0,
        0,
        575,
        0,
        0,
        0,
        0,
        0,
        586,
        0,
        0,
        0,
        0,
        0,
        0,
        0,
        0,
        578,
        579,
        0,
        0,
        0,
        0,
        0,
        552,
        553,
        520,
        520,
        520,
        520,
        520,
        520,
        525,
        526,
        0,
        0,
        0,
        0,
        0,
        0,
        0,
        0,
        0,
        0,
        0,
        0,
        0,
        0,
        0,
        0,
        0,
        0,
        0,
        0,
        0,
        0,
        0,
        0,
        0,
        0,
        0,
        0,
        0,
        0,
        0,
        0,
        0,
        0,
        0
      ]
    },
    {
      "id": 8,
      "name": "07_reflets_seuils",
      "visible": true,
      "opacity": 1,
      "properties": [
        {
          "name": "role",
          "type": "string",
          "value": "Reflets des seuils"
        }
      ],
      "type": "tilelayer",
      "width": 16,
      "height": 15,
      "x": 0,
      "y": 0,
      "data": [
        0,
        0,
        0,
        0,
        0,
        0,
        0,
        597,
        0,
        598,
        0,
        0,
        0,
        0,
        0,
        0,
        0,
        0,
        0,
        0,
        0,
        0,
        0,
        0,
        0,
        0,
        0,
        0,
        0,
        0,
        0,
        0,
        0,
        0,
        0,
        0,
        0,
        0,
        0,
        0,
        0,
        0,
        0,
        0,
        0,
        0,
        0,
        0,
        0,
        0,
        0,
        0,
        0,
        0,
        0,
        0,
        0,
        0,
        0,
        0,
        0,
        0,
        0,
        0,
        0,
        0,
        0,
        0,
        0,
        0,
        0,
        0,
        0,
        0,
        0,
        0,
        0,
        0,
        0,
        0,
        0,
        0,
        0,
        0,
        0,
        0,
        0,
        0,
        0,
        0,
        0,
        0,
        0,
        0,
        0,
        0,
        0,
        0,
        0,
        0,
        0,
        0,
        0,
        0,
        0,
        0,
        0,
        0,
        0,
        0,
        0,
        0,
        0,
        0,
        0,
        0,
        0,
        0,
        0,
        0,
        0,
        0,
        0,
        0,
        0,
        0,
        0,
        594,
        0,
        0,
        0,
        0,
        0,
        0,
        0,
        0,
        0,
        0,
        0,
        0,
        0,
        0,
        0,
        0,
        0,
        0,
        0,
        0,
        0,
        0,
        0,
        0,
        0,
        0,
        0,
        0,
        0,
        0,
        0,
        596,
        0,
        0,
        0,
        0,
        0,
        0,
        0,
        0,
        0,
        0,
        0,
        0,
        0,
        0,
        0,
        0,
        0,
        0,
        0,
        0,
        0,
        0,
        0,
        0,
        0,
        0,
        0,
        0,
        0,
        0,
        0,
        0,
        0,
        0,
        0,
        0,
        0,
        0,
        0,
        0,
        0,
        0,
        0,
        0,
        0,
        0,
        0,
        0,
        0,
        0,
        0,
        0,
        0,
        0,
        0,
        0,
        0,
        0,
        0,
        0,
        0,
        0,
        0,
        0,
        0,
        0,
        0,
        0,
        0,
        0,
        0,
        0,
        0,
        0,
        0,
        0,
        0,
        0,
        0,
        0
      ]
    },
    {
      "id": 9,
      "name": "08_spirales",
      "visible": true,
      "opacity": 1,
      "properties": [
        {
          "name": "role",
          "type": "string",
          "value": "Traces spiralées"
        }
      ],
      "type": "objectgroup",
      "draworder": "index",
      "objects": [
        {
          "id": 33,
          "name": "spirale_11",
          "gid": 883,
          "x": 240,
          "y": 272,
          "width": 64,
          "height": 64,
          "rotation": 0,
          "visible": true
        }
      ]
    },
    {
      "id": 10,
      "name": "09_ombres_objets",
      "visible": true,
      "opacity": 1,
      "properties": [
        {
          "name": "role",
          "type": "string",
          "value": "Ombres des objets"
        }
      ],
      "type": "objectgroup",
      "draworder": "index",
      "objects": [
        {
          "id": 34,
          "name": "banniere_guilde",
          "gid": 890,
          "x": 334,
          "y": 120,
          "width": 40,
          "height": 48,
          "rotation": 0,
          "visible": true
        },
        {
          "id": 35,
          "name": "tapis_mousse",
          "gid": 908,
          "x": 236,
          "y": 332,
          "width": 72,
          "height": 64,
          "rotation": 0,
          "visible": true
        },
        {
          "id": 36,
          "name": "nid_paille",
          "gid": 893,
          "x": 130,
          "y": 266,
          "width": 56,
          "height": 40,
          "rotation": 0,
          "visible": true
        },
        {
          "id": 37,
          "name": "nid_mousse",
          "gid": 894,
          "x": 351,
          "y": 374,
          "width": 56,
          "height": 40,
          "rotation": 0,
          "visible": true
        },
        {
          "id": 38,
          "name": "paillasses_roulees",
          "gid": 902,
          "x": 149,
          "y": 379,
          "width": 48,
          "height": 40,
          "rotation": 0,
          "visible": true
        },
        {
          "id": 39,
          "name": "seau_bois",
          "gid": 903,
          "x": 373,
          "y": 228,
          "width": 32,
          "height": 32,
          "rotation": 0,
          "visible": true
        }
      ]
    },
    {
      "id": 11,
      "name": "10_objets",
      "visible": true,
      "opacity": 1,
      "properties": [
        {
          "name": "role",
          "type": "string",
          "value": "Objets et tentures"
        }
      ],
      "type": "objectgroup",
      "draworder": "index",
      "objects": [
        {
          "id": 40,
          "name": "banniere_guilde",
          "gid": 910,
          "x": 334,
          "y": 120,
          "width": 40,
          "height": 48,
          "rotation": 0,
          "visible": true
        },
        {
          "id": 41,
          "name": "tapis_mousse",
          "gid": 928,
          "x": 236,
          "y": 332,
          "width": 72,
          "height": 64,
          "rotation": 0,
          "visible": true
        },
        {
          "id": 42,
          "name": "nid_paille",
          "gid": 913,
          "x": 130,
          "y": 266,
          "width": 56,
          "height": 40,
          "rotation": 0,
          "visible": true
        },
        {
          "id": 43,
          "name": "nid_mousse",
          "gid": 914,
          "x": 351,
          "y": 374,
          "width": 56,
          "height": 40,
          "rotation": 0,
          "visible": true
        },
        {
          "id": 44,
          "name": "paillasses_roulees",
          "gid": 922,
          "x": 149,
          "y": 379,
          "width": 48,
          "height": 40,
          "rotation": 0,
          "visible": true
        },
        {
          "id": 45,
          "name": "seau_bois",
          "gid": 923,
          "x": 373,
          "y": 228,
          "width": 32,
          "height": 32,
          "rotation": 0,
          "visible": true
        }
      ]
    },
    {
      "id": 12,
      "name": "11_ecorce_racines_avant",
      "visible": true,
      "opacity": 1,
      "properties": [
        {
          "name": "role",
          "type": "string",
          "value": "Écorce et racines avant"
        }
      ],
      "type": "tilelayer",
      "width": 16,
      "height": 15,
      "x": 0,
      "y": 0,
      "data": [
        0,
        0,
        0,
        0,
        0,
        0,
        836,
        0,
        0,
        0,
        707,
        623,
        0,
        0,
        0,
        0,
        0,
        0,
        0,
        0,
        0,
        624,
        837,
        0,
        0,
        0,
        709,
        0,
        0,
        0,
        0,
        0,
        0,
        0,
        0,
        0,
        0,
        0,
        838,
        0,
        0,
        0,
        711,
        629,
        0,
        0,
        0,
        0,
        0,
        0,
        0,
        0,
        0,
        630,
        839,
        0,
        0,
        0,
        840,
        633,
        0,
        0,
        0,
        0,
        0,
        0,
        0,
        0,
        0,
        0,
        0,
        0,
        0,
        0,
        0,
        0,
        0,
        0,
        0,
        0,
        0,
        0,
        0,
        0,
        0,
        0,
        0,
        0,
        0,
        0,
        0,
        0,
        0,
        841,
        842,
        0,
        0,
        658,
        843,
        0,
        0,
        0,
        0,
        0,
        0,
        0,
        0,
        0,
        0,
        844,
        845,
        0,
        0,
        0,
        846,
        0,
        0,
        0,
        0,
        0,
        0,
        0,
        0,
        0,
        0,
        0,
        0,
        0,
        0,
        663,
        847,
        0,
        0,
        0,
        0,
        0,
        0,
        0,
        0,
        0,
        0,
        0,
        0,
        0,
        0,
        0,
        848,
        0,
        0,
        0,
        0,
        0,
        0,
        0,
        0,
        0,
        0,
        0,
        0,
        0,
        0,
        658,
        849,
        0,
        0,
        0,
        0,
        0,
        0,
        0,
        0,
        0,
        0,
        850,
        851,
        728,
        0,
        0,
        852,
        853,
        0,
        0,
        0,
        0,
        0,
        0,
        0,
        0,
        0,
        854,
        855,
        620,
        0,
        0,
        856,
        857,
        858,
        0,
        0,
        0,
        0,
        0,
        0,
        0,
        859,
        860,
        0,
        0,
        0,
        0,
        0,
        861,
        862,
        863,
        864,
        865,
        866,
        867,
        868,
        869,
        870,
        0,
        0,
        0,
        0,
        0,
        0,
        0,
        0,
        611,
        0,
        620,
        0,
        611,
        0,
        620,
        0,
        0,
        0,
        0
      ]
    },
    {
      "id": 13,
      "name": "12_feuillage_avant",
      "visible": true,
      "opacity": 1,
      "properties": [
        {
          "name": "role",
          "type": "string",
          "value": "Feuillage de premier plan"
        }
      ],
      "type": "objectgroup",
      "draworder": "index",
      "objects": [
        {
          "id": 46,
          "name": "bordure_végétale_1",
          "gid": 369,
          "x": 310,
          "y": 102,
          "width": 64,
          "height": 36,
          "rotation": 0,
          "visible": true
        },
        {
          "id": 47,
          "name": "retombée_1",
          "gid": 376,
          "x": 430,
          "y": 208,
          "width": 39,
          "height": 54,
          "rotation": 0,
          "visible": true
        },
        {
          "id": 48,
          "name": "bordure_végétale_5",
          "gid": 375,
          "x": 401,
          "y": 423,
          "width": 45,
          "height": 54,
          "rotation": 0,
          "visible": true
        },
        {
          "id": 49,
          "name": "bordure_végétale_0",
          "gid": 374,
          "x": 326,
          "y": 448,
          "width": 64,
          "height": 36,
          "rotation": 0,
          "visible": true
        },
        {
          "id": 50,
          "name": "bordure_végétale_1",
          "gid": 369,
          "x": 268,
          "y": 448,
          "width": 64,
          "height": 36,
          "rotation": 0,
          "visible": true
        },
        {
          "id": 51,
          "name": "bordure_végétale_2",
          "gid": 370,
          "x": 213,
          "y": 451,
          "width": 58,
          "height": 43,
          "rotation": 0,
          "visible": true
        },
        {
          "id": 52,
          "name": "bordure_végétale_3",
          "gid": 371,
          "x": 155,
          "y": 451,
          "width": 58,
          "height": 43,
          "rotation": 0,
          "visible": true
        },
        {
          "id": 53,
          "name": "bordure_végétale_3",
          "gid": 371,
          "x": 87,
          "y": 429,
          "width": 58,
          "height": 43,
          "rotation": 0,
          "visible": true
        },
        {
          "id": 54,
          "name": "retombée_0",
          "gid": 375,
          "x": 56,
          "y": 243,
          "width": 45,
          "height": 54,
          "rotation": 0,
          "visible": true
        },
        {
          "id": 55,
          "name": "bordure_végétale_6",
          "gid": 376,
          "x": 62,
          "y": 369,
          "width": 39,
          "height": 54,
          "rotation": 0,
          "visible": true
        },
        {
          "id": 56,
          "name": "bordure_végétale_7",
          "gid": 377,
          "x": 62,
          "y": 311,
          "width": 39,
          "height": 54,
          "rotation": 0,
          "visible": true
        },
        {
          "id": 57,
          "name": "bordure_végétale_0",
          "gid": 374,
          "x": 42,
          "y": 244,
          "width": 64,
          "height": 36,
          "rotation": 0,
          "visible": true
        },
        {
          "id": 58,
          "name": "retombée_0",
          "gid": 372,
          "x": 152,
          "y": 136,
          "width": 32,
          "height": 46,
          "rotation": 0,
          "visible": true
        },
        {
          "id": 59,
          "name": "bordure_végétale_2",
          "gid": 370,
          "x": 181,
          "y": 123,
          "width": 58,
          "height": 43,
          "rotation": 0,
          "visible": true
        }
      ]
    }
  ],
  "tilesets": [
    {
      "firstgid": 1,
      "source": "../../tiled/hallways_fond_jour.tsj"
    },
    {
      "firstgid": 33,
      "source": "../../tiled/hallways_soubassement_jour.tsj"
    },
    {
      "firstgid": 369,
      "source": "../../tiled/hallways_vegetation_jour.tsj"
    },
    {
      "firstgid": 379,
      "source": "../../tiled/hallways_sol_decoupe_jour.tsj"
    },
    {
      "firstgid": 475,
      "source": "../../tiled/hallways_murs_fond_jour.tsj"
    },
    {
      "firstgid": 480,
      "source": "../../tiled/hallways_murs_retours_jour.tsj"
    },
    {
      "firstgid": 513,
      "source": "../../tiled/hallways_contacts_jour.tsj"
    },
    {
      "firstgid": 593,
      "source": "../../tiled/hallways_reflets_jour.tsj"
    },
    {
      "firstgid": 601,
      "source": "../../tiled/hallways_ecorce_avant_jour.tsj"
    },
    {
      "firstgid": 873,
      "source": "../../tiled/hallways_motifs_jour.tsj"
    },
    {
      "firstgid": 889,
      "source": "../../tiled/hallways_ombres_objets_jour.tsj"
    },
    {
      "firstgid": 909,
      "source": "../../tiled/hallways_objets_jour.tsj"
    }
  ],
  "properties": [
    {
      "name": "architecture",
      "type": "string",
      "value": "panneaux verticaux + bordures d’immersion"
    }
  ]
}
