{
  "type": "map",
  "version": "1.10",
  "tiledversion": "1.11.0",
  "orientation": "orthogonal",
  "renderorder": "right-down",
  "tilewidth": 32,
  "tileheight": 32,
  "width": 11,
  "height": 11,
  "infinite": false,
  "nextlayerid": 7,
  "nextobjectid": 11,
  "layers": [
    {
      "id": 1,
      "name": "00_parquet",
      "type": "tilelayer",
      "width": 11,
      "height": 11,
      "x": 0,
      "y": 0,
      "visible": true,
      "opacity": 1,
      "data": [
        0,
        0,
        0,
        0,
        5,
        12,
        3,
        0,
        0,
        0,
        0,
        0,
        0,
        0,
        0,
        16,
        7,
        14,
        0,
        0,
        0,
        0,
        0,
        0,
        13,
        4,
        11,
        2,
        9,
        16,
        7,
        0,
        0,
        0,
        0,
        8,
        15,
        6,
        13,
        4,
        11,
        2,
        0,
        0,
        0,
        0,
        3,
        10,
        1,
        8,
        15,
        6,
        13,
        4,
        11,
        0,
        0,
        14,
        5,
        12,
        3,
        10,
        1,
        8,
        15,
        6,
        0,
        0,
        9,
        16,
        7,
        14,
        5,
        12,
        3,
        10,
        1,
        0,
        0,
        4,
        11,
        2,
        9,
        16,
        7,
        14,
        0,
        0,
        0,
        0,
        15,
        6,
        13,
        4,
        11,
        2,
        9,
        0,
        0,
        0,
        0,
        0,
        0,
        0,
        0,
        0,
        0,
        0,
        0,
        0,
        0,
        0,
        0,
        0,
        0,
        0,
        0,
        0,
        0,
        0,
        0
      ]
    },
    {
      "id": 2,
      "name": "01_structure",
      "type": "tilelayer",
      "width": 11,
      "height": 11,
      "x": 0,
      "y": 0,
      "visible": true,
      "opacity": 1,
      "data": [
        0,
        0,
        0,
        35,
        0,
        0,
        0,
        41,
        0,
        0,
        0,
        0,
        53,
        37,
        39,
        0,
        0,
        0,
        45,
        37,
        59,
        0,
        0,
        35,
        0,
        0,
        0,
        0,
        0,
        0,
        0,
        41,
        0,
        0,
        35,
        0,
        0,
        0,
        0,
        0,
        0,
        0,
        45,
        37,
        0,
        35,
        0,
        0,
        0,
        0,
        0,
        0,
        0,
        0,
        0,
        0,
        35,
        0,
        0,
        0,
        0,
        0,
        0,
        0,
        0,
        0,
        0,
        35,
        0,
        0,
        0,
        0,
        0,
        0,
        0,
        0,
        0,
        0,
        35,
        0,
        0,
        0,
        0,
        0,
        0,
        0,
        42,
        34,
        0,
        35,
        0,
        0,
        0,
        0,
        0,
        0,
        0,
        41,
        0,
        0,
        49,
        34,
        34,
        34,
        34,
        34,
        34,
        34,
        67,
        0,
        0,
        0,
        0,
        0,
        0,
        0,
        0,
        0,
        0,
        0,
        0
      ]
    },
    {
      "id": 3,
      "name": "02_contacts",
      "type": "tilelayer",
      "width": 11,
      "height": 11,
      "x": 0,
      "y": 0,
      "visible": true,
      "opacity": 1,
      "data": [
        0,
        0,
        0,
        0,
        89,
        81,
        83,
        0,
        0,
        0,
        0,
        0,
        0,
        0,
        0,
        89,
        81,
        83,
        0,
        0,
        0,
        0,
        0,
        0,
        90,
        82,
        81,
        81,
        81,
        82,
        84,
        0,
        0,
        0,
        0,
        89,
        81,
        81,
        81,
        81,
        81,
        83,
        0,
        0,
        0,
        0,
        89,
        81,
        81,
        81,
        81,
        81,
        81,
        82,
        82,
        0,
        0,
        89,
        81,
        81,
        81,
        81,
        81,
        81,
        81,
        81,
        0,
        0,
        89,
        81,
        81,
        81,
        81,
        81,
        81,
        85,
        85,
        0,
        0,
        89,
        81,
        81,
        81,
        81,
        81,
        83,
        0,
        0,
        0,
        0,
        93,
        85,
        85,
        85,
        85,
        85,
        87,
        0,
        0,
        0,
        0,
        0,
        0,
        0,
        0,
        0,
        0,
        0,
        0,
        0,
        0,
        0,
        0,
        0,
        0,
        0,
        0,
        0,
        0,
        0,
        0
      ]
    },
    {
      "id": 4,
      "name": "03_spirales",
      "type": "tilelayer",
      "width": 11,
      "height": 11,
      "x": 0,
      "y": 0,
      "visible": true,
      "opacity": 1,
      "data": [
        0,
        0,
        0,
        0,
        0,
        0,
        0,
        0,
        0,
        0,
        0,
        0,
        0,
        0,
        0,
        0,
        0,
        0,
        0,
        0,
        0,
        0,
        0,
        0,
        0,
        0,
        0,
        0,
        0,
        0,
        0,
        0,
        0,
        0,
        0,
        0,
        0,
        133,
        134,
        0,
        0,
        0,
        0,
        0,
        0,
        0,
        0,
        0,
        141,
        142,
        0,
        0,
        0,
        0,
        0,
        0,
        0,
        0,
        0,
        0,
        0,
        0,
        0,
        0,
        0,
        0,
        0,
        0,
        0,
        0,
        0,
        0,
        0,
        0,
        0,
        0,
        0,
        0,
        0,
        0,
        0,
        0,
        0,
        0,
        0,
        0,
        0,
        0,
        0,
        0,
        0,
        0,
        0,
        0,
        0,
        0,
        0,
        0,
        0,
        0,
        0,
        0,
        0,
        0,
        0,
        0,
        0,
        0,
        0,
        0,
        0,
        0,
        0,
        0,
        0,
        0,
        0,
        0,
        0,
        0,
        0
      ]
    },
    {
      "id": 5,
      "name": "04_ombres_objets",
      "type": "objectgroup",
      "draworder": "index",
      "visible": true,
      "opacity": 1,
      "objects": [
        {
          "id": 1,
          "name": "tapis_mousse",
          "gid": 200,
          "x": 140,
          "y": 224,
          "width": 72,
          "height": 64,
          "rotation": 0,
          "visible": true
        },
        {
          "id": 2,
          "name": "nid_paille",
          "gid": 185,
          "x": 72,
          "y": 131,
          "width": 56,
          "height": 40,
          "rotation": 0,
          "visible": true
        },
        {
          "id": 3,
          "name": "nid_mousse",
          "gid": 186,
          "x": 216,
          "y": 264,
          "width": 56,
          "height": 40,
          "rotation": 0,
          "visible": true
        },
        {
          "id": 4,
          "name": "paillasses_roulees",
          "gid": 194,
          "x": 90,
          "y": 263,
          "width": 48,
          "height": 40,
          "rotation": 0,
          "visible": true
        },
        {
          "id": 5,
          "name": "seau_bois",
          "gid": 195,
          "x": 237,
          "y": 121,
          "width": 32,
          "height": 32,
          "rotation": 0,
          "visible": true
        }
      ]
    },
    {
      "id": 6,
      "name": "05_objets",
      "type": "objectgroup",
      "draworder": "index",
      "visible": true,
      "opacity": 1,
      "objects": [
        {
          "id": 6,
          "name": "tapis_mousse",
          "gid": 180,
          "x": 140,
          "y": 224,
          "width": 72,
          "height": 64,
          "rotation": 0,
          "visible": true
        },
        {
          "id": 7,
          "name": "nid_paille",
          "gid": 165,
          "x": 72,
          "y": 131,
          "width": 56,
          "height": 40,
          "rotation": 0,
          "visible": true
        },
        {
          "id": 8,
          "name": "nid_mousse",
          "gid": 166,
          "x": 216,
          "y": 264,
          "width": 56,
          "height": 40,
          "rotation": 0,
          "visible": true
        },
        {
          "id": 9,
          "name": "paillasses_roulees",
          "gid": 174,
          "x": 90,
          "y": 263,
          "width": 48,
          "height": 40,
          "rotation": 0,
          "visible": true
        },
        {
          "id": 10,
          "name": "seau_bois",
          "gid": 175,
          "x": 237,
          "y": 121,
          "width": 32,
          "height": 32,
          "rotation": 0,
          "visible": true
        }
      ]
    }
  ],
  "tilesets": [
    {
      "firstgid": 1,
      "source": "../../tiled/parquet_nuit.tsj"
    },
    {
      "firstgid": 33,
      "source": "../../tiled/structure_nuit.tsj"
    },
    {
      "firstgid": 81,
      "source": "../../tiled/contacts_nuit.tsj"
    },
    {
      "firstgid": 97,
      "source": "../../tiled/spirales_nuit.tsj"
    },
    {
      "firstgid": 161,
      "source": "../../tiled/objets_nuit.tsj"
    },
    {
      "firstgid": 181,
      "source": "../../tiled/ombres_objets_nuit.tsj"
    }
  ]
}
