{
  "type": "map",
  "version": "1.10",
  "orientation": "orthogonal",
  "renderorder": "right-down",
  "infinite": false,
  "tilewidth": 32,
  "tileheight": 32,
  "width": 12,
  "height": 12,
  "nextlayerid": 14,
  "nextobjectid": 36,
  "layers": [
    {
      "id": 1,
      "name": "00_fond_immersion",
      "visible": true,
      "opacity": 1,
      "properties": [
        {
          "name": "role",
          "type": "string",
          "value": "Fond d’immersion"
        }
      ],
      "type": "tilelayer",
      "width": 12,
      "height": 12,
      "x": 0,
      "y": 0,
      "data": [
        1,
        1,
        1,
        1,
        1,
        1,
        1,
        1,
        1,
        1,
        1,
        1,
        1,
        1,
        1,
        1,
        1,
        1,
        1,
        1,
        1,
        1,
        1,
        1,
        1,
        1,
        1,
        1,
        1,
        1,
        1,
        1,
        1,
        1,
        1,
        1,
        1,
        1,
        1,
        1,
        2,
        0,
        0,
        3,
        1,
        1,
        1,
        1,
        0,
        0,
        0,
        0,
        0,
        0,
        0,
        0,
        1,
        1,
        1,
        1,
        0,
        0,
        0,
        0,
        0,
        0,
        0,
        0,
        1,
        1,
        1,
        1,
        0,
        0,
        0,
        0,
        0,
        0,
        0,
        8,
        1,
        1,
        1,
        1,
        1,
        1,
        1,
        4,
        0,
        0,
        0,
        9,
        1,
        1,
        1,
        1,
        1,
        1,
        1,
        1,
        0,
        0,
        0,
        1,
        1,
        1,
        1,
        1,
        1,
        1,
        1,
        1,
        0,
        0,
        0,
        1,
        1,
        1,
        1,
        1,
        1,
        1,
        1,
        1,
        0,
        0,
        0,
        1,
        1,
        1,
        1,
        1,
        1,
        1,
        1,
        1,
        0,
        0,
        0,
        1,
        1,
        1,
        1,
        1
      ]
    },
    {
      "id": 2,
      "name": "01_soubassement",
      "visible": true,
      "opacity": 1,
      "properties": [
        {
          "name": "role",
          "type": "string",
          "value": "Soubassement d’écorce"
        }
      ],
      "type": "tilelayer",
      "width": 12,
      "height": 12,
      "x": 0,
      "y": 0,
      "data": [
        0,
        0,
        0,
        0,
        0,
        0,
        0,
        0,
        0,
        0,
        0,
        0,
        0,
        0,
        0,
        0,
        0,
        0,
        0,
        0,
        0,
        0,
        0,
        0,
        0,
        0,
        0,
        0,
        128,
        129,
        130,
        131,
        0,
        0,
        0,
        0,
        132,
        133,
        134,
        135,
        136,
        0,
        0,
        137,
        138,
        0,
        0,
        0,
        0,
        0,
        0,
        0,
        0,
        0,
        0,
        0,
        139,
        0,
        0,
        0,
        0,
        0,
        0,
        0,
        0,
        0,
        0,
        0,
        78,
        0,
        0,
        0,
        0,
        0,
        0,
        0,
        0,
        0,
        0,
        140,
        141,
        0,
        0,
        0,
        142,
        143,
        144,
        145,
        0,
        0,
        0,
        146,
        147,
        0,
        0,
        0,
        0,
        0,
        0,
        148,
        0,
        0,
        0,
        149,
        0,
        0,
        0,
        0,
        0,
        0,
        0,
        150,
        0,
        0,
        0,
        151,
        0,
        0,
        0,
        0,
        0,
        0,
        0,
        152,
        0,
        0,
        0,
        153,
        0,
        0,
        0,
        0,
        0,
        0,
        0,
        91,
        0,
        0,
        0,
        92,
        0,
        0,
        0,
        0
      ]
    },
    {
      "id": 3,
      "name": "02_feuillage_arriere",
      "visible": true,
      "opacity": 1,
      "properties": [
        {
          "name": "role",
          "type": "string",
          "value": "Feuillage arrière"
        }
      ],
      "type": "objectgroup",
      "draworder": "index",
      "objects": [
        {
          "id": 1,
          "name": "canopée_0",
          "gid": 374,
          "x": 78,
          "y": 325,
          "width": 64,
          "height": 36,
          "rotation": 0,
          "visible": true
        },
        {
          "id": 2,
          "name": "canopée_1",
          "gid": 369,
          "x": 78,
          "y": 261,
          "width": 64,
          "height": 36,
          "rotation": 0,
          "visible": true
        },
        {
          "id": 3,
          "name": "canopée_0",
          "gid": 374,
          "x": 64,
          "y": 77,
          "width": 64,
          "height": 36,
          "rotation": 0,
          "visible": true
        },
        {
          "id": 4,
          "name": "canopée_0",
          "gid": 374,
          "x": 104,
          "y": 61,
          "width": 64,
          "height": 36,
          "rotation": 0,
          "visible": true
        },
        {
          "id": 5,
          "name": "canopée_1",
          "gid": 369,
          "x": 160,
          "y": 45,
          "width": 64,
          "height": 36,
          "rotation": 0,
          "visible": true
        },
        {
          "id": 6,
          "name": "canopée_2",
          "gid": 370,
          "x": 219,
          "y": 61,
          "width": 58,
          "height": 43,
          "rotation": 0,
          "visible": true
        },
        {
          "id": 7,
          "name": "canopée_3",
          "gid": 371,
          "x": 245,
          "y": 121,
          "width": 58,
          "height": 43,
          "rotation": 0,
          "visible": true
        },
        {
          "id": 8,
          "name": "canopée_0",
          "gid": 374,
          "x": 242,
          "y": 161,
          "width": 64,
          "height": 36,
          "rotation": 0,
          "visible": true
        },
        {
          "id": 9,
          "name": "canopée_1",
          "gid": 369,
          "x": 210,
          "y": 237,
          "width": 64,
          "height": 36,
          "rotation": 0,
          "visible": true
        },
        {
          "id": 10,
          "name": "canopée_2",
          "gid": 370,
          "x": 213,
          "y": 285,
          "width": 58,
          "height": 43,
          "rotation": 0,
          "visible": true
        },
        {
          "id": 11,
          "name": "canopée_3",
          "gid": 371,
          "x": 213,
          "y": 333,
          "width": 58,
          "height": 43,
          "rotation": 0,
          "visible": true
        }
      ]
    },
    {
      "id": 4,
      "name": "03_parquet",
      "visible": true,
      "opacity": 1,
      "properties": [
        {
          "name": "role",
          "type": "string",
          "value": "Parquet"
        }
      ],
      "type": "tilelayer",
      "width": 12,
      "height": 12,
      "x": 0,
      "y": 0,
      "data": [
        0,
        0,
        0,
        0,
        0,
        0,
        0,
        0,
        0,
        0,
        0,
        0,
        0,
        0,
        0,
        0,
        0,
        0,
        0,
        0,
        0,
        0,
        0,
        0,
        0,
        0,
        0,
        0,
        0,
        0,
        0,
        0,
        0,
        0,
        0,
        0,
        0,
        0,
        0,
        0,
        407,
        383,
        393,
        408,
        0,
        0,
        0,
        0,
        388,
        389,
        390,
        391,
        392,
        380,
        381,
        382,
        0,
        0,
        0,
        0,
        385,
        386,
        387,
        388,
        389,
        390,
        391,
        392,
        0,
        0,
        0,
        0,
        394,
        395,
        396,
        385,
        386,
        387,
        388,
        409,
        0,
        0,
        0,
        0,
        0,
        0,
        0,
        410,
        395,
        396,
        385,
        411,
        0,
        0,
        0,
        0,
        0,
        0,
        0,
        0,
        383,
        393,
        394,
        0,
        0,
        0,
        0,
        0,
        0,
        0,
        0,
        0,
        380,
        381,
        382,
        0,
        0,
        0,
        0,
        0,
        0,
        0,
        0,
        0,
        390,
        391,
        392,
        0,
        0,
        0,
        0,
        0,
        0,
        0,
        0,
        0,
        387,
        388,
        389,
        0,
        0,
        0,
        0,
        0
      ]
    },
    {
      "id": 5,
      "name": "04_murs_fond",
      "visible": true,
      "opacity": 1,
      "properties": [
        {
          "name": "role",
          "type": "string",
          "value": "Panneaux du fond"
        }
      ],
      "type": "objectgroup",
      "draworder": "index",
      "objects": [
        {
          "id": 12,
          "name": "murs_fond_64_0",
          "gid": 475,
          "x": -3,
          "y": 133,
          "width": 72,
          "height": 72,
          "rotation": 0,
          "visible": true
        },
        {
          "id": 13,
          "name": "murs_fond_64_0",
          "gid": 475,
          "x": 61,
          "y": 133,
          "width": 72,
          "height": 72,
          "rotation": 0,
          "visible": true
        },
        {
          "id": 14,
          "name": "murs_fond_64_0",
          "gid": 475,
          "x": 157,
          "y": 101,
          "width": 72,
          "height": 72,
          "rotation": 0,
          "visible": true
        }
      ]
    },
    {
      "id": 6,
      "name": "05_murs_retours",
      "visible": true,
      "opacity": 1,
      "properties": [
        {
          "name": "role",
          "type": "string",
          "value": "Murs de retour"
        }
      ],
      "type": "objectgroup",
      "draworder": "index",
      "objects": [
        {
          "id": 15,
          "name": "murs_retours_0_-64",
          "gid": 488,
          "x": 107,
          "y": 389,
          "width": 32,
          "height": 112,
          "rotation": 0,
          "visible": true
        },
        {
          "id": 16,
          "name": "murs_retours_0_-64",
          "gid": 489,
          "x": 107,
          "y": 325,
          "width": 32,
          "height": 112,
          "rotation": 0,
          "visible": true
        },
        {
          "id": 17,
          "name": "murs_fond_32_-32",
          "gid": 480,
          "x": 117,
          "y": 133,
          "width": 48,
          "height": 104,
          "rotation": 0,
          "visible": true
        },
        {
          "id": 18,
          "name": "murs_fond_32_32",
          "gid": 481,
          "x": 221,
          "y": 133,
          "width": 48,
          "height": 104,
          "rotation": 0,
          "visible": true
        },
        {
          "id": 19,
          "name": "murs_retours_0_40",
          "gid": 497,
          "x": 253,
          "y": 173,
          "width": 32,
          "height": 88,
          "rotation": 0,
          "visible": true
        },
        {
          "id": 20,
          "name": "murs_retours_0_40",
          "gid": 497,
          "x": 253,
          "y": 213,
          "width": 32,
          "height": 88,
          "rotation": 0,
          "visible": true
        },
        {
          "id": 21,
          "name": "murs_retours_0_48",
          "gid": 498,
          "x": 221,
          "y": 293,
          "width": 32,
          "height": 96,
          "rotation": 0,
          "visible": true
        },
        {
          "id": 22,
          "name": "murs_retours_0_48",
          "gid": 499,
          "x": 221,
          "y": 341,
          "width": 32,
          "height": 96,
          "rotation": 0,
          "visible": true
        },
        {
          "id": 23,
          "name": "murs_retours_0_48",
          "gid": 499,
          "x": 221,
          "y": 389,
          "width": 32,
          "height": 96,
          "rotation": 0,
          "visible": true
        },
        {
          "id": 24,
          "name": "joint_de_panneaux",
          "gid": 482,
          "x": 118,
          "y": 134,
          "width": 16,
          "height": 72,
          "rotation": 0,
          "visible": true
        },
        {
          "id": 25,
          "name": "joint_de_panneaux",
          "gid": 483,
          "x": 150,
          "y": 102,
          "width": 16,
          "height": 72,
          "rotation": 0,
          "visible": true
        },
        {
          "id": 26,
          "name": "joint_de_panneaux",
          "gid": 484,
          "x": 222,
          "y": 102,
          "width": 16,
          "height": 72,
          "rotation": 0,
          "visible": true
        },
        {
          "id": 27,
          "name": "joint_de_panneaux",
          "gid": 491,
          "x": 254,
          "y": 134,
          "width": 24,
          "height": 72,
          "rotation": 0,
          "visible": true
        }
      ]
    },
    {
      "id": 7,
      "name": "06_ombres_contact",
      "visible": true,
      "opacity": 1,
      "properties": [
        {
          "name": "role",
          "type": "string",
          "value": "Ombres de contact"
        }
      ],
      "type": "tilelayer",
      "width": 12,
      "height": 12,
      "x": 0,
      "y": 0,
      "data": [
        0,
        0,
        0,
        0,
        0,
        0,
        0,
        0,
        0,
        0,
        0,
        0,
        0,
        0,
        0,
        0,
        0,
        0,
        0,
        0,
        0,
        0,
        0,
        0,
        0,
        0,
        0,
        0,
        0,
        0,
        0,
        0,
        0,
        0,
        0,
        0,
        0,
        0,
        0,
        0,
        513,
        514,
        516,
        517,
        0,
        0,
        0,
        0,
        515,
        515,
        515,
        515,
        518,
        0,
        0,
        534,
        0,
        0,
        0,
        0,
        0,
        0,
        0,
        0,
        0,
        0,
        0,
        528,
        0,
        0,
        0,
        0,
        520,
        520,
        520,
        521,
        0,
        0,
        0,
        544,
        0,
        0,
        0,
        0,
        0,
        0,
        0,
        545,
        536,
        0,
        546,
        547,
        0,
        0,
        0,
        0,
        0,
        0,
        0,
        0,
        527,
        0,
        528,
        0,
        0,
        0,
        0,
        0,
        0,
        0,
        0,
        0,
        527,
        0,
        528,
        0,
        0,
        0,
        0,
        0,
        0,
        0,
        0,
        0,
        527,
        0,
        528,
        0,
        0,
        0,
        0,
        0,
        0,
        0,
        0,
        0,
        527,
        0,
        528,
        0,
        0,
        0,
        0,
        0
      ]
    },
    {
      "id": 8,
      "name": "07_reflets_seuils",
      "visible": true,
      "opacity": 1,
      "properties": [
        {
          "name": "role",
          "type": "string",
          "value": "Reflets des seuils"
        }
      ],
      "type": "tilelayer",
      "width": 12,
      "height": 12,
      "x": 0,
      "y": 0,
      "data": [
        0,
        0,
        0,
        0,
        0,
        0,
        0,
        0,
        0,
        0,
        0,
        0,
        0,
        0,
        0,
        0,
        0,
        0,
        0,
        0,
        0,
        0,
        0,
        0,
        0,
        0,
        0,
        0,
        0,
        0,
        0,
        0,
        0,
        0,
        0,
        0,
        0,
        0,
        0,
        0,
        0,
        0,
        0,
        0,
        0,
        0,
        0,
        0,
        593,
        0,
        0,
        0,
        0,
        0,
        0,
        0,
        0,
        0,
        0,
        0,
        0,
        0,
        0,
        0,
        0,
        0,
        0,
        0,
        0,
        0,
        0,
        0,
        595,
        0,
        0,
        0,
        0,
        0,
        0,
        0,
        0,
        0,
        0,
        0,
        0,
        0,
        0,
        0,
        0,
        0,
        0,
        0,
        0,
        0,
        0,
        0,
        0,
        0,
        0,
        0,
        0,
        0,
        0,
        0,
        0,
        0,
        0,
        0,
        0,
        0,
        0,
        0,
        0,
        0,
        0,
        0,
        0,
        0,
        0,
        0,
        0,
        0,
        0,
        0,
        0,
        0,
        0,
        0,
        0,
        0,
        0,
        0,
        0,
        0,
        0,
        0,
        599,
        0,
        600,
        0,
        0,
        0,
        0,
        0
      ]
    },
    {
      "id": 9,
      "name": "08_spirales",
      "visible": true,
      "opacity": 1,
      "properties": [
        {
          "name": "role",
          "type": "string",
          "value": "Traces spiralées"
        }
      ],
      "type": "objectgroup",
      "draworder": "index",
      "objects": []
    },
    {
      "id": 10,
      "name": "09_ombres_objets",
      "visible": true,
      "opacity": 1,
      "properties": [
        {
          "name": "role",
          "type": "string",
          "value": "Ombres des objets"
        }
      ],
      "type": "objectgroup",
      "draworder": "index",
      "objects": []
    },
    {
      "id": 11,
      "name": "10_objets",
      "visible": true,
      "opacity": 1,
      "properties": [
        {
          "name": "role",
          "type": "string",
          "value": "Objets et tentures"
        }
      ],
      "type": "objectgroup",
      "draworder": "index",
      "objects": []
    },
    {
      "id": 12,
      "name": "11_ecorce_racines_avant",
      "visible": true,
      "opacity": 1,
      "properties": [
        {
          "name": "role",
          "type": "string",
          "value": "Écorce et racines avant"
        }
      ],
      "type": "tilelayer",
      "width": 12,
      "height": 12,
      "x": 0,
      "y": 0,
      "data": [
        0,
        0,
        0,
        0,
        0,
        0,
        0,
        0,
        0,
        0,
        0,
        0,
        0,
        0,
        0,
        0,
        0,
        0,
        0,
        0,
        0,
        0,
        0,
        0,
        0,
        0,
        0,
        0,
        0,
        0,
        0,
        0,
        0,
        0,
        0,
        0,
        0,
        0,
        0,
        0,
        0,
        0,
        0,
        0,
        685,
        0,
        0,
        0,
        0,
        0,
        0,
        0,
        0,
        0,
        0,
        0,
        686,
        623,
        0,
        0,
        0,
        0,
        0,
        0,
        0,
        0,
        0,
        0,
        687,
        0,
        0,
        0,
        0,
        0,
        0,
        0,
        0,
        0,
        0,
        688,
        689,
        0,
        0,
        0,
        690,
        691,
        692,
        693,
        0,
        0,
        0,
        694,
        695,
        0,
        0,
        0,
        611,
        0,
        612,
        696,
        0,
        0,
        0,
        697,
        698,
        0,
        0,
        0,
        0,
        0,
        624,
        699,
        0,
        0,
        0,
        700,
        0,
        0,
        0,
        0,
        0,
        0,
        0,
        701,
        0,
        0,
        0,
        702,
        703,
        0,
        0,
        0,
        0,
        0,
        630,
        704,
        0,
        0,
        0,
        705,
        0,
        0,
        0,
        0
      ]
    },
    {
      "id": 13,
      "name": "12_feuillage_avant",
      "visible": true,
      "opacity": 1,
      "properties": [
        {
          "name": "role",
          "type": "string",
          "value": "Feuillage de premier plan"
        }
      ],
      "type": "objectgroup",
      "draworder": "index",
      "objects": [
        {
          "id": 28,
          "name": "bordure_végétale_1",
          "gid": 369,
          "x": 74,
          "y": 318,
          "width": 64,
          "height": 36,
          "rotation": 0,
          "visible": true
        },
        {
          "id": 29,
          "name": "bordure_végétale_3",
          "gid": 371,
          "x": 71,
          "y": 269,
          "width": 58,
          "height": 43,
          "rotation": 0,
          "visible": true
        },
        {
          "id": 30,
          "name": "bordure_végétale_6",
          "gid": 376,
          "x": 50,
          "y": 265,
          "width": 39,
          "height": 54,
          "rotation": 0,
          "visible": true
        },
        {
          "id": 31,
          "name": "retombée_0",
          "gid": 372,
          "x": 232,
          "y": 88,
          "width": 32,
          "height": 46,
          "rotation": 0,
          "visible": true
        },
        {
          "id": 32,
          "name": "bordure_végétale_5",
          "gid": 375,
          "x": 248,
          "y": 181,
          "width": 45,
          "height": 54,
          "rotation": 0,
          "visible": true
        },
        {
          "id": 33,
          "name": "bordure_végétale_0",
          "gid": 374,
          "x": 216,
          "y": 254,
          "width": 64,
          "height": 36,
          "rotation": 0,
          "visible": true
        },
        {
          "id": 34,
          "name": "retombée_1",
          "gid": 378,
          "x": 220,
          "y": 272,
          "width": 45,
          "height": 54,
          "rotation": 0,
          "visible": true
        },
        {
          "id": 35,
          "name": "bordure_végétale_3",
          "gid": 371,
          "x": 209,
          "y": 287,
          "width": 58,
          "height": 43,
          "rotation": 0,
          "visible": true
        }
      ]
    }
  ],
  "tilesets": [
    {
      "firstgid": 1,
      "source": "../../tiled/hallways_fond_jour.tsj"
    },
    {
      "firstgid": 33,
      "source": "../../tiled/hallways_soubassement_jour.tsj"
    },
    {
      "firstgid": 369,
      "source": "../../tiled/hallways_vegetation_jour.tsj"
    },
    {
      "firstgid": 379,
      "source": "../../tiled/hallways_sol_decoupe_jour.tsj"
    },
    {
      "firstgid": 475,
      "source": "../../tiled/hallways_murs_fond_jour.tsj"
    },
    {
      "firstgid": 480,
      "source": "../../tiled/hallways_murs_retours_jour.tsj"
    },
    {
      "firstgid": 513,
      "source": "../../tiled/hallways_contacts_jour.tsj"
    },
    {
      "firstgid": 593,
      "source": "../../tiled/hallways_reflets_jour.tsj"
    },
    {
      "firstgid": 601,
      "source": "../../tiled/hallways_ecorce_avant_jour.tsj"
    },
    {
      "firstgid": 873,
      "source": "../../tiled/hallways_motifs_jour.tsj"
    },
    {
      "firstgid": 889,
      "source": "../../tiled/hallways_ombres_objets_jour.tsj"
    },
    {
      "firstgid": 909,
      "source": "../../tiled/hallways_objets_jour.tsj"
    }
  ],
  "properties": [
    {
      "name": "architecture",
      "type": "string",
      "value": "panneaux verticaux + bordures d’immersion"
    }
  ]
}
