{"type":"map","version":"1.10","orientation":"orthogonal","renderorder":"right-down","width":44,"height":30,"tilewidth":24,"tileheight":24,"infinite":false,"nextlayerid":4,"nextobjectid":1,"layers":[{"id":1,"name":"back","type":"tilelayer","x":0,"y":0,"width":44,"height":30,"opacity":1,"visible":true,"data":[34,35,36,3,38,39,40,41,42,43,44,45,46,47,48,49,50,51,52,53,54,55,56,57,58,59,60,61,3,3,64,65,66,34,35,36,3,38,39,40,41,42,43,44,34,35,36,3,38,39,40,41,42,43,44,45,46,47,48,49,50,51,52,53,54,55,56,57,58,59,60,61,3,3,64,65,66,34,35,36,3,38,39,40,41,42,43,44,34,35,36,3,38,39,40,41,42,43,44,45,46,47,48,49,50,51,52,53,54,55,56,57,58,59,60,61,3,3,64,65,66,34,35,36,3,38,39,40,41,42,43,44,34,35,36,3,38,39,40,41,42,43,44,45,46,47,48,49,50,51,52,53,54,55,56,57,58,59,60,61,3,3,64,65,66,34,35,36,3,38,39,40,41,42,43,44,34,35,36,3,38,39,40,41,42,43,44,45,46,47,48,49,50,51,52,53,54,55,56,57,58,59,60,61,3,3,64,65,66,34,35,36,3,38,39,40,41,42,43,44,34,35,36,3,38,39,40,41,42,43,44,45,46,47,48,49,50,51,52,53,54,55,56,57,58,59,60,61,3,3,64,65,66,34,35,36,3,38,39,40,41,42,43,44,34,35,36,3,38,39,40,41,42,43,44,45,46,47,48,49,50,51,52,53,54,55,56,57,58,59,60,61,3,3,64,65,66,34,35,36,3,38,39,40,41,42,43,44,34,35,36,3,38,39,40,41,42,43,44,45,46,47,48,49,50,51,52,53,54,55,56,57,58,59,60,61,3,3,64,65,66,34,35,36,3,38,39,40,41,42,43,44,34,35,36,3,38,39,40,41,42,43,44,45,46,47,48,49,50,51,52,53,54,55,56,57,58,59,60,61,3,3,64,65,66,34,35,36,3,38,39,40,41,42,43,44,34,35,36,3,38,39,40,41,42,43,44,45,46,47,48,49,50,51,52,53,54,55,56,57,58,59,60,61,3,3,64,65,66,34,35,36,3,38,39,40,41,42,43,44,270,271,272,273,274,275,276,277,278,279,280,281,282,283,284,277,278,287,288,289,290,291,284,293,294,295,270,271,272,273,274,275,276,277,278,279,280,281,282,283,284,277,278,287,303,304,305,306,307,308,309,310,311,304,305,306,307,316,317,310,311,304,305,306,323,308,309,310,327,269,303,304,305,306,307,308,309,310,311,304,305,306,307,316,317,310,311,304,336,337,274,275,276,341,342,343,336,337,274,275,276,349,350,343,336,337,354,355,356,357,358,359,360,269,336,337,274,275,276,341,342,343,336,337,274,275,276,349,350,343,336,337,369,370,371,372,373,374,375,376,377,378,371,380,373,374,375,384,385,378,387,388,389,390,391,392,269,269,369,370,371,372,373,374,375,376,377,378,371,380,373,374,375,384,385,378,270,271,272,273,274,275,276,277,278,279,280,281,282,283,284,277,278,287,288,289,290,291,284,293,294,295,270,271,272,273,274,275,276,277,278,279,280,281,282,283,284,277,278,287,303,304,305,306,307,308,309,310,311,304,305,306,307,316,317,310,311,304,305,306,323,308,309,310,327,269,303,304,305,306,307,308,309,310,311,304,305,306,307,316,317,310,311,304,336,337,274,275,276,341,342,343,336,337,274,275,276,349,350,343,336,337,354,355,356,357,358,359,360,269,336,337,274,275,276,341,342,343,336,337,274,275,276,349,350,343,336,337,369,370,371,372,373,374,375,376,377,378,371,380,373,374,375,384,385,378,387,388,389,390,391,392,269,269,369,370,371,372,373,374,375,376,377,378,371,380,373,374,375,384,385,378,270,271,272,273,274,275,276,277,278,279,280,281,282,283,284,277,278,287,288,289,290,291,284,293,294,295,270,271,272,273,274,275,276,277,278,279,280,281,282,283,284,277,278,287,303,304,305,306,307,308,309,310,311,304,305,306,307,316,317,310,311,304,305,306,323,308,309,310,327,269,303,304,305,306,307,308,309,310,311,304,305,306,307,316,317,310,311,304,336,337,274,275,276,341,342,343,336,337,274,275,276,349,350,343,336,337,354,355,356,357,358,359,360,269,336,337,274,275,276,341,342,343,336,337,274,275,276,349,350,343,336,337,369,370,371,372,373,374,375,376,377,378,371,380,373,374,375,384,385,378,387,388,389,390,391,392,269,269,369,370,371,372,373,374,375,376,377,378,371,380,373,374,375,384,385,378,270,271,272,273,274,275,276,277,278,279,280,281,282,283,284,277,278,287,288,289,290,291,284,293,294,295,270,271,272,273,274,275,276,277,278,279,280,281,282,283,284,277,278,287,303,304,305,306,307,308,309,310,311,304,305,306,307,316,317,310,311,304,305,306,323,308,309,310,327,269,303,304,305,306,307,308,309,310,311,304,305,306,307,316,317,310,311,304,336,337,274,275,276,341,342,343,336,337,274,275,276,349,350,343,336,337,354,355,356,357,358,359,360,269,336,337,274,275,276,341,342,343,336,337,274,275,276,349,350,343,336,337,369,370,371,372,373,374,375,376,377,378,371,380,373,374,375,384,385,378,387,388,389,390,391,392,269,269,369,370,371,372,373,374,375,376,377,378,371,380,373,374,375,384,385,378,270,271,272,273,274,275,276,277,278,279,280,281,282,283,284,277,278,287,288,289,290,291,284,293,294,295,270,271,272,273,274,275,276,277,278,279,280,281,282,283,284,277,278,287,303,304,305,306,307,308,309,310,311,304,305,306,307,316,317,310,311,304,305,306,323,308,309,310,327,269,303,304,305,306,307,308,309,310,311,304,305,306,307,316,317,310,311,304,336,337,274,275,276,341,342,343,336,337,274,275,276,349,350,343,336,337,354,355,356,357,358,359,360,269,336,337,274,275,276,341,342,343,336,337,274,275,276,349,350,343,336,337,369,370,371,372,373,374,375,376,377,378,371,380,373,374,375,384,385,378,387,388,389,390,391,392,269,269,369,370,371,372,373,374,375,376,377,378,371,380,373,374,375,384,385,378]},{"id":2,"name":"eau_animee","type":"tilelayer","x":0,"y":0,"width":44,"height":30,"opacity":1,"visible":true,"data":[529,530,531,531,531,531,531,536,537,538,539,540,541,531,531,531,531,531,531,548,549,550,531,552,553,531,531,531,531,531,531,560,561,529,530,531,531,531,531,531,536,537,538,539,529,530,531,531,531,531,531,536,537,538,539,540,541,531,531,531,531,531,531,548,549,550,531,552,553,531,531,531,531,531,531,560,561,529,530,531,531,531,531,531,536,537,538,539,529,530,531,531,531,531,531,536,537,538,539,540,541,531,531,531,531,531,531,548,549,550,531,552,553,531,531,531,531,531,531,560,561,529,530,531,531,531,531,531,536,537,538,539,529,530,531,531,531,531,531,536,537,538,539,540,541,531,531,531,531,531,531,548,549,550,531,552,553,531,531,531,531,531,531,560,561,529,530,531,531,531,531,531,536,537,538,539,529,530,531,531,531,531,531,536,537,538,539,540,541,531,531,531,531,531,531,548,549,550,531,552,553,531,531,531,531,531,531,560,561,529,530,531,531,531,531,531,536,537,538,539,529,530,531,531,531,531,531,536,537,538,539,540,541,531,531,531,531,531,531,548,549,550,531,552,553,531,531,531,531,531,531,560,561,529,530,531,531,531,531,531,536,537,538,539,529,530,531,531,531,531,531,536,537,538,539,540,541,531,531,531,531,531,531,548,549,550,531,552,553,531,531,531,531,531,531,560,561,529,530,531,531,531,531,531,536,537,538,539,529,530,531,531,531,531,531,536,537,538,539,540,541,531,531,531,531,531,531,548,549,550,531,552,553,531,531,531,531,531,531,560,561,529,530,531,531,531,531,531,536,537,538,539,529,530,531,531,531,531,531,536,537,538,539,540,541,531,531,531,531,531,531,548,549,550,531,552,553,531,531,531,531,531,531,560,561,529,530,531,531,531,531,531,536,537,538,539,529,530,531,531,531,531,531,536,537,538,539,540,541,531,531,531,531,531,531,548,549,550,531,552,553,531,531,531,531,531,531,560,561,529,530,531,531,531,531,531,536,537,538,539,529,530,531,531,531,531,531,536,537,538,539,540,541,531,531,531,531,531,531,548,549,550,531,552,553,531,531,531,531,531,531,560,561,529,530,531,531,531,531,531,536,537,538,539,1090,1091,1092,531,1094,1095,1096,1097,1098,1099,1100,1101,1102,1103,1104,1105,1106,1107,1108,1109,1110,1111,1112,1113,1114,1115,1116,1117,531,531,1120,1121,1122,1090,1091,1092,531,1094,1095,1096,1097,1098,1099,1100,1651,1652,1653,1654,1655,1656,1657,1658,1659,1660,1661,1661,1661,1661,1661,1661,1661,1661,1661,1661,1671,1661,1673,1674,1675,1676,1677,1678,1679,1680,1681,1682,1683,1651,1652,1653,1654,1655,1656,1657,1658,1659,1660,1661,2212,2213,2214,2215,2216,2217,2218,2219,2220,2221,2216,2221,2216,2221,2216,2221,2216,2221,2216,2221,2216,2221,2216,2221,2216,2221,2216,2221,2212,2241,2214,2215,2212,2212,2213,2214,2215,2216,2217,2218,2219,2220,2221,2216,2773,2774,2775,2776,2777,2778,2774,2775,2781,2782,2783,2784,2783,2782,2783,2784,2783,2782,2783,2784,2783,2782,2783,2784,2783,2782,2799,2800,2801,2774,2775,2804,2805,2773,2774,2775,2776,2777,2778,2774,2775,2781,2782,2783,3334,3335,3336,3337,3338,3334,3335,3336,3342,3343,3344,3345,3346,3347,3348,3349,3350,3351,3352,3353,3354,3355,3356,3357,3358,3359,3360,3361,3334,3335,3336,3365,3366,3334,3335,3336,3337,3338,3334,3335,3336,3342,3343,3344,3895,3896,3897,3898,3899,3900,3901,3902,3903,3904,3905,3906,3907,3908,3909,3910,3911,3912,3913,3914,3915,3916,3917,3918,3919,3920,3921,3922,3923,3924,3925,3926,3927,3895,3896,3897,3898,3899,3900,3901,3902,3903,3904,3905,0,0,0,0,0,0,0,0,0,0,0,0,0,0,0,0,0,0,0,0,0,0,0,0,0,0,0,0,0,0,0,0,0,0,0,0,0,0,0,0,0,0,0,0,0,0,0,0,0,0,0,0,0,0,0,0,0,0,0,0,0,0,0,0,0,0,0,0,0,0,0,0,0,0,0,0,0,0,0,0,0,0,0,0,0,0,0,0,0,0,0,0,0,0,0,0,0,0,0,0,0,0,0,0,0,0,0,0,0,0,0,0,0,0,0,0,0,0,0,0,0,0,0,0,0,0,0,0,0,0,0,0,0,0,0,0,0,0,0,0,0,0,0,0,0,0,0,0,0,0,0,0,0,0,0,0,0,0,0,0,0,0,0,0,0,0,0,0,0,0,0,0,0,0,0,0,0,0,0,0,0,0,0,0,0,0,0,0,0,0,0,0,0,0,0,0,0,0,0,0,0,0,0,0,0,0,0,0,0,0,0,0,0,0,0,0,0,0,0,0,0,0,0,0,0,0,0,0,0,0,0,0,0,0,0,0,0,0,0,0,0,0,0,0,0,0,0,0,0,0,0,0,0,0,0,0,0,0,0,0,0,0,0,0,0,0,0,0,0,0,0,0,0,0,0,0,0,0,0,0,0,0,0,0,0,0,0,0,0,0,0,0,0,0,0,0,0,0,0,0,0,0,0,0,0,0,0,0,0,0,0,0,0,0,0,0,0,0,0,0,0,0,0,0,0,0,0,0,0,0,0,0,0,0,0,0,0,0,0,0,0,0,0,0,0,0,0,0,0,0,0,0,0,0,0,0,0,0,0,0,0,0,0,0,0,0,0,0,0,0,0,0,0,0,0,0,0,0,0,0,0,0,0,0,0,0,0,0,0,0,0,0,0,0,0,0,0,0,0,0,0,0,0,0,0,0,0,0,0,0,0,0,0,0,0,0,0,0,0,0,0,0,0,0,0,0,0,0,0,0,0,0,0,0,0,0,0,0,0,0,0,0,0,0,0,0,0,0,0,0,0,0,0,0,0,0,0,0,0,0,0,0,0,0,0,0,0,0,0,0,0,0,0,0,0,0,0,0,0,0,0,0,0,0,0,0,0,0,0,0,0,0,0,0,0,0,0,0,0,0,0,0,0,0,0,0,0,0,0,0,0,0,0,0,0,0,0,0,0,0,0,0,0,0,0,0,0,0,0,0,0,0,0,0,0,0,0,0,0,0,0,0,0,0,0,0,0,0,0,0,0,0,0,0,0,0,0,0,0,0,0,0,0,0,0,0,0,0,0,0,0,0]},{"id":3,"name":"front","type":"tilelayer","x":0,"y":0,"width":44,"height":30,"opacity":1,"visible":true,"data":[0,0,0,0,0,0,0,0,0,0,0,0,0,0,0,0,0,0,0,0,0,0,0,0,0,0,0,0,0,0,0,0,0,0,0,0,0,0,0,0,0,0,0,0,0,0,0,0,0,0,0,0,0,0,0,0,0,0,0,0,0,0,0,0,0,0,0,0,0,0,0,0,0,0,0,0,0,0,0,0,0,0,0,0,0,0,0,0,0,0,0,0,0,0,0,0,0,0,0,0,0,0,0,0,0,0,0,0,0,0,0,0,0,0,0,0,0,0,0,0,0,0,0,0,0,0,0,0,0,0,0,0,0,0,0,0,0,0,0,0,0,0,0,0,0,0,0,0,0,0,0,0,0,0,0,0,0,0,0,0,0,0,0,0,0,0,0,0,0,0,0,0,0,0,0,0,0,0,0,0,0,0,0,0,0,0,0,0,0,0,0,0,0,0,0,0,0,0,0,0,0,0,0,0,0,0,0,0,0,0,0,0,0,0,0,0,0,0,0,0,0,0,0,0,0,0,0,0,0,0,0,0,0,0,0,0,0,0,0,0,0,0,0,0,0,0,0,0,0,0,0,0,0,0,0,0,0,0,0,0,0,0,0,0,0,0,0,0,0,0,0,0,0,0,0,0,0,0,0,0,0,0,0,0,0,0,0,0,0,0,0,0,0,0,0,0,0,0,0,0,0,0,0,0,0,0,0,0,0,0,0,0,0,0,0,0,0,0,0,0,0,0,0,0,0,0,0,0,0,0,0,0,0,0,0,0,0,0,0,0,0,0,0,0,0,0,0,0,0,0,0,0,4555,4556,4557,4558,0,4555,4556,4557,4558,0,0,0,0,0,0,0,0,0,0,0,0,0,0,0,0,0,0,0,0,0,0,0,0,0,0,0,0,0,0,4555,4584,4557,4558,4555,4588,4589,4590,4591,4592,4588,4589,4590,4596,0,0,0,0,0,0,0,0,0,0,0,0,0,0,0,0,0,0,0,0,0,0,0,0,0,0,0,0,4614,4615,4616,4589,4590,4596,4620,4621,4622,4623,4624,4625,4621,4622,4623,4629,4630,0,0,0,0,0,0,0,0,0,0,0,0,0,0,0,0,0,0,0,0,0,0,0,0,0,4645,4646,4647,4648,4621,4622,4623,4652,4653,4654,4655,4656,4657,4658,4659,4660,4661,4662,4663,0,0,0,0,0,0,0,0,0,0,0,0,0,0,0,0,0,0,0,0,0,0,0,0,0,4678,4679,4680,4681,4682,4683,4684,4685,4686,4687,4688,4689,4690,4691,4692,4693,4694,4695,0,0,0,0,0,0,0,0,0,0,0,0,0,0,0,0,0,0,0,0,0,0,0,0,0,0,0,0,0,0,0,0,0,0,0,4720,4721,4722,4723,4724,4725,0,0,0,0,0,0,0,0,0,0,0,0,0,0,0,0,0,0,0,0,0,0,0,0,0,0,0,0,0,0,0,0,0,0,0,0,0,0,4753,4589,4755,4756,4757,0,0,0,0,0,0,0,0,0,0,0,0,0,0,0,0,0,0,0,0,0,0,0,0,0,0,0,0,0,0,4555,4584,4557,4558,0,0,0,0,0,0,0,0,0,0,0,0,0,0,0,0,0,0,0,0,0,0,0,0,0,0,0,0,0,0,0,0,0,0,0,0,0,0,0,4592,4588,4589,4590,4596,4843,0,0,0,0,4555,4556,4557,4558,0,4555,4556,4557,4558,0,0,0,0,0,0,0,0,0,0,0,0,0,0,0,0,0,0,0,0,0,0,0,0,0,4859,4621,4622,4623,4875,4876,0,0,0,0,4588,4589,4590,4591,4592,4588,4589,4590,4596,0,0,0,0,0,0,0,0,0,0,0,0,0,0,0,0,0,0,0,0,0,0,0,0,0,4904,4893,4894,4895,4896,4897,0,0,0,0,4621,4622,4623,4624,4625,4621,4622,4623,4629,4630,0,0,0,0,0,0,0,0,0,0,0,0,0,0,0,0,0,0,0,0,0,0,0,0,0,0,0,0,0,0,0,0,0,0,4654,4655,4656,4657,4658,4659,4660,4661,4662,4663,0,0,0,0,0,0,0,0,0,0,0,0,0,0,0,0,0,0,0,0,0,0,0,0,0,0,0,0,0,0,0,0,0,0,4687,4688,4689,4690,4691,4692,4693,4694,4695,0,0,0,0,0,0,0,0,0,0,0,0,0,0,0,0,0,0,0,0,0,0,0,0,0,0,0,0,0,0,0,0,0,0,0,4720,4721,4722,4723,4724,4725,0,0,0,0,0,0,0,0,0,0,0,0,0,0,0,0,0,0,0,0,0,0,0,0,0,0,0,0,0,0,0,0,0,0,0,0,0,0,4753,4589,4755,4756,4757,0,0,0,0,0,0,0,0,0,0,0,0,0,0,0,0,0,0,0,0,0,0,0,0,0,0,0,0,0,0,0,0,0,0,0,0,0,0,0,0,0,0,0,0,4787,4788,4789,4790,4791,4792,0,0,0,0,0,0,0,0,0,0,0,0,0,0,0,0,0,0,0,0,0,0,0,0,0,0,0,0,0,0,0,0,0,0,0,0,0,0,4820,4821,4822,4823,4824,4825,0,0,0,0,0,0,0,0,0,0,0,0,0,0,0,0,0,0,0,0,0,0,0,0,0,0,0,0,0,0,0,0,0,0,0,0,0,0,4853,4854,4855,4856,4857,4858,0,0,0,0,0,0,0,0,0,0,0,0,0,0,0,0,0,0,0,0,0,0,0,0,0,0,0,0,0,0,0,0,0,0,0,0,0,0,0,0,0,0,0,0,0,0,0,0,0,0,0,0,0,0,0,0,0,0,0,0,0,0,0,0,0,0,0,0,0,0,0,0,0,0,0,0,0,0,0,0,0,0,0,0,0,0,0,0,0,0,0,0,0,0,0,0,0,0,0,0,0,0,0,0,0,0,0,0,0,0,0,0,0,0,0,0,0,0,0,0,0,4918,4919,4920,4921,4922,4923,4589,4925,4926,4927,4928,4929,4930,4931,4932,4933,4934,4923,4589,4925,4926,4927,4928,4929,4930,4931,4932,4929,4930,4931,4932,4929,4930,4918,4919,4920,4921,4922,4923,4589,4925,4926,4927,4928,4951,4952,4953,4954,4955,4786,4622,4623,4959,4960,4953,4954,4951,4952,4953,4954,4955,4786,4622,4623,4959,4960,4953,4954,4951,4952,4953,4954,4951,4952,4953,4954,4951,4951,4952,4953,4954,4955,4786,4622,4623,4959,4960,4953]}],"tilesets":[{"firstgid":1,"source":"../D01P11A_layer1.tsj"},{"firstgid":529,"source":"../beach_animation.tsj"},{"firstgid":4456,"source":"../D01P11A_layer2.tsj"}]}