{"type":"map","version":"1.10","orientation":"orthogonal","renderorder":"right-down","width":256,"height":192,"tilewidth":8,"tileheight":8,"infinite":false,"nextlayerid":3,"nextobjectid":1,"layers":[{"id":1,"name":"herbe","type":"tilelayer","x":0,"y":0,"width":256,"height":192,"opacity":1,"visible":true,"data":[1,2,3,4,5,6,7,8,9,10,11,12,13,14,15,16,1,2,3,4,5,6,7,8,9,10,11,12,13,14,15,16,1,2,3,4,5,6,7,8,9,10,11,12,13,14,15,16,1,2,3,4,5,6,7,8,9,10,11,12,13,14,15,16,1,2,3,4,5,6,7,8,9,10,11,12,13,14,15,16,1,2,3,4,5,6,7,8,9,10,11,12,13,14,15,16,1,2,3,4,5,6,7,8,9,10,11,12,13,14,15,16,1,2,3,4,5,6,7,8,9,10,11,12,13,14,15,16,1,2,3,4,5,6,7,8,9,10,11,12,13,14,15,16,1,2,3,4,5,6,7,8,9,10,11,12,13,14,15,16,1,2,3,4,5,6,7,8,9,10,11,12,13,14,15,16,1,2,3,4,5,6,7,8,9,10,11,12,13,14,15,16,1,2,3,4,5,6,7,8,9,10,11,12,13,14,15,16,1,2,3,4,5,6,7,8,9,10,11,12,13,14,15,16,1,2,3,4,5,6,7,8,9,10,11,12,13,14,15,16,1,2,3,4,5,6,7,8,9,10,11,12,13,14,15,16,17,18,19,20,21,22,23,24,25,26,27,28,29,30,31,32,17,18,19,20,21,22,23,24,25,26,27,28,29,30,31,32,17,18,19,20,21,22,23,24,25,26,27,28,29,30,31,32,17,18,19,20,21,22,23,24,25,26,27,28,29,30,31,32,17,18,19,20,21,22,23,24,25,26,27,28,29,30,31,32,17,18,19,20,21,22,23,24,25,26,27,28,29,30,31,32,17,18,19,20,21,22,23,24,25,26,27,28,29,30,31,32,17,18,19,20,21,22,23,24,25,26,27,28,29,30,31,32,17,18,19,20,21,22,23,24,25,26,27,28,29,30,31,32,17,18,19,20,21,22,23,24,25,26,27,28,29,30,31,32,17,18,19,20,21,22,23,24,25,26,27,28,29,30,31,32,17,18,19,20,21,22,23,24,25,26,27,28,29,30,31,32,17,18,19,20,21,22,23,24,25,26,27,28,29,30,31,32,17,18,19,20,21,22,23,24,25,26,27,28,29,30,31,32,17,18,19,20,21,22,23,24,25,26,27,28,29,30,31,32,17,18,19,20,21,22,23,24,25,26,27,28,29,30,31,32,33,34,35,36,37,38,39,40,41,42,43,44,45,46,47,48,33,34,35,36,37,38,39,40,41,42,43,44,45,46,47,48,33,34,35,36,37,38,39,40,41,42,43,44,45,46,47,48,33,34,35,36,37,38,39,40,41,42,43,44,45,46,47,48,33,34,35,36,37,38,39,40,41,42,43,44,45,46,47,48,33,34,35,36,37,38,39,40,41,42,43,44,45,46,47,48,33,34,35,36,37,38,39,40,41,42,43,44,45,46,47,48,33,34,35,36,37,38,39,40,41,42,43,44,45,46,47,48,33,34,35,36,37,38,39,40,41,42,43,44,45,46,47,48,33,34,35,36,37,38,39,40,41,42,43,44,45,46,47,48,33,34,35,36,37,38,39,40,41,42,43,44,45,46,47,48,33,34,35,36,37,38,39,40,41,42,43,44,45,46,47,48,33,34,35,36,37,38,39,40,41,42,43,44,45,46,47,48,33,34,35,36,37,38,39,40,41,42,43,44,45,46,47,48,33,34,35,36,37,38,39,40,41,42,43,44,45,46,47,48,33,34,35,36,37,38,39,40,41,42,43,44,45,46,47,48,49,50,51,52,53,54,55,56,57,58,59,60,61,62,63,64,49,50,51,52,53,54,55,56,57,58,59,60,61,62,63,64,49,50,51,52,53,54,55,56,57,58,59,60,61,62,63,64,49,50,51,52,53,54,55,56,57,58,59,60,61,62,63,64,49,50,51,52,53,54,55,56,57,58,59,60,61,62,63,64,49,50,51,52,53,54,55,56,57,58,59,60,61,62,63,64,49,50,51,52,53,54,55,56,57,58,59,60,61,62,63,64,49,50,51,52,53,54,55,56,57,58,59,60,61,62,63,64,49,50,51,52,53,54,55,56,57,58,59,60,61,62,63,64,49,50,51,52,53,54,55,56,57,58,59,60,61,62,63,64,49,50,51,52,53,54,55,56,57,58,59,60,61,62,63,64,49,50,51,52,53,54,55,56,57,58,59,60,61,62,63,64,49,50,51,52,53,54,55,56,57,58,59,60,61,62,63,64,49,50,51,52,53,54,55,56,57,58,59,60,61,62,63,64,49,50,51,52,53,54,55,56,57,58,59,60,61,62,63,64,49,50,51,52,53,54,55,56,57,58,59,60,61,62,63,64,65,66,67,68,69,70,71,72,73,74,75,76,77,78,79,80,65,66,67,68,69,70,71,72,73,74,75,76,77,78,79,80,65,66,67,68,69,70,71,72,73,74,75,76,77,78,79,80,65,66,67,68,69,70,71,72,73,74,75,76,77,78,79,80,65,66,67,68,69,70,71,72,73,74,75,76,77,78,79,80,65,66,67,68,69,70,71,72,73,74,75,76,77,78,79,80,65,66,67,68,69,70,71,72,73,74,75,76,77,78,79,80,65,66,67,68,69,70,71,72,73,74,75,76,77,78,79,80,65,66,67,68,69,70,71,72,73,74,75,76,77,78,79,80,65,66,67,68,69,70,71,72,73,74,75,76,77,78,79,80,65,66,67,68,69,70,71,72,73,74,75,76,77,78,79,80,65,66,67,68,69,70,71,72,73,74,75,76,77,78,79,80,65,66,67,68,69,70,71,72,73,74,75,76,77,78,79,80,65,66,67,68,69,70,71,72,73,74,75,76,77,78,79,80,65,66,67,68,69,70,71,72,73,74,75,76,77,78,79,80,65,66,67,68,69,70,71,72,73,74,75,76,77,78,79,80,81,82,83,84,85,86,87,88,89,90,91,92,93,94,95,96,81,82,83,84,85,86,87,88,89,90,91,92,93,94,95,96,81,82,83,84,85,86,87,88,89,90,91,92,93,94,95,96,81,82,83,84,85,86,87,88,89,90,91,92,93,94,95,96,81,82,83,84,85,86,87,88,89,90,91,92,93,94,95,96,81,82,83,84,85,86,87,88,89,90,91,92,93,94,95,96,81,82,83,84,85,86,87,88,89,90,91,92,93,94,95,96,81,82,83,84,85,86,87,88,89,90,91,92,93,94,95,96,81,82,83,84,85,86,87,88,89,90,91,92,93,94,95,96,81,82,83,84,85,86,87,88,89,90,91,92,93,94,95,96,81,82,83,84,85,86,87,88,89,90,91,92,93,94,95,96,81,82,83,84,85,86,87,88,89,90,91,92,93,94,95,96,81,82,83,84,85,86,87,88,89,90,91,92,93,94,95,96,81,82,83,84,85,86,87,88,89,90,91,92,93,94,95,96,81,82,83,84,85,86,87,88,89,90,91,92,93,94,95,96,81,82,83,84,85,86,87,88,89,90,91,92,93,94,95,96,97,98,99,100,101,102,103,104,105,106,107,108,109,110,111,112,97,98,99,100,101,102,103,104,105,106,107,108,109,110,111,112,97,98,99,100,101,102,103,104,105,106,107,108,109,110,111,112,97,98,99,100,101,102,103,104,105,106,107,108,109,110,111,112,97,98,99,100,101,102,103,104,105,106,107,108,109,110,111,112,97,98,99,100,101,102,103,104,105,106,107,108,109,110,111,112,97,98,99,100,101,102,103,104,105,106,107,108,109,110,111,112,97,98,99,100,101,102,103,104,105,106,107,108,109,110,111,112,97,98,99,100,101,102,103,104,105,106,107,108,109,110,111,112,97,98,99,100,101,102,103,104,105,106,107,108,109,110,111,112,97,98,99,100,101,102,103,104,105,106,107,108,109,110,111,112,97,98,99,100,101,102,103,104,105,106,107,108,109,110,111,112,97,98,99,100,101,102,103,104,105,106,107,108,109,110,111,112,97,98,99,100,101,102,103,104,105,106,107,108,109,110,111,112,97,98,99,100,101,102,103,104,105,106,107,108,109,110,111,112,97,98,99,100,101,102,103,104,105,106,107,108,109,110,111,112,113,114,115,116,117,118,119,120,121,122,123,124,125,126,127,128,113,114,115,116,117,118,119,120,121,122,123,124,125,126,127,128,113,114,115,116,117,118,119,120,121,122,123,124,125,126,127,128,113,114,115,116,117,118,119,120,121,122,123,124,125,126,127,128,113,114,115,116,117,118,119,120,121,122,123,124,125,126,127,128,113,114,115,116,117,118,119,120,121,122,123,124,125,126,127,128,113,114,115,116,117,118,119,120,121,122,123,124,125,126,127,128,113,114,115,116,117,118,119,120,121,122,123,124,125,126,127,128,113,114,115,116,117,118,119,120,121,122,123,124,125,126,127,128,113,114,115,116,117,118,119,120,121,122,123,124,125,126,127,128,113,114,115,116,117,118,119,120,121,122,123,124,125,126,127,128,113,114,115,116,117,118,119,120,121,122,123,124,125,126,127,128,113,114,115,116,117,118,119,120,121,122,123,124,125,126,127,128,113,114,115,116,117,118,119,120,121,122,123,124,125,126,127,128,113,114,115,116,117,118,119,120,121,122,123,124,125,126,127,128,113,114,115,116,117,118,119,120,121,122,123,124,125,126,127,128,129,130,131,132,133,134,135,136,137,138,139,140,141,142,143,144,129,130,131,132,133,134,135,136,137,138,139,140,141,142,143,144,129,130,131,132,133,134,135,136,137,138,139,140,141,142,143,144,129,130,131,132,133,134,135,136,137,138,139,140,141,142,143,144,129,130,131,132,133,134,135,136,137,138,139,140,141,142,143,144,129,130,131,132,133,134,135,136,137,138,139,140,141,142,143,144,129,130,131,132,133,134,135,136,137,138,139,140,141,142,143,144,129,130,131,132,133,134,135,136,137,138,139,140,141,142,143,144,129,130,131,132,133,134,135,136,137,138,139,140,141,142,143,144,129,130,131,132,133,134,135,136,137,138,139,140,141,142,143,144,129,130,131,132,133,134,135,136,137,138,139,140,141,142,143,144,129,130,131,132,133,134,135,136,137,138,139,140,141,142,143,144,129,130,131,132,133,134,135,136,137,138,139,140,141,142,143,144,129,130,131,132,133,134,135,136,137,138,139,140,141,142,143,144,129,130,131,132,133,134,135,136,137,138,139,140,141,142,143,144,129,130,131,132,133,134,135,136,137,138,139,140,141,142,143,144,145,146,147,148,149,150,151,152,153,154,155,156,157,158,159,160,145,146,147,148,149,150,151,152,153,154,155,156,157,158,159,160,145,146,147,148,149,150,151,152,153,154,155,156,157,158,159,160,145,146,147,148,149,150,151,152,153,154,155,156,157,158,159,160,145,146,147,148,149,150,151,152,153,154,155,156,157,158,159,160,145,146,147,148,149,150,151,152,153,154,155,156,157,158,159,160,145,146,147,148,149,150,151,152,153,154,155,156,157,158,159,160,145,146,147,148,149,150,151,152,153,154,155,156,157,158,159,160,145,146,147,148,149,150,151,152,153,154,155,156,157,158,159,160,145,146,147,148,149,150,151,152,153,154,155,156,157,158,159,160,145,146,147,148,149,150,151,152,153,154,155,156,157,158,159,160,145,146,147,148,149,150,151,152,153,154,155,156,157,158,159,160,145,146,147,148,149,150,151,152,153,154,155,156,157,158,159,160,145,146,147,148,149,150,151,152,153,154,155,156,157,158,159,160,145,146,147,148,149,150,151,152,153,154,155,156,157,158,159,160,145,146,147,148,149,150,151,152,153,154,155,156,157,158,159,160,161,162,163,164,165,166,167,168,169,170,171,172,173,174,175,176,161,162,163,164,165,166,167,168,169,170,171,172,173,174,175,176,161,162,163,164,165,166,167,168,169,170,171,172,173,174,175,176,161,162,163,164,165,166,167,168,169,170,171,172,173,174,175,176,161,162,163,164,165,166,167,168,169,170,171,172,173,174,175,176,161,162,163,164,165,166,167,168,169,170,171,172,173,174,175,176,161,162,163,164,165,166,167,168,169,170,171,172,173,174,175,176,161,162,163,164,165,166,167,168,169,170,171,172,173,174,175,176,161,162,163,164,165,166,167,168,169,170,171,172,173,174,175,176,161,162,163,164,165,166,167,168,169,170,171,172,173,174,175,176,161,162,163,164,165,166,167,168,169,170,171,172,173,174,175,176,161,162,163,164,165,166,167,168,169,170,171,172,173,174,175,176,161,162,163,164,165,166,167,168,169,170,171,172,173,174,175,176,161,162,163,164,165,166,167,168,169,170,171,172,173,174,175,176,161,162,163,164,165,166,167,168,169,170,171,172,173,174,175,176,161,162,163,164,165,166,167,168,169,170,171,172,173,174,175,176,177,178,179,180,181,182,183,184,185,186,187,188,189,190,191,192,177,178,179,180,181,182,183,184,185,186,187,188,189,190,191,192,177,178,179,180,181,182,183,184,185,186,187,188,189,190,191,192,177,178,179,180,181,182,183,184,185,186,187,188,189,190,191,192,177,178,179,180,181,182,183,184,185,186,187,188,189,190,191,192,177,178,179,180,181,182,183,184,185,186,187,188,189,190,191,192,177,178,179,180,181,182,183,184,185,186,187,188,189,190,191,192,177,178,179,180,181,182,183,184,185,186,187,188,189,190,191,192,177,178,179,180,181,182,183,184,185,186,187,188,189,190,191,192,177,178,179,180,181,182,183,184,185,186,187,188,189,190,191,192,177,178,179,180,181,182,183,184,185,186,187,188,189,190,191,192,177,178,179,180,181,182,183,184,185,186,187,188,189,190,191,192,177,178,179,180,181,182,183,184,185,186,187,188,189,190,191,192,177,178,179,180,181,182,183,184,185,186,187,188,189,190,191,192,177,178,179,180,181,182,183,184,185,186,187,188,189,190,191,192,177,178,179,180,181,182,183,184,185,186,187,188,189,190,191,192,193,194,195,196,197,198,199,200,201,202,203,204,205,206,207,208,193,194,195,196,197,198,199,200,201,202,203,204,205,206,207,208,193,194,195,196,197,198,199,200,201,202,203,204,205,206,207,208,193,194,195,196,197,198,199,200,201,202,203,204,205,206,207,208,193,194,195,196,197,198,199,200,201,202,203,204,205,206,207,208,193,194,195,196,197,198,199,200,201,202,203,204,205,206,207,208,193,194,195,196,197,198,199,200,201,202,203,204,205,206,207,208,193,194,195,196,197,198,199,200,201,202,203,204,205,206,207,208,193,194,195,196,197,198,199,200,201,202,203,204,205,206,207,208,193,194,195,196,197,198,199,200,201,202,203,204,205,206,207,208,193,194,195,196,197,198,199,200,201,202,203,204,205,206,207,208,193,194,195,196,197,198,199,200,201,202,203,204,205,206,207,208,193,194,195,196,197,198,199,200,201,202,203,204,205,206,207,208,193,194,195,196,197,198,199,200,201,202,203,204,205,206,207,208,193,194,195,196,197,198,199,200,201,202,203,204,205,206,207,208,193,194,195,196,197,198,199,200,201,202,203,204,205,206,207,208,209,210,211,212,213,214,215,216,217,218,219,220,221,222,223,224,209,210,211,212,213,214,215,216,217,218,219,220,221,222,223,224,209,210,211,212,213,214,215,216,217,218,219,220,221,222,223,224,209,210,211,212,213,214,215,216,217,218,219,220,221,222,223,224,209,210,211,212,213,214,215,216,217,218,219,220,221,222,223,224,209,210,211,212,213,214,215,216,217,218,219,220,221,222,223,224,209,210,211,212,213,214,215,216,217,218,219,220,221,222,223,224,209,210,211,212,213,214,215,216,217,218,219,220,221,222,223,224,209,210,211,212,213,214,215,216,217,218,219,220,221,222,223,224,209,210,211,212,213,214,215,216,217,218,219,220,221,222,223,224,209,210,211,212,213,214,215,216,217,218,219,220,221,222,223,224,209,210,211,212,213,214,215,216,217,218,219,220,221,222,223,224,209,210,211,212,213,214,215,216,217,218,219,220,221,222,223,224,209,210,211,212,213,214,215,216,217,218,219,220,221,222,223,224,209,210,211,212,213,214,215,216,217,218,219,220,221,222,223,224,209,210,211,212,213,214,215,216,217,218,219,220,221,222,223,224,225,226,227,228,229,230,231,232,233,234,235,236,237,238,239,240,225,226,227,228,229,230,231,232,233,234,235,236,237,238,239,240,225,226,227,228,229,230,231,232,233,234,235,236,237,238,239,240,225,226,227,228,229,230,231,232,233,234,235,236,237,238,239,240,225,226,227,228,229,230,231,232,233,234,235,236,237,238,239,240,225,226,227,228,229,230,231,232,233,234,235,236,237,238,239,240,225,226,227,228,229,230,231,232,233,234,235,236,237,238,239,240,225,226,227,228,229,230,231,232,233,234,235,236,237,238,239,240,225,226,227,228,229,230,231,232,233,234,235,236,237,238,239,240,225,226,227,228,229,230,231,232,233,234,235,236,237,238,239,240,225,226,227,228,229,230,231,232,233,234,235,236,237,238,239,240,225,226,227,228,229,230,231,232,233,234,235,236,237,238,239,240,225,226,227,228,229,230,231,232,233,234,235,236,237,238,239,240,225,226,227,228,229,230,231,232,233,234,235,236,237,238,239,240,225,226,227,228,229,230,231,232,233,234,235,236,237,238,239,240,225,226,227,228,229,230,231,232,233,234,235,236,237,238,239,240,241,242,243,244,245,246,247,248,249,250,251,252,253,254,255,256,241,242,243,244,245,246,247,248,249,250,251,252,253,254,255,256,241,242,243,244,245,246,247,248,249,250,251,252,253,254,255,256,241,242,243,244,245,246,247,248,249,250,251,252,253,254,255,256,241,242,243,244,245,246,247,248,249,250,251,252,253,254,255,256,241,242,243,244,245,246,247,248,249,250,251,252,253,254,255,256,241,242,243,244,245,246,247,248,249,250,251,252,253,254,255,256,241,242,243,244,245,246,247,248,249,250,251,252,253,254,255,256,241,242,243,244,245,246,247,248,249,250,251,252,253,254,255,256,241,242,243,244,245,246,247,248,249,250,251,252,253,254,255,256,241,242,243,244,245,246,247,248,249,250,251,252,253,254,255,256,241,242,243,244,245,246,247,248,249,250,251,252,253,254,255,256,241,242,243,244,245,246,247,248,249,250,251,252,253,254,255,256,241,242,243,244,245,246,247,248,249,250,251,252,253,254,255,256,241,242,243,244,245,246,247,248,249,250,251,252,253,254,255,256,241,242,243,244,245,246,247,248,249,250,251,252,253,254,255,256,1,2,3,4,5,6,7,8,9,10,11,12,13,14,15,16,1,2,3,4,5,6,7,8,9,10,11,12,13,14,15,16,1,2,3,4,5,6,7,8,9,10,11,12,13,14,15,16,1,2,3,4,5,6,7,8,9,10,11,12,13,14,15,16,1,2,3,4,5,6,7,8,9,10,11,12,13,14,15,16,1,2,3,4,5,6,7,8,9,10,11,12,13,14,15,16,1,2,3,4,5,6,7,8,9,10,11,12,13,14,15,16,1,2,3,4,5,6,7,8,9,10,11,12,13,14,15,16,1,2,3,4,5,6,7,8,9,10,11,12,13,14,15,16,1,2,3,4,5,6,7,8,9,10,11,12,13,14,15,16,1,2,3,4,5,6,7,8,9,10,11,12,13,14,15,16,1,2,3,4,5,6,7,8,9,10,11,12,13,14,15,16,1,2,3,4,5,6,7,8,9,10,11,12,13,14,15,16,1,2,3,4,5,6,7,8,9,10,11,12,13,14,15,16,1,2,3,4,5,6,7,8,9,10,11,12,13,14,15,16,1,2,3,4,5,6,7,8,9,10,11,12,13,14,15,16,17,18,19,20,21,22,23,24,25,26,27,28,29,30,31,32,17,18,19,20,21,22,23,24,25,26,27,28,29,30,31,32,17,18,19,20,21,22,23,24,25,26,27,28,29,30,31,32,17,18,19,20,21,22,23,24,25,26,27,28,29,30,31,32,17,18,19,20,21,22,23,24,25,26,27,28,29,30,31,32,17,18,19,20,21,22,23,24,25,26,27,28,29,30,31,32,17,18,19,20,21,22,23,24,25,26,27,28,29,30,31,32,17,18,19,20,21,22,23,24,25,26,27,28,29,30,31,32,17,18,19,20,21,22,23,24,25,26,27,28,29,30,31,32,17,18,19,20,21,22,23,24,25,26,27,28,29,30,31,32,17,18,19,20,21,22,23,24,25,26,27,28,29,30,31,32,17,18,19,20,21,22,23,24,25,26,27,28,29,30,31,32,17,18,19,20,21,22,23,24,25,26,27,28,29,30,31,32,17,18,19,20,21,22,23,24,25,26,27,28,29,30,31,32,17,18,19,20,21,22,23,24,25,26,27,28,29,30,31,32,17,18,19,20,21,22,23,24,25,26,27,28,29,30,31,32,33,34,35,36,37,38,39,40,41,42,43,44,45,46,47,48,33,34,35,36,37,38,39,40,41,42,43,44,45,46,47,48,33,34,35,36,37,38,39,40,41,42,43,44,45,46,47,48,33,34,35,36,37,38,39,40,41,42,43,44,45,46,47,48,33,34,35,36,37,38,39,40,41,42,43,44,45,46,47,48,33,34,35,36,37,38,39,40,41,42,43,44,45,46,47,48,33,34,35,36,37,38,39,40,41,42,43,44,45,46,47,48,33,34,35,36,37,38,39,40,41,42,43,44,45,46,47,48,33,34,35,36,37,38,39,40,41,42,43,44,45,46,47,48,33,34,35,36,37,38,39,40,41,42,43,44,45,46,47,48,33,34,35,36,37,38,39,40,41,42,43,44,45,46,47,48,33,34,35,36,37,38,39,40,41,42,43,44,45,46,47,48,33,34,35,36,37,38,39,40,41,42,43,44,45,46,47,48,33,34,35,36,37,38,39,40,41,42,43,44,45,46,47,48,33,34,35,36,37,38,39,40,41,42,43,44,45,46,47,48,33,34,35,36,37,38,39,40,41,42,43,44,45,46,47,48,49,50,51,52,53,54,55,56,57,58,59,60,61,62,63,64,49,50,51,52,53,54,55,56,57,58,59,60,61,62,63,64,49,50,51,52,53,54,55,56,57,58,59,60,61,62,63,64,49,50,51,52,53,54,55,56,57,58,59,60,61,62,63,64,49,50,51,52,53,54,55,56,57,58,59,60,61,62,63,64,49,50,51,52,53,54,55,56,57,58,59,60,61,62,63,64,49,50,51,52,53,54,55,56,57,58,59,60,61,62,63,64,49,50,51,52,53,54,55,56,57,58,59,60,61,62,63,64,49,50,51,52,53,54,55,56,57,58,59,60,61,62,63,64,49,50,51,52,53,54,55,56,57,58,59,60,61,62,63,64,49,50,51,52,53,54,55,56,57,58,59,60,61,62,63,64,49,50,51,52,53,54,55,56,57,58,59,60,61,62,63,64,49,50,51,52,53,54,55,56,57,58,59,60,61,62,63,64,49,50,51,52,53,54,55,56,57,58,59,60,61,62,63,64,49,50,51,52,53,54,55,56,57,58,59,60,61,62,63,64,49,50,51,52,53,54,55,56,57,58,59,60,61,62,63,64,65,66,67,68,69,70,71,72,73,74,75,76,77,78,79,80,65,66,67,68,69,70,71,72,73,74,75,76,77,78,79,80,65,66,67,68,69,70,71,72,73,74,75,76,77,78,79,80,65,66,67,68,69,70,71,72,73,74,75,76,77,78,79,80,65,66,67,68,69,70,71,72,73,74,75,76,77,78,79,80,65,66,67,68,69,70,71,72,73,74,75,76,77,78,79,80,65,66,67,68,69,70,71,72,73,74,75,76,77,78,79,80,65,66,67,68,69,70,71,72,73,74,75,76,77,78,79,80,65,66,67,68,69,70,71,72,73,74,75,76,77,78,79,80,65,66,67,68,69,70,71,72,73,74,75,76,77,78,79,80,65,66,67,68,69,70,71,72,73,74,75,76,77,78,79,80,65,66,67,68,69,70,71,72,73,74,75,76,77,78,79,80,65,66,67,68,69,70,71,72,73,74,75,76,77,78,79,80,65,66,67,68,69,70,71,72,73,74,75,76,77,78,79,80,65,66,67,68,69,70,71,72,73,74,75,76,77,78,79,80,65,66,67,68,69,70,71,72,73,74,75,76,77,78,79,80,81,82,83,84,85,86,87,88,89,90,91,92,93,94,95,96,81,82,83,84,85,86,87,88,89,90,91,92,93,94,95,96,81,82,83,84,85,86,87,88,89,90,91,92,93,94,95,96,81,82,83,84,85,86,87,88,89,90,91,92,93,94,95,96,81,82,83,84,85,86,87,88,89,90,91,92,93,94,95,96,81,82,83,84,85,86,87,88,89,90,91,92,93,94,95,96,81,82,83,84,85,86,87,88,89,90,91,92,93,94,95,96,81,82,83,84,85,86,87,88,89,90,91,92,93,94,95,96,81,82,83,84,85,86,87,88,89,90,91,92,93,94,95,96,81,82,83,84,85,86,87,88,89,90,91,92,93,94,95,96,81,82,83,84,85,86,87,88,89,90,91,92,93,94,95,96,81,82,83,84,85,86,87,88,89,90,91,92,93,94,95,96,81,82,83,84,85,86,87,88,89,90,91,92,93,94,95,96,81,82,83,84,85,86,87,88,89,90,91,92,93,94,95,96,81,82,83,84,85,86,87,88,89,90,91,92,93,94,95,96,81,82,83,84,85,86,87,88,89,90,91,92,93,94,95,96,97,98,99,100,101,102,103,104,105,106,107,108,109,110,111,112,97,98,99,100,101,102,103,104,105,106,107,108,109,110,111,112,97,98,99,100,101,102,103,104,105,106,107,108,109,110,111,112,97,98,99,100,101,102,103,104,105,106,107,108,109,110,111,112,97,98,99,100,101,102,103,104,105,106,107,108,109,110,111,112,97,98,99,100,101,102,103,104,105,106,107,108,109,110,111,112,97,98,99,100,101,102,103,104,105,106,107,108,109,110,111,112,97,98,99,100,101,102,103,104,105,106,107,108,109,110,111,112,97,98,99,100,101,102,103,104,105,106,107,108,109,110,111,112,97,98,99,100,101,102,103,104,105,106,107,108,109,110,111,112,97,98,99,100,101,102,103,104,105,106,107,108,109,110,111,112,97,98,99,100,101,102,103,104,105,106,107,108,109,110,111,112,97,98,99,100,101,102,103,104,105,106,107,108,109,110,111,112,97,98,99,100,101,102,103,104,105,106,107,108,109,110,111,112,97,98,99,100,101,102,103,104,105,106,107,108,109,110,111,112,97,98,99,100,101,102,103,104,105,106,107,108,109,110,111,112,113,114,115,116,117,118,119,120,121,122,123,124,125,126,127,128,113,114,115,116,117,118,119,120,121,122,123,124,125,126,127,128,113,114,115,116,117,118,119,120,121,122,123,124,125,126,127,128,113,114,115,116,117,118,119,120,121,122,123,124,125,126,127,128,113,114,115,116,117,118,119,120,121,122,123,124,125,126,127,128,113,114,115,116,117,118,119,120,121,122,123,124,125,126,127,128,113,114,115,116,117,118,119,120,121,122,123,124,125,126,127,128,113,114,115,116,117,118,119,120,121,122,123,124,125,126,127,128,113,114,115,116,117,118,119,120,121,122,123,124,125,126,127,128,113,114,115,116,117,118,119,120,121,122,123,124,125,126,127,128,113,114,115,116,117,118,119,120,121,122,123,124,125,126,127,128,113,114,115,116,117,118,119,120,121,122,123,124,125,126,127,128,113,114,115,116,117,118,119,120,121,122,123,124,125,126,127,128,113,114,115,116,117,118,119,120,121,122,123,124,125,126,127,128,113,114,115,116,117,118,119,120,121,122,123,124,125,126,127,128,113,114,115,116,117,118,119,120,121,122,123,124,125,126,127,128,129,130,131,132,133,134,135,136,137,138,139,140,141,142,143,144,129,130,131,132,133,134,135,136,137,138,139,140,141,142,143,144,129,130,131,132,133,134,135,136,137,138,139,140,141,142,143,144,129,130,131,132,133,134,135,136,137,138,139,140,141,142,143,144,129,130,131,132,133,134,135,136,137,138,139,140,141,142,143,144,129,130,131,132,133,134,135,136,137,138,139,140,141,142,143,144,129,130,131,132,133,134,135,136,137,138,139,140,141,142,143,144,129,130,131,132,133,134,135,136,137,138,139,140,141,142,143,144,129,130,131,132,133,134,135,136,137,138,139,140,141,142,143,144,129,130,131,132,133,134,135,136,137,138,139,140,141,142,143,144,129,130,131,132,133,134,135,136,137,138,139,140,141,142,143,144,129,130,131,132,133,134,135,136,137,138,139,140,141,142,143,144,129,130,131,132,133,134,135,136,137,138,139,140,141,142,143,144,129,130,131,132,133,134,135,136,137,138,139,140,141,142,143,144,129,130,131,132,133,134,135,136,137,138,139,140,141,142,143,144,129,130,131,132,133,134,135,136,137,138,139,140,141,142,143,144,145,146,147,148,149,150,151,152,153,154,155,156,157,158,159,160,145,146,147,148,149,150,151,152,153,154,155,156,157,158,159,160,145,146,147,148,149,150,151,152,153,154,155,156,157,158,159,160,145,146,147,148,149,150,151,152,153,154,155,156,157,158,159,160,145,146,147,148,149,150,151,152,153,154,155,156,157,158,159,160,145,146,147,148,149,150,151,152,153,154,155,156,157,158,159,160,145,146,147,148,149,150,151,152,153,154,155,156,157,158,159,160,145,146,147,148,149,150,151,152,153,154,155,156,157,158,159,160,145,146,147,148,149,150,151,152,153,154,155,156,157,158,159,160,145,146,147,148,149,150,151,152,153,154,155,156,157,158,159,160,145,146,147,148,149,150,151,152,153,154,155,156,157,158,159,160,145,146,147,148,149,150,151,152,153,154,155,156,157,158,159,160,145,146,147,148,149,150,151,152,153,154,155,156,157,158,159,160,145,146,147,148,149,150,151,152,153,154,155,156,157,158,159,160,145,146,147,148,149,150,151,152,153,154,155,156,157,158,159,160,145,146,147,148,149,150,151,152,153,154,155,156,157,158,159,160,161,162,163,164,165,166,167,168,169,170,171,172,173,174,175,176,161,162,163,164,165,166,167,168,169,170,171,172,173,174,175,176,161,162,163,164,165,166,167,168,169,170,171,172,173,174,175,176,161,162,163,164,165,166,167,168,169,170,171,172,173,174,175,176,161,162,163,164,165,166,167,168,169,170,171,172,173,174,175,176,161,162,163,164,165,166,167,168,169,170,171,172,173,174,175,176,161,162,163,164,165,166,167,168,169,170,171,172,173,174,175,176,161,162,163,164,165,166,167,168,169,170,171,172,173,174,175,176,161,162,163,164,165,166,167,168,169,170,171,172,173,174,175,176,161,162,163,164,165,166,167,168,169,170,171,172,173,174,175,176,161,162,163,164,165,166,167,168,169,170,171,172,173,174,175,176,161,162,163,164,165,166,167,168,169,170,171,172,173,174,175,176,161,162,163,164,165,166,167,168,169,170,171,172,173,174,175,176,161,162,163,164,165,166,167,168,169,170,171,172,173,174,175,176,161,162,163,164,165,166,167,168,169,170,171,172,173,174,175,176,161,162,163,164,165,166,167,168,169,170,171,172,173,174,175,176,177,178,179,180,181,182,183,184,185,186,187,188,189,190,191,192,177,178,179,180,181,182,183,184,185,186,187,188,189,190,191,192,177,178,179,180,181,182,183,184,185,186,187,188,189,190,191,192,177,178,179,180,181,182,183,184,185,186,187,188,189,190,191,192,177,178,179,180,181,182,183,184,185,186,187,188,189,190,191,192,177,178,179,180,181,182,183,184,185,186,187,188,189,190,191,192,177,178,179,180,181,182,183,184,185,186,187,188,189,190,191,192,177,178,179,180,181,182,183,184,185,186,187,188,189,190,191,192,177,178,179,180,181,182,183,184,185,186,187,188,189,190,191,192,177,178,179,180,181,182,183,184,185,186,187,188,189,190,191,192,177,178,179,180,181,182,183,184,185,186,187,188,189,190,191,192,177,178,179,180,181,182,183,184,185,186,187,188,189,190,191,192,177,178,179,180,181,182,183,184,185,186,187,188,189,190,191,192,177,178,179,180,181,182,183,184,185,186,187,188,189,190,191,192,177,178,179,180,181,182,183,184,185,186,187,188,189,190,191,192,177,178,179,180,181,182,183,184,185,186,187,188,189,190,191,192,193,194,195,196,197,198,199,200,201,202,203,204,205,206,207,208,193,194,195,196,197,198,199,200,201,202,203,204,205,206,207,208,193,194,195,196,197,198,199,200,201,202,203,204,205,206,207,208,193,194,195,196,197,198,199,200,201,202,203,204,205,206,207,208,193,194,195,196,197,198,199,200,201,202,203,204,205,206,207,208,193,194,195,196,197,198,199,200,201,202,203,204,205,206,207,208,193,194,195,196,197,198,199,200,201,202,203,204,205,206,207,208,193,194,195,196,197,198,199,200,201,202,203,204,205,206,207,208,193,194,195,196,197,198,199,200,201,202,203,204,205,206,207,208,193,194,195,196,197,198,199,200,201,202,203,204,205,206,207,208,193,194,195,196,197,198,199,200,201,202,203,204,205,206,207,208,193,194,195,196,197,198,199,200,201,202,203,204,205,206,207,208,193,194,195,196,197,198,199,200,201,202,203,204,205,206,207,208,193,194,195,196,197,198,199,200,201,202,203,204,205,206,207,208,193,194,195,196,197,198,199,200,201,202,203,204,205,206,207,208,193,194,195,196,197,198,199,200,201,202,203,204,205,206,207,208,209,210,211,212,213,214,215,216,217,218,219,220,221,222,223,224,209,210,211,212,213,214,215,216,217,218,219,220,221,222,223,224,209,210,211,212,213,214,215,216,217,218,219,220,221,222,223,224,209,210,211,212,213,214,215,216,217,218,219,220,221,222,223,224,209,210,211,212,213,214,215,216,217,218,219,220,221,222,223,224,209,210,211,212,213,214,215,216,217,218,219,220,221,222,223,224,209,210,211,212,213,214,215,216,217,218,219,220,221,222,223,224,209,210,211,212,213,214,215,216,217,218,219,220,221,222,223,224,209,210,211,212,213,214,215,216,217,218,219,220,221,222,223,224,209,210,211,212,213,214,215,216,217,218,219,220,221,222,223,224,209,210,211,212,213,214,215,216,217,218,219,220,221,222,223,224,209,210,211,212,213,214,215,216,217,218,219,220,221,222,223,224,209,210,211,212,213,214,215,216,217,218,219,220,221,222,223,224,209,210,211,212,213,214,215,216,217,218,219,220,221,222,223,224,209,210,211,212,213,214,215,216,217,218,219,220,221,222,223,224,209,210,211,212,213,214,215,216,217,218,219,220,221,222,223,224,225,226,227,228,229,230,231,232,233,234,235,236,237,238,239,240,225,226,227,228,229,230,231,232,233,234,235,236,237,238,239,240,225,226,227,228,229,230,231,232,233,234,235,236,237,238,239,240,225,226,227,228,229,230,231,232,233,234,235,236,237,238,239,240,225,226,227,228,229,230,231,232,233,234,235,236,237,238,239,240,225,226,227,228,229,230,231,232,233,234,235,236,237,238,239,240,225,226,227,228,229,230,231,232,233,234,235,236,237,238,239,240,225,226,227,228,229,230,231,232,233,234,235,236,237,238,239,240,225,226,227,228,229,230,231,232,233,234,235,236,237,238,239,240,225,226,227,228,229,230,231,232,233,234,235,236,237,238,239,240,225,226,227,228,229,230,231,232,233,234,235,236,237,238,239,240,225,226,227,228,229,230,231,232,233,234,235,236,237,238,239,240,225,226,227,228,229,230,231,232,233,234,235,236,237,238,239,240,225,226,227,228,229,230,231,232,233,234,235,236,237,238,239,240,225,226,227,228,229,230,231,232,233,234,235,236,237,238,239,240,225,226,227,228,229,230,231,232,233,234,235,236,237,238,239,240,241,242,243,244,245,246,247,248,249,250,251,252,253,254,255,256,241,242,243,244,245,246,247,248,249,250,251,252,253,254,255,256,241,242,243,244,245,246,247,248,249,250,251,252,253,254,255,256,241,242,243,244,245,246,247,248,249,250,251,252,253,254,255,256,241,242,243,244,245,246,247,248,249,250,251,252,253,254,255,256,241,242,243,244,245,246,247,248,249,250,251,252,253,254,255,256,241,242,243,244,245,246,247,248,249,250,251,252,253,254,255,256,241,242,243,244,245,246,247,248,249,250,251,252,253,254,255,256,241,242,243,244,245,246,247,248,249,250,251,252,253,254,255,256,241,242,243,244,245,246,247,248,249,250,251,252,253,254,255,256,241,242,243,244,245,246,247,248,249,250,251,252,253,254,255,256,241,242,243,244,245,246,247,248,249,250,251,252,253,254,255,256,241,242,243,244,245,246,247,248,249,250,251,252,253,254,255,256,241,242,243,244,245,246,247,248,249,250,251,252,253,254,255,256,241,242,243,244,245,246,247,248,249,250,251,252,253,254,255,256,241,242,243,244,245,246,247,248,249,250,251,252,253,254,255,256,1,2,3,4,5,6,7,8,9,10,11,12,13,14,15,16,1,2,3,4,5,6,7,8,9,10,11,12,13,14,15,16,1,2,3,4,5,6,7,8,9,10,11,12,13,14,15,16,1,2,3,4,5,6,7,8,9,10,11,12,13,14,15,16,1,2,3,4,5,6,7,8,9,10,11,12,13,14,15,16,1,2,3,4,5,6,7,8,9,10,11,12,13,14,15,16,1,2,3,4,5,6,7,8,9,10,11,12,13,14,15,16,1,2,3,4,5,6,7,8,9,10,11,12,13,14,15,16,1,2,3,4,5,6,7,8,9,10,11,12,13,14,15,16,1,2,3,4,5,6,7,8,9,10,11,12,13,14,15,16,1,2,3,4,5,6,7,8,9,10,11,12,13,14,15,16,1,2,3,4,5,6,7,8,9,10,11,12,13,14,15,16,1,2,3,4,5,6,7,8,9,10,11,12,13,14,15,16,1,2,3,4,5,6,7,8,9,10,11,12,13,14,15,16,1,2,3,4,5,6,7,8,9,10,11,12,13,14,15,16,1,2,3,4,5,6,7,8,9,10,11,12,13,14,15,16,17,18,19,20,21,22,23,24,25,26,27,28,29,30,31,32,17,18,19,20,21,22,23,24,25,26,27,28,29,30,31,32,17,18,19,20,21,22,23,24,25,26,27,28,29,30,31,32,17,18,19,20,21,22,23,24,25,26,27,28,29,30,31,32,17,18,19,20,21,22,23,24,25,26,27,28,29,30,31,32,17,18,19,20,21,22,23,24,25,26,27,28,29,30,31,32,17,18,19,20,21,22,23,24,25,26,27,28,29,30,31,32,17,18,19,20,21,22,23,24,25,26,27,28,29,30,31,32,17,18,19,20,21,22,23,24,25,26,27,28,29,30,31,32,17,18,19,20,21,22,23,24,25,26,27,28,29,30,31,32,17,18,19,20,21,22,23,24,25,26,27,28,29,30,31,32,17,18,19,20,21,22,23,24,25,26,27,28,29,30,31,32,17,18,19,20,21,22,23,24,25,26,27,28,29,30,31,32,17,18,19,20,21,22,23,24,25,26,27,28,29,30,31,32,17,18,19,20,21,22,23,24,25,26,27,28,29,30,31,32,17,18,19,20,21,22,23,24,25,26,27,28,29,30,31,32,33,34,35,36,37,38,39,40,41,42,43,44,45,46,47,48,33,34,35,36,37,38,39,40,41,42,43,44,45,46,47,48,33,34,35,36,37,38,39,40,41,42,43,44,45,46,47,48,33,34,35,36,37,38,39,40,41,42,43,44,45,46,47,48,33,34,35,36,37,38,39,40,41,42,43,44,45,46,47,48,33,34,35,36,37,38,39,40,41,42,43,44,45,46,47,48,33,34,35,36,37,38,39,40,41,42,43,44,45,46,47,48,33,34,35,36,37,38,39,40,41,42,43,44,45,46,47,48,33,34,35,36,37,38,39,40,41,42,43,44,45,46,47,48,33,34,35,36,37,38,39,40,41,42,43,44,45,46,47,48,33,34,35,36,37,38,39,40,41,42,43,44,45,46,47,48,33,34,35,36,37,38,39,40,41,42,43,44,45,46,47,48,33,34,35,36,37,38,39,40,41,42,43,44,45,46,47,48,33,34,35,36,37,38,39,40,41,42,43,44,45,46,47,48,33,34,35,36,37,38,39,40,41,42,43,44,45,46,47,48,33,34,35,36,37,38,39,40,41,42,43,44,45,46,47,48,49,50,51,52,53,54,55,56,57,58,59,60,61,62,63,64,49,50,51,52,53,54,55,56,57,58,59,60,61,62,63,64,49,50,51,52,53,54,55,56,57,58,59,60,61,62,63,64,49,50,51,52,53,54,55,56,57,58,59,60,61,62,63,64,49,50,51,52,53,54,55,56,57,58,59,60,61,62,63,64,49,50,51,52,53,54,55,56,57,58,59,60,61,62,63,64,49,50,51,52,53,54,55,56,57,58,59,60,61,62,63,64,49,50,51,52,53,54,55,56,57,58,59,60,61,62,63,64,49,50,51,52,53,54,55,56,57,58,59,60,61,62,63,64,49,50,51,52,53,54,55,56,57,58,59,60,61,62,63,64,49,50,51,52,53,54,55,56,57,58,59,60,61,62,63,64,49,50,51,52,53,54,55,56,57,58,59,60,61,62,63,64,49,50,51,52,53,54,55,56,57,58,59,60,61,62,63,64,49,50,51,52,53,54,55,56,57,58,59,60,61,62,63,64,49,50,51,52,53,54,55,56,57,58,59,60,61,62,63,64,49,50,51,52,53,54,55,56,57,58,59,60,61,62,63,64,65,66,67,68,69,70,71,72,73,74,75,76,77,78,79,80,65,66,67,68,69,70,71,72,73,74,75,76,77,78,79,80,65,66,67,68,69,70,71,72,73,74,75,76,77,78,79,80,65,66,67,68,69,70,71,72,73,74,75,76,77,78,79,80,65,66,67,68,69,70,71,72,73,74,75,76,77,78,79,80,65,66,67,68,69,70,71,72,73,74,75,76,77,78,79,80,65,66,67,68,69,70,71,72,73,74,75,76,77,78,79,80,65,66,67,68,69,70,71,72,73,74,75,76,77,78,79,80,65,66,67,68,69,70,71,72,73,74,75,76,77,78,79,80,65,66,67,68,69,70,71,72,73,74,75,76,77,78,79,80,65,66,67,68,69,70,71,72,73,74,75,76,77,78,79,80,65,66,67,68,69,70,71,72,73,74,75,76,77,78,79,80,65,66,67,68,69,70,71,72,73,74,75,76,77,78,79,80,65,66,67,68,69,70,71,72,73,74,75,76,77,78,79,80,65,66,67,68,69,70,71,72,73,74,75,76,77,78,79,80,65,66,67,68,69,70,71,72,73,74,75,76,77,78,79,80,81,82,83,84,85,86,87,88,89,90,91,92,93,94,95,96,81,82,83,84,85,86,87,88,89,90,91,92,93,94,95,96,81,82,83,84,85,86,87,88,89,90,91,92,93,94,95,96,81,82,83,84,85,86,87,88,89,90,91,92,93,94,95,96,81,82,83,84,85,86,87,88,89,90,91,92,93,94,95,96,81,82,83,84,85,86,87,88,89,90,91,92,93,94,95,96,81,82,83,84,85,86,87,88,89,90,91,92,93,94,95,96,81,82,83,84,85,86,87,88,89,90,91,92,93,94,95,96,81,82,83,84,85,86,87,88,89,90,91,92,93,94,95,96,81,82,83,84,85,86,87,88,89,90,91,92,93,94,95,96,81,82,83,84,85,86,87,88,89,90,91,92,93,94,95,96,81,82,83,84,85,86,87,88,89,90,91,92,93,94,95,96,81,82,83,84,85,86,87,88,89,90,91,92,93,94,95,96,81,82,83,84,85,86,87,88,89,90,91,92,93,94,95,96,81,82,83,84,85,86,87,88,89,90,91,92,93,94,95,96,81,82,83,84,85,86,87,88,89,90,91,92,93,94,95,96,97,98,99,100,101,102,103,104,105,106,107,108,109,110,111,112,97,98,99,100,101,102,103,104,105,106,107,108,109,110,111,112,97,98,99,100,101,102,103,104,105,106,107,108,109,110,111,112,97,98,99,100,101,102,103,104,105,106,107,108,109,110,111,112,97,98,99,100,101,102,103,104,105,106,107,108,109,110,111,112,97,98,99,100,101,102,103,104,105,106,107,108,109,110,111,112,97,98,99,100,101,102,103,104,105,106,107,108,109,110,111,112,97,98,99,100,101,102,103,104,105,106,107,108,109,110,111,112,97,98,99,100,101,102,103,104,105,106,107,108,109,110,111,112,97,98,99,100,101,102,103,104,105,106,107,108,109,110,111,112,97,98,99,100,101,102,103,104,105,106,107,108,109,110,111,112,97,98,99,100,101,102,103,104,105,106,107,108,109,110,111,112,97,98,99,100,101,102,103,104,105,106,107,108,109,110,111,112,97,98,99,100,101,102,103,104,105,106,107,108,109,110,111,112,97,98,99,100,101,102,103,104,105,106,107,108,109,110,111,112,97,98,99,100,101,102,103,104,105,106,107,108,109,110,111,112,113,114,115,116,117,118,119,120,121,122,123,124,125,126,127,128,113,114,115,116,117,118,119,120,121,122,123,124,125,126,127,128,113,114,115,116,117,118,119,120,121,122,123,124,125,126,127,128,113,114,115,116,117,118,119,120,121,122,123,124,125,126,127,128,113,114,115,116,117,118,119,120,121,122,123,124,125,126,127,128,113,114,115,116,117,118,119,120,121,122,123,124,125,126,127,128,113,114,115,116,117,118,119,120,121,122,123,124,125,126,127,128,113,114,115,116,117,118,119,120,121,122,123,124,125,126,127,128,113,114,115,116,117,118,119,120,121,122,123,124,125,126,127,128,113,114,115,116,117,118,119,120,121,122,123,124,125,126,127,128,113,114,115,116,117,118,119,120,121,122,123,124,125,126,127,128,113,114,115,116,117,118,119,120,121,122,123,124,125,126,127,128,113,114,115,116,117,118,119,120,121,122,123,124,125,126,127,128,113,114,115,116,117,118,119,120,121,122,123,124,125,126,127,128,113,114,115,116,117,118,119,120,121,122,123,124,125,126,127,128,113,114,115,116,117,118,119,120,121,122,123,124,125,126,127,128,129,130,131,132,133,134,135,136,137,138,139,140,141,142,143,144,129,130,131,132,133,134,135,136,137,138,139,140,141,142,143,144,129,130,131,132,133,134,135,136,137,138,139,140,141,142,143,144,129,130,131,132,133,134,135,136,137,138,139,140,141,142,143,144,129,130,131,132,133,134,135,136,137,138,139,140,141,142,143,144,129,130,131,132,133,134,135,136,137,138,139,140,141,142,143,144,129,130,131,132,133,134,135,136,137,138,139,140,141,142,143,144,129,130,131,132,133,134,135,136,137,138,139,140,141,142,143,144,129,130,131,132,133,134,135,136,137,138,139,140,141,142,143,144,129,130,131,132,133,134,135,136,137,138,139,140,141,142,143,144,129,130,131,132,133,134,135,136,137,138,139,140,141,142,143,144,129,130,131,132,133,134,135,136,137,138,139,140,141,142,143,144,129,130,131,132,133,134,135,136,137,138,139,140,141,142,143,144,129,130,131,132,133,134,135,136,137,138,139,140,141,142,143,144,129,130,131,132,133,134,135,136,137,138,139,140,141,142,143,144,129,130,131,132,133,134,135,136,137,138,139,140,141,142,143,144,145,146,147,148,149,150,151,152,153,154,155,156,157,158,159,160,145,146,147,148,149,150,151,152,153,154,155,156,157,158,159,160,145,146,147,148,149,150,151,152,153,154,155,156,157,158,159,160,145,146,147,148,149,150,151,152,153,154,155,156,157,158,159,160,145,146,147,148,149,150,151,152,153,154,155,156,157,158,159,160,145,146,147,148,149,150,151,152,153,154,155,156,157,158,159,160,145,146,147,148,149,150,151,152,153,154,155,156,157,158,159,160,145,146,147,148,149,150,151,152,153,154,155,156,157,158,159,160,145,146,147,148,149,150,151,152,153,154,155,156,157,158,159,160,145,146,147,148,149,150,151,152,153,154,155,156,157,158,159,160,145,146,147,148,149,150,151,152,153,154,155,156,157,158,159,160,145,146,147,148,149,150,151,152,153,154,155,156,157,158,159,160,145,146,147,148,149,150,151,152,153,154,155,156,157,158,159,160,145,146,147,148,149,150,151,152,153,154,155,156,157,158,159,160,145,146,147,148,149,150,151,152,153,154,155,156,157,158,159,160,145,146,147,148,149,150,151,152,153,154,155,156,157,158,159,160,161,162,163,164,165,166,167,168,169,170,171,172,173,174,175,176,161,162,163,164,165,166,167,168,169,170,171,172,173,174,175,176,161,162,163,164,165,166,167,168,169,170,171,172,173,174,175,176,161,162,163,164,165,166,167,168,169,170,171,172,173,174,175,176,161,162,163,164,165,166,167,168,169,170,171,172,173,174,175,176,161,162,163,164,165,166,167,168,169,170,171,172,173,174,175,176,161,162,163,164,165,166,167,168,169,170,171,172,173,174,175,176,161,162,163,164,165,166,167,168,169,170,171,172,173,174,175,176,161,162,163,164,165,166,167,168,169,170,171,172,173,174,175,176,161,162,163,164,165,166,167,168,169,170,171,172,173,174,175,176,161,162,163,164,165,166,167,168,169,170,171,172,173,174,175,176,161,162,163,164,165,166,167,168,169,170,171,172,173,174,175,176,161,162,163,164,165,166,167,168,169,170,171,172,173,174,175,176,161,162,163,164,165,166,167,168,169,170,171,172,173,174,175,176,161,162,163,164,165,166,167,168,169,170,171,172,173,174,175,176,161,162,163,164,165,166,167,168,169,170,171,172,173,174,175,176,177,178,179,180,181,182,183,184,185,186,187,188,189,190,191,192,177,178,179,180,181,182,183,184,185,186,187,188,189,190,191,192,177,178,179,180,181,182,183,184,185,186,187,188,189,190,191,192,177,178,179,180,181,182,183,184,185,186,187,188,189,190,191,192,177,178,179,180,181,182,183,184,185,186,187,188,189,190,191,192,177,178,179,180,181,182,183,184,185,186,187,188,189,190,191,192,177,178,179,180,181,182,183,184,185,186,187,188,189,190,191,192,177,178,179,180,181,182,183,184,185,186,187,188,189,190,191,192,177,178,179,180,181,182,183,184,185,186,187,188,189,190,191,192,177,178,179,180,181,182,183,184,185,186,187,188,189,190,191,192,177,178,179,180,181,182,183,184,185,186,187,188,189,190,191,192,177,178,179,180,181,182,183,184,185,186,187,188,189,190,191,192,177,178,179,180,181,182,183,184,185,186,187,188,189,190,191,192,177,178,179,180,181,182,183,184,185,186,187,188,189,190,191,192,177,178,179,180,181,182,183,184,185,186,187,188,189,190,191,192,177,178,179,180,181,182,183,184,185,186,187,188,189,190,191,192,193,194,195,196,197,198,199,200,201,202,203,204,205,206,207,208,193,194,195,196,197,198,199,200,201,202,203,204,205,206,207,208,193,194,195,196,197,198,199,200,201,202,203,204,205,206,207,208,193,194,195,196,197,198,199,200,201,202,203,204,205,206,207,208,193,194,195,196,197,198,199,200,201,202,203,204,205,206,207,208,193,194,195,196,197,198,199,200,201,202,203,204,205,206,207,208,193,194,195,196,197,198,199,200,201,202,203,204,205,206,207,208,193,194,195,196,197,198,199,200,201,202,203,204,205,206,207,208,193,194,195,196,197,198,199,200,201,202,203,204,205,206,207,208,193,194,195,196,197,198,199,200,201,202,203,204,205,206,207,208,193,194,195,196,197,198,199,200,201,202,203,204,205,206,207,208,193,194,195,196,197,198,199,200,201,202,203,204,205,206,207,208,193,194,195,196,197,198,199,200,201,202,203,204,205,206,207,208,193,194,195,196,197,198,199,200,201,202,203,204,205,206,207,208,193,194,195,196,197,198,199,200,201,202,203,204,205,206,207,208,193,194,195,196,197,198,199,200,201,202,203,204,205,206,207,208,209,210,211,212,213,214,215,216,217,218,219,220,221,222,223,224,209,210,211,212,213,214,215,216,217,218,219,220,221,222,223,224,209,210,211,212,213,214,215,216,217,218,219,220,221,222,223,224,209,210,211,212,213,214,215,216,217,218,219,220,221,222,223,224,209,210,211,212,213,214,215,216,217,218,219,220,221,222,223,224,209,210,211,212,213,214,215,216,217,218,219,220,221,222,223,224,209,210,211,212,213,214,215,216,217,218,219,220,221,222,223,224,209,210,211,212,213,214,215,216,217,218,219,220,221,222,223,224,209,210,211,212,213,214,215,216,217,218,219,220,221,222,223,224,209,210,211,212,213,214,215,216,217,218,219,220,221,222,223,224,209,210,211,212,213,214,215,216,217,218,219,220,221,222,223,224,209,210,211,212,213,214,215,216,217,218,219,220,221,222,223,224,209,210,211,212,213,214,215,216,217,218,219,220,221,222,223,224,209,210,211,212,213,214,215,216,217,218,219,220,221,222,223,224,209,210,211,212,213,214,215,216,217,218,219,220,221,222,223,224,209,210,211,212,213,214,215,216,217,218,219,220,221,222,223,224,225,226,227,228,229,230,231,232,233,234,235,236,237,238,239,240,225,226,227,228,229,230,231,232,233,234,235,236,237,238,239,240,225,226,227,228,229,230,231,232,233,234,235,236,237,238,239,240,225,226,227,228,229,230,231,232,233,234,235,236,237,238,239,240,225,226,227,228,229,230,231,232,233,234,235,236,237,238,239,240,225,226,227,228,229,230,231,232,233,234,235,236,237,238,239,240,225,226,227,228,229,230,231,232,233,234,235,236,237,238,239,240,225,226,227,228,229,230,231,232,233,234,235,236,237,238,239,240,225,226,227,228,229,230,231,232,233,234,235,236,237,238,239,240,225,226,227,228,229,230,231,232,233,234,235,236,237,238,239,240,225,226,227,228,229,230,231,232,233,234,235,236,237,238,239,240,225,226,227,228,229,230,231,232,233,234,235,236,237,238,239,240,225,226,227,228,229,230,231,232,233,234,235,236,237,238,239,240,225,226,227,228,229,230,231,232,233,234,235,236,237,238,239,240,225,226,227,228,229,230,231,232,233,234,235,236,237,238,239,240,225,226,227,228,229,230,231,232,233,234,235,236,237,238,239,240,241,242,243,244,245,246,247,248,249,250,251,252,253,254,255,256,241,242,243,244,245,246,247,248,249,250,251,252,253,254,255,256,241,242,243,244,245,246,247,248,249,250,251,252,253,254,255,256,241,242,243,244,245,246,247,248,249,250,251,252,253,254,255,256,241,242,243,244,245,246,247,248,249,250,251,252,253,254,255,256,241,242,243,244,245,246,247,248,249,250,251,252,253,254,255,256,241,242,243,244,245,246,247,248,249,250,251,252,253,254,255,256,241,242,243,244,245,246,247,248,249,250,251,252,253,254,255,256,241,242,243,244,245,246,247,248,249,250,251,252,253,254,255,256,241,242,243,244,245,246,247,248,249,250,251,252,253,254,255,256,241,242,243,244,245,246,247,248,249,250,251,252,253,254,255,256,241,242,243,244,245,246,247,248,249,250,251,252,253,254,255,256,241,242,243,244,245,246,247,248,249,250,251,252,253,254,255,256,241,242,243,244,245,246,247,248,249,250,251,252,253,254,255,256,241,242,243,244,245,246,247,248,249,250,251,252,253,254,255,256,241,242,243,244,245,246,247,248,249,250,251,252,253,254,255,256,1,2,3,4,5,6,7,8,9,10,11,12,13,14,15,16,1,2,3,4,5,6,7,8,9,10,11,12,13,14,15,16,1,2,3,4,5,6,7,8,9,10,11,12,13,14,15,16,1,2,3,4,5,6,7,8,9,10,11,12,13,14,15,16,1,2,3,4,5,6,7,8,9,10,11,12,13,14,15,16,1,2,3,4,5,6,7,8,9,10,11,12,13,14,15,16,1,2,3,4,5,6,7,8,9,10,11,12,13,14,15,16,1,2,3,4,5,6,7,8,9,10,11,12,13,14,15,16,1,2,3,4,5,6,7,8,9,10,11,12,13,14,15,16,1,2,3,4,5,6,7,8,9,10,11,12,13,14,15,16,1,2,3,4,5,6,7,8,9,10,11,12,13,14,15,16,1,2,3,4,5,6,7,8,9,10,11,12,13,14,15,16,1,2,3,4,5,6,7,8,9,10,11,12,13,14,15,16,1,2,3,4,5,6,7,8,9,10,11,12,13,14,15,16,1,2,3,4,5,6,7,8,9,10,11,12,13,14,15,16,1,2,3,4,5,6,7,8,9,10,11,12,13,14,15,16,17,18,19,20,21,22,23,24,25,26,27,28,29,30,31,32,17,18,19,20,21,22,23,24,25,26,27,28,29,30,31,32,17,18,19,20,21,22,23,24,25,26,27,28,29,30,31,32,17,18,19,20,21,22,23,24,25,26,27,28,29,30,31,32,17,18,19,20,21,22,23,24,25,26,27,28,29,30,31,32,17,18,19,20,21,22,23,24,25,26,27,28,29,30,31,32,17,18,19,20,21,22,23,24,25,26,27,28,29,30,31,32,17,18,19,20,21,22,23,24,25,26,27,28,29,30,31,32,17,18,19,20,21,22,23,24,25,26,27,28,29,30,31,32,17,18,19,20,21,22,23,24,25,26,27,28,29,30,31,32,17,18,19,20,21,22,23,24,25,26,27,28,29,30,31,32,17,18,19,20,21,22,23,24,25,26,27,28,29,30,31,32,17,18,19,20,21,22,23,24,25,26,27,28,29,30,31,32,17,18,19,20,21,22,23,24,25,26,27,28,29,30,31,32,17,18,19,20,21,22,23,24,25,26,27,28,29,30,31,32,17,18,19,20,21,22,23,24,25,26,27,28,29,30,31,32,33,34,35,36,37,38,39,40,41,42,43,44,45,46,47,48,33,34,35,36,37,38,39,40,41,42,43,44,45,46,47,48,33,34,35,36,37,38,39,40,41,42,43,44,45,46,47,48,33,34,35,36,37,38,39,40,41,42,43,44,45,46,47,48,33,34,35,36,37,38,39,40,41,42,43,44,45,46,47,48,33,34,35,36,37,38,39,40,41,42,43,44,45,46,47,48,33,34,35,36,37,38,39,40,41,42,43,44,45,46,47,48,33,34,35,36,37,38,39,40,41,42,43,44,45,46,47,48,33,34,35,36,37,38,39,40,41,42,43,44,45,46,47,48,33,34,35,36,37,38,39,40,41,42,43,44,45,46,47,48,33,34,35,36,37,38,39,40,41,42,43,44,45,46,47,48,33,34,35,36,37,38,39,40,41,42,43,44,45,46,47,48,33,34,35,36,37,38,39,40,41,42,43,44,45,46,47,48,33,34,35,36,37,38,39,40,41,42,43,44,45,46,47,48,33,34,35,36,37,38,39,40,41,42,43,44,45,46,47,48,33,34,35,36,37,38,39,40,41,42,43,44,45,46,47,48,49,50,51,52,53,54,55,56,57,58,59,60,61,62,63,64,49,50,51,52,53,54,55,56,57,58,59,60,61,62,63,64,49,50,51,52,53,54,55,56,57,58,59,60,61,62,63,64,49,50,51,52,53,54,55,56,57,58,59,60,61,62,63,64,49,50,51,52,53,54,55,56,57,58,59,60,61,62,63,64,49,50,51,52,53,54,55,56,57,58,59,60,61,62,63,64,49,50,51,52,53,54,55,56,57,58,59,60,61,62,63,64,49,50,51,52,53,54,55,56,57,58,59,60,61,62,63,64,49,50,51,52,53,54,55,56,57,58,59,60,61,62,63,64,49,50,51,52,53,54,55,56,57,58,59,60,61,62,63,64,49,50,51,52,53,54,55,56,57,58,59,60,61,62,63,64,49,50,51,52,53,54,55,56,57,58,59,60,61,62,63,64,49,50,51,52,53,54,55,56,57,58,59,60,61,62,63,64,49,50,51,52,53,54,55,56,57,58,59,60,61,62,63,64,49,50,51,52,53,54,55,56,57,58,59,60,61,62,63,64,49,50,51,52,53,54,55,56,57,58,59,60,61,62,63,64,65,66,67,68,69,70,71,72,73,74,75,76,77,78,79,80,65,66,67,68,69,70,71,72,73,74,75,76,77,78,79,80,65,66,67,68,69,70,71,72,73,74,75,76,77,78,79,80,65,66,67,68,69,70,71,72,73,74,75,76,77,78,79,80,65,66,67,68,69,70,71,72,73,74,75,76,77,78,79,80,65,66,67,68,69,70,71,72,73,74,75,76,77,78,79,80,65,66,67,68,69,70,71,72,73,74,75,76,77,78,79,80,65,66,67,68,69,70,71,72,73,74,75,76,77,78,79,80,65,66,67,68,69,70,71,72,73,74,75,76,77,78,79,80,65,66,67,68,69,70,71,72,73,74,75,76,77,78,79,80,65,66,67,68,69,70,71,72,73,74,75,76,77,78,79,80,65,66,67,68,69,70,71,72,73,74,75,76,77,78,79,80,65,66,67,68,69,70,71,72,73,74,75,76,77,78,79,80,65,66,67,68,69,70,71,72,73,74,75,76,77,78,79,80,65,66,67,68,69,70,71,72,73,74,75,76,77,78,79,80,65,66,67,68,69,70,71,72,73,74,75,76,77,78,79,80,81,82,83,84,85,86,87,88,89,90,91,92,93,94,95,96,81,82,83,84,85,86,87,88,89,90,91,92,93,94,95,96,81,82,83,84,85,86,87,88,89,90,91,92,93,94,95,96,81,82,83,84,85,86,87,88,89,90,91,92,93,94,95,96,81,82,83,84,85,86,87,88,89,90,91,92,93,94,95,96,81,82,83,84,85,86,87,88,89,90,91,92,93,94,95,96,81,82,83,84,85,86,87,88,89,90,91,92,93,94,95,96,81,82,83,84,85,86,87,88,89,90,91,92,93,94,95,96,81,82,83,84,85,86,87,88,89,90,91,92,93,94,95,96,81,82,83,84,85,86,87,88,89,90,91,92,93,94,95,96,81,82,83,84,85,86,87,88,89,90,91,92,93,94,95,96,81,82,83,84,85,86,87,88,89,90,91,92,93,94,95,96,81,82,83,84,85,86,87,88,89,90,91,92,93,94,95,96,81,82,83,84,85,86,87,88,89,90,91,92,93,94,95,96,81,82,83,84,85,86,87,88,89,90,91,92,93,94,95,96,81,82,83,84,85,86,87,88,89,90,91,92,93,94,95,96,97,98,99,100,101,102,103,104,105,106,107,108,109,110,111,112,97,98,99,100,101,102,103,104,105,106,107,108,109,110,111,112,97,98,99,100,101,102,103,104,105,106,107,108,109,110,111,112,97,98,99,100,101,102,103,104,105,106,107,108,109,110,111,112,97,98,99,100,101,102,103,104,105,106,107,108,109,110,111,112,97,98,99,100,101,102,103,104,105,106,107,108,109,110,111,112,97,98,99,100,101,102,103,104,105,106,107,108,109,110,111,112,97,98,99,100,101,102,103,104,105,106,107,108,109,110,111,112,97,98,99,100,101,102,103,104,105,106,107,108,109,110,111,112,97,98,99,100,101,102,103,104,105,106,107,108,109,110,111,112,97,98,99,100,101,102,103,104,105,106,107,108,109,110,111,112,97,98,99,100,101,102,103,104,105,106,107,108,109,110,111,112,97,98,99,100,101,102,103,104,105,106,107,108,109,110,111,112,97,98,99,100,101,102,103,104,105,106,107,108,109,110,111,112,97,98,99,100,101,102,103,104,105,106,107,108,109,110,111,112,97,98,99,100,101,102,103,104,105,106,107,108,109,110,111,112,113,114,115,116,117,118,119,120,121,122,123,124,125,126,127,128,113,114,115,116,117,118,119,120,121,122,123,124,125,126,127,128,113,114,115,116,117,118,119,120,121,122,123,124,125,126,127,128,113,114,115,116,117,118,119,120,121,122,123,124,125,126,127,128,113,114,115,116,117,118,119,120,121,122,123,124,125,126,127,128,113,114,115,116,117,118,119,120,121,122,123,124,125,126,127,128,113,114,115,116,117,118,119,120,121,122,123,124,125,126,127,128,113,114,115,116,117,118,119,120,121,122,123,124,125,126,127,128,113,114,115,116,117,118,119,120,121,122,123,124,125,126,127,128,113,114,115,116,117,118,119,120,121,122,123,124,125,126,127,128,113,114,115,116,117,118,119,120,121,122,123,124,125,126,127,128,113,114,115,116,117,118,119,120,121,122,123,124,125,126,127,128,113,114,115,116,117,118,119,120,121,122,123,124,125,126,127,128,113,114,115,116,117,118,119,120,121,122,123,124,125,126,127,128,113,114,115,116,117,118,119,120,121,122,123,124,125,126,127,128,113,114,115,116,117,118,119,120,121,122,123,124,125,126,127,128,129,130,131,132,133,134,135,136,137,138,139,140,141,142,143,144,129,130,131,132,133,134,135,136,137,138,139,140,141,142,143,144,129,130,131,132,133,134,135,136,137,138,139,140,141,142,143,144,129,130,131,132,133,134,135,136,137,138,139,140,141,142,143,144,129,130,131,132,133,134,135,136,137,138,139,140,141,142,143,144,129,130,131,132,133,134,135,136,137,138,139,140,141,142,143,144,129,130,131,132,133,134,135,136,137,138,139,140,141,142,143,144,129,130,131,132,133,134,135,136,137,138,139,140,141,142,143,144,129,130,131,132,133,134,135,136,137,138,139,140,141,142,143,144,129,130,131,132,133,134,135,136,137,138,139,140,141,142,143,144,129,130,131,132,133,134,135,136,137,138,139,140,141,142,143,144,129,130,131,132,133,134,135,136,137,138,139,140,141,142,143,144,129,130,131,132,133,134,135,136,137,138,139,140,141,142,143,144,129,130,131,132,133,134,135,136,137,138,139,140,141,142,143,144,129,130,131,132,133,134,135,136,137,138,139,140,141,142,143,144,129,130,131,132,133,134,135,136,137,138,139,140,141,142,143,144,145,146,147,148,149,150,151,152,153,154,155,156,157,158,159,160,145,146,147,148,149,150,151,152,153,154,155,156,157,158,159,160,145,146,147,148,149,150,151,152,153,154,155,156,157,158,159,160,145,146,147,148,149,150,151,152,153,154,155,156,157,158,159,160,145,146,147,148,149,150,151,152,153,154,155,156,157,158,159,160,145,146,147,148,149,150,151,152,153,154,155,156,157,158,159,160,145,146,147,148,149,150,151,152,153,154,155,156,157,158,159,160,145,146,147,148,149,150,151,152,153,154,155,156,157,158,159,160,145,146,147,148,149,150,151,152,153,154,155,156,157,158,159,160,145,146,147,148,149,150,151,152,153,154,155,156,157,158,159,160,145,146,147,148,149,150,151,152,153,154,155,156,157,158,159,160,145,146,147,148,149,150,151,152,153,154,155,156,157,158,159,160,145,146,147,148,149,150,151,152,153,154,155,156,157,158,159,160,145,146,147,148,149,150,151,152,153,154,155,156,157,158,159,160,145,146,147,148,149,150,151,152,153,154,155,156,157,158,159,160,145,146,147,148,149,150,151,152,153,154,155,156,157,158,159,160,161,162,163,164,165,166,167,168,169,170,171,172,173,174,175,176,161,162,163,164,165,166,167,168,169,170,171,172,173,174,175,176,161,162,163,164,165,166,167,168,169,170,171,172,173,174,175,176,161,162,163,164,165,166,167,168,169,170,171,172,173,174,175,176,161,162,163,164,165,166,167,168,169,170,171,172,173,174,175,176,161,162,163,164,165,166,167,168,169,170,171,172,173,174,175,176,161,162,163,164,165,166,167,168,169,170,171,172,173,174,175,176,161,162,163,164,165,166,167,168,169,170,171,172,173,174,175,176,161,162,163,164,165,166,167,168,169,170,171,172,173,174,175,176,161,162,163,164,165,166,167,168,169,170,171,172,173,174,175,176,161,162,163,164,165,166,167,168,169,170,171,172,173,174,175,176,161,162,163,164,165,166,167,168,169,170,171,172,173,174,175,176,161,162,163,164,165,166,167,168,169,170,171,172,173,174,175,176,161,162,163,164,165,166,167,168,169,170,171,172,173,174,175,176,161,162,163,164,165,166,167,168,169,170,171,172,173,174,175,176,161,162,163,164,165,166,167,168,169,170,171,172,173,174,175,176,177,178,179,180,181,182,183,184,185,186,187,188,189,190,191,192,177,178,179,180,181,182,183,184,185,186,187,188,189,190,191,192,177,178,179,180,181,182,183,184,185,186,187,188,189,190,191,192,177,178,179,180,181,182,183,184,185,186,187,188,189,190,191,192,177,178,179,180,181,182,183,184,185,186,187,188,189,190,191,192,177,178,179,180,181,182,183,184,185,186,187,188,189,190,191,192,177,178,179,180,181,182,183,184,185,186,187,188,189,190,191,192,177,178,179,180,181,182,183,184,185,186,187,188,189,190,191,192,177,178,179,180,181,182,183,184,185,186,187,188,189,190,191,192,177,178,179,180,181,182,183,184,185,186,187,188,189,190,191,192,177,178,179,180,181,182,183,184,185,186,187,188,189,190,191,192,177,178,179,180,181,182,183,184,185,186,187,188,189,190,191,192,177,178,179,180,181,182,183,184,185,186,187,188,189,190,191,192,177,178,179,180,181,182,183,184,185,186,187,188,189,190,191,192,177,178,179,180,181,182,183,184,185,186,187,188,189,190,191,192,177,178,179,180,181,182,183,184,185,186,187,188,189,190,191,192,193,194,195,196,197,198,199,200,201,202,203,204,205,206,207,208,193,194,195,196,197,198,199,200,201,202,203,204,205,206,207,208,193,194,195,196,197,198,199,200,201,202,203,204,205,206,207,208,193,194,195,196,197,198,199,200,201,202,203,204,205,206,207,208,193,194,195,196,197,198,199,200,201,202,203,204,205,206,207,208,193,194,195,196,197,198,199,200,201,202,203,204,205,206,207,208,193,194,195,196,197,198,199,200,201,202,203,204,205,206,207,208,193,194,195,196,197,198,199,200,201,202,203,204,205,206,207,208,193,194,195,196,197,198,199,200,201,202,203,204,205,206,207,208,193,194,195,196,197,198,199,200,201,202,203,204,205,206,207,208,193,194,195,196,197,198,199,200,201,202,203,204,205,206,207,208,193,194,195,196,197,198,199,200,201,202,203,204,205,206,207,208,193,194,195,196,197,198,199,200,201,202,203,204,205,206,207,208,193,194,195,196,197,198,199,200,201,202,203,204,205,206,207,208,193,194,195,196,197,198,199,200,201,202,203,204,205,206,207,208,193,194,195,196,197,198,199,200,201,202,203,204,205,206,207,208,209,210,211,212,213,214,215,216,217,218,219,220,221,222,223,224,209,210,211,212,213,214,215,216,217,218,219,220,221,222,223,224,209,210,211,212,213,214,215,216,217,218,219,220,221,222,223,224,209,210,211,212,213,214,215,216,217,218,219,220,221,222,223,224,209,210,211,212,213,214,215,216,217,218,219,220,221,222,223,224,209,210,211,212,213,214,215,216,217,218,219,220,221,222,223,224,209,210,211,212,213,214,215,216,217,218,219,220,221,222,223,224,209,210,211,212,213,214,215,216,217,218,219,220,221,222,223,224,209,210,211,212,213,214,215,216,217,218,219,220,221,222,223,224,209,210,211,212,213,214,215,216,217,218,219,220,221,222,223,224,209,210,211,212,213,214,215,216,217,218,219,220,221,222,223,224,209,210,211,212,213,214,215,216,217,218,219,220,221,222,223,224,209,210,211,212,213,214,215,216,217,218,219,220,221,222,223,224,209,210,211,212,213,214,215,216,217,218,219,220,221,222,223,224,209,210,211,212,213,214,215,216,217,218,219,220,221,222,223,224,209,210,211,212,213,214,215,216,217,218,219,220,221,222,223,224,225,226,227,228,229,230,231,232,233,234,235,236,237,238,239,240,225,226,227,228,229,230,231,232,233,234,235,236,237,238,239,240,225,226,227,228,229,230,231,232,233,234,235,236,237,238,239,240,225,226,227,228,229,230,231,232,233,234,235,236,237,238,239,240,225,226,227,228,229,230,231,232,233,234,235,236,237,238,239,240,225,226,227,228,229,230,231,232,233,234,235,236,237,238,239,240,225,226,227,228,229,230,231,232,233,234,235,236,237,238,239,240,225,226,227,228,229,230,231,232,233,234,235,236,237,238,239,240,225,226,227,228,229,230,231,232,233,234,235,236,237,238,239,240,225,226,227,228,229,230,231,232,233,234,235,236,237,238,239,240,225,226,227,228,229,230,231,232,233,234,235,236,237,238,239,240,225,226,227,228,229,230,231,232,233,234,235,236,237,238,239,240,225,226,227,228,229,230,231,232,233,234,235,236,237,238,239,240,225,226,227,228,229,230,231,232,233,234,235,236,237,238,239,240,225,226,227,228,229,230,231,232,233,234,235,236,237,238,239,240,225,226,227,228,229,230,231,232,233,234,235,236,237,238,239,240,241,242,243,244,245,246,247,248,249,250,251,252,253,254,255,256,241,242,243,244,245,246,247,248,249,250,251,252,253,254,255,256,241,242,243,244,245,246,247,248,249,250,251,252,253,254,255,256,241,242,243,244,245,246,247,248,249,250,251,252,253,254,255,256,241,242,243,244,245,246,247,248,249,250,251,252,253,254,255,256,241,242,243,244,245,246,247,248,249,250,251,252,253,254,255,256,241,242,243,244,245,246,247,248,249,250,251,252,253,254,255,256,241,242,243,244,245,246,247,248,249,250,251,252,253,254,255,256,241,242,243,244,245,246,247,248,249,250,251,252,253,254,255,256,241,242,243,244,245,246,247,248,249,250,251,252,253,254,255,256,241,242,243,244,245,246,247,248,249,250,251,252,253,254,255,256,241,242,243,244,245,246,247,248,249,250,251,252,253,254,255,256,241,242,243,244,245,246,247,248,249,250,251,252,253,254,255,256,241,242,243,244,245,246,247,248,249,250,251,252,253,254,255,256,241,242,243,244,245,246,247,248,249,250,251,252,253,254,255,256,241,242,243,244,245,246,247,248,249,250,251,252,253,254,255,256,1,2,3,4,5,6,7,8,9,10,11,12,13,14,15,16,1,2,3,4,5,6,7,8,9,10,11,12,13,14,15,16,1,2,3,4,5,6,7,8,9,10,11,12,13,14,15,16,1,2,3,4,5,6,7,8,9,10,11,12,13,14,15,16,1,2,3,4,5,6,7,8,9,10,11,12,13,14,15,16,1,2,3,4,5,6,7,8,9,10,11,12,13,14,15,16,1,2,3,4,5,6,7,8,9,10,11,12,13,14,15,16,1,2,3,4,5,6,7,8,9,10,11,12,13,14,15,16,1,2,3,4,5,6,7,8,9,10,11,12,13,14,15,16,1,2,3,4,5,6,7,8,9,10,11,12,13,14,15,16,1,2,3,4,5,6,7,8,9,10,11,12,13,14,15,16,1,2,3,4,5,6,7,8,9,10,11,12,13,14,15,16,1,2,3,4,5,6,7,8,9,10,11,12,13,14,15,16,1,2,3,4,5,6,7,8,9,10,11,12,13,14,15,16,1,2,3,4,5,6,7,8,9,10,11,12,13,14,15,16,1,2,3,4,5,6,7,8,9,10,11,12,13,14,15,16,17,18,19,20,21,22,23,24,25,26,27,28,29,30,31,32,17,18,19,20,21,22,23,24,25,26,27,28,29,30,31,32,17,18,19,20,21,22,23,24,25,26,27,28,29,30,31,32,17,18,19,20,21,22,23,24,25,26,27,28,29,30,31,32,17,18,19,20,21,22,23,24,25,26,27,28,29,30,31,32,17,18,19,20,21,22,23,24,25,26,27,28,29,30,31,32,17,18,19,20,21,22,23,24,25,26,27,28,29,30,31,32,17,18,19,20,21,22,23,24,25,26,27,28,29,30,31,32,17,18,19,20,21,22,23,24,25,26,27,28,29,30,31,32,17,18,19,20,21,22,23,24,25,26,27,28,29,30,31,32,17,18,19,20,21,22,23,24,25,26,27,28,29,30,31,32,17,18,19,20,21,22,23,24,25,26,27,28,29,30,31,32,17,18,19,20,21,22,23,24,25,26,27,28,29,30,31,32,17,18,19,20,21,22,23,24,25,26,27,28,29,30,31,32,17,18,19,20,21,22,23,24,25,26,27,28,29,30,31,32,17,18,19,20,21,22,23,24,25,26,27,28,29,30,31,32,33,34,35,36,37,38,39,40,41,42,43,44,45,46,47,48,33,34,35,36,37,38,39,40,41,42,43,44,45,46,47,48,33,34,35,36,37,38,39,40,41,42,43,44,45,46,47,48,33,34,35,36,37,38,39,40,41,42,43,44,45,46,47,48,33,34,35,36,37,38,39,40,41,42,43,44,45,46,47,48,33,34,35,36,37,38,39,40,41,42,43,44,45,46,47,48,33,34,35,36,37,38,39,40,41,42,43,44,45,46,47,48,33,34,35,36,37,38,39,40,41,42,43,44,45,46,47,48,33,34,35,36,37,38,39,40,41,42,43,44,45,46,47,48,33,34,35,36,37,38,39,40,41,42,43,44,45,46,47,48,33,34,35,36,37,38,39,40,41,42,43,44,45,46,47,48,33,34,35,36,37,38,39,40,41,42,43,44,45,46,47,48,33,34,35,36,37,38,39,40,41,42,43,44,45,46,47,48,33,34,35,36,37,38,39,40,41,42,43,44,45,46,47,48,33,34,35,36,37,38,39,40,41,42,43,44,45,46,47,48,33,34,35,36,37,38,39,40,41,42,43,44,45,46,47,48,49,50,51,52,53,54,55,56,57,58,59,60,61,62,63,64,49,50,51,52,53,54,55,56,57,58,59,60,61,62,63,64,49,50,51,52,53,54,55,56,57,58,59,60,61,62,63,64,49,50,51,52,53,54,55,56,57,58,59,60,61,62,63,64,49,50,51,52,53,54,55,56,57,58,59,60,61,62,63,64,49,50,51,52,53,54,55,56,57,58,59,60,61,62,63,64,49,50,51,52,53,54,55,56,57,58,59,60,61,62,63,64,49,50,51,52,53,54,55,56,57,58,59,60,61,62,63,64,49,50,51,52,53,54,55,56,57,58,59,60,61,62,63,64,49,50,51,52,53,54,55,56,57,58,59,60,61,62,63,64,49,50,51,52,53,54,55,56,57,58,59,60,61,62,63,64,49,50,51,52,53,54,55,56,57,58,59,60,61,62,63,64,49,50,51,52,53,54,55,56,57,58,59,60,61,62,63,64,49,50,51,52,53,54,55,56,57,58,59,60,61,62,63,64,49,50,51,52,53,54,55,56,57,58,59,60,61,62,63,64,49,50,51,52,53,54,55,56,57,58,59,60,61,62,63,64,65,66,67,68,69,70,71,72,73,74,75,76,77,78,79,80,65,66,67,68,69,70,71,72,73,74,75,76,77,78,79,80,65,66,67,68,69,70,71,72,73,74,75,76,77,78,79,80,65,66,67,68,69,70,71,72,73,74,75,76,77,78,79,80,65,66,67,68,69,70,71,72,73,74,75,76,77,78,79,80,65,66,67,68,69,70,71,72,73,74,75,76,77,78,79,80,65,66,67,68,69,70,71,72,73,74,75,76,77,78,79,80,65,66,67,68,69,70,71,72,73,74,75,76,77,78,79,80,65,66,67,68,69,70,71,72,73,74,75,76,77,78,79,80,65,66,67,68,69,70,71,72,73,74,75,76,77,78,79,80,65,66,67,68,69,70,71,72,73,74,75,76,77,78,79,80,65,66,67,68,69,70,71,72,73,74,75,76,77,78,79,80,65,66,67,68,69,70,71,72,73,74,75,76,77,78,79,80,65,66,67,68,69,70,71,72,73,74,75,76,77,78,79,80,65,66,67,68,69,70,71,72,73,74,75,76,77,78,79,80,65,66,67,68,69,70,71,72,73,74,75,76,77,78,79,80,81,82,83,84,85,86,87,88,89,90,91,92,93,94,95,96,81,82,83,84,85,86,87,88,89,90,91,92,93,94,95,96,81,82,83,84,85,86,87,88,89,90,91,92,93,94,95,96,81,82,83,84,85,86,87,88,89,90,91,92,93,94,95,96,81,82,83,84,85,86,87,88,89,90,91,92,93,94,95,96,81,82,83,84,85,86,87,88,89,90,91,92,93,94,95,96,81,82,83,84,85,86,87,88,89,90,91,92,93,94,95,96,81,82,83,84,85,86,87,88,89,90,91,92,93,94,95,96,81,82,83,84,85,86,87,88,89,90,91,92,93,94,95,96,81,82,83,84,85,86,87,88,89,90,91,92,93,94,95,96,81,82,83,84,85,86,87,88,89,90,91,92,93,94,95,96,81,82,83,84,85,86,87,88,89,90,91,92,93,94,95,96,81,82,83,84,85,86,87,88,89,90,91,92,93,94,95,96,81,82,83,84,85,86,87,88,89,90,91,92,93,94,95,96,81,82,83,84,85,86,87,88,89,90,91,92,93,94,95,96,81,82,83,84,85,86,87,88,89,90,91,92,93,94,95,96,97,98,99,100,101,102,103,104,105,106,107,108,109,110,111,112,97,98,99,100,101,102,103,104,105,106,107,108,109,110,111,112,97,98,99,100,101,102,103,104,105,106,107,108,109,110,111,112,97,98,99,100,101,102,103,104,105,106,107,108,109,110,111,112,97,98,99,100,101,102,103,104,105,106,107,108,109,110,111,112,97,98,99,100,101,102,103,104,105,106,107,108,109,110,111,112,97,98,99,100,101,102,103,104,105,106,107,108,109,110,111,112,97,98,99,100,101,102,103,104,105,106,107,108,109,110,111,112,97,98,99,100,101,102,103,104,105,106,107,108,109,110,111,112,97,98,99,100,101,102,103,104,105,106,107,108,109,110,111,112,97,98,99,100,101,102,103,104,105,106,107,108,109,110,111,112,97,98,99,100,101,102,103,104,105,106,107,108,109,110,111,112,97,98,99,100,101,102,103,104,105,106,107,108,109,110,111,112,97,98,99,100,101,102,103,104,105,106,107,108,109,110,111,112,97,98,99,100,101,102,103,104,105,106,107,108,109,110,111,112,97,98,99,100,101,102,103,104,105,106,107,108,109,110,111,112,113,114,115,116,117,118,119,120,121,122,123,124,125,126,127,128,113,114,115,116,117,118,119,120,121,122,123,124,125,126,127,128,113,114,115,116,117,118,119,120,121,122,123,124,125,126,127,128,113,114,115,116,117,118,119,120,121,122,123,124,125,126,127,128,113,114,115,116,117,118,119,120,121,122,123,124,125,126,127,128,113,114,115,116,117,118,119,120,121,122,123,124,125,126,127,128,113,114,115,116,117,118,119,120,121,122,123,124,125,126,127,128,113,114,115,116,117,118,119,120,121,122,123,124,125,126,127,128,113,114,115,116,117,118,119,120,121,122,123,124,125,126,127,128,113,114,115,116,117,118,119,120,121,122,123,124,125,126,127,128,113,114,115,116,117,118,119,120,121,122,123,124,125,126,127,128,113,114,115,116,117,118,119,120,121,122,123,124,125,126,127,128,113,114,115,116,117,118,119,120,121,122,123,124,125,126,127,128,113,114,115,116,117,118,119,120,121,122,123,124,125,126,127,128,113,114,115,116,117,118,119,120,121,122,123,124,125,126,127,128,113,114,115,116,117,118,119,120,121,122,123,124,125,126,127,128,129,130,131,132,133,134,135,136,137,138,139,140,141,142,143,144,129,130,131,132,133,134,135,136,137,138,139,140,141,142,143,144,129,130,131,132,133,134,135,136,137,138,139,140,141,142,143,144,129,130,131,132,133,134,135,136,137,138,139,140,141,142,143,144,129,130,131,132,133,134,135,136,137,138,139,140,141,142,143,144,129,130,131,132,133,134,135,136,137,138,139,140,141,142,143,144,129,130,131,132,133,134,135,136,137,138,139,140,141,142,143,144,129,130,131,132,133,134,135,136,137,138,139,140,141,142,143,144,129,130,131,132,133,134,135,136,137,138,139,140,141,142,143,144,129,130,131,132,133,134,135,136,137,138,139,140,141,142,143,144,129,130,131,132,133,134,135,136,137,138,139,140,141,142,143,144,129,130,131,132,133,134,135,136,137,138,139,140,141,142,143,144,129,130,131,132,133,134,135,136,137,138,139,140,141,142,143,144,129,130,131,132,133,134,135,136,137,138,139,140,141,142,143,144,129,130,131,132,133,134,135,136,137,138,139,140,141,142,143,144,129,130,131,132,133,134,135,136,137,138,139,140,141,142,143,144,145,146,147,148,149,150,151,152,153,154,155,156,157,158,159,160,145,146,147,148,149,150,151,152,153,154,155,156,157,158,159,160,145,146,147,148,149,150,151,152,153,154,155,156,157,158,159,160,145,146,147,148,149,150,151,152,153,154,155,156,157,158,159,160,145,146,147,148,149,150,151,152,153,154,155,156,157,158,159,160,145,146,147,148,149,150,151,152,153,154,155,156,157,158,159,160,145,146,147,148,149,150,151,152,153,154,155,156,157,158,159,160,145,146,147,148,149,150,151,152,153,154,155,156,157,158,159,160,145,146,147,148,149,150,151,152,153,154,155,156,157,158,159,160,145,146,147,148,149,150,151,152,153,154,155,156,157,158,159,160,145,146,147,148,149,150,151,152,153,154,155,156,157,158,159,160,145,146,147,148,149,150,151,152,153,154,155,156,157,158,159,160,145,146,147,148,149,150,151,152,153,154,155,156,157,158,159,160,145,146,147,148,149,150,151,152,153,154,155,156,157,158,159,160,145,146,147,148,149,150,151,152,153,154,155,156,157,158,159,160,145,146,147,148,149,150,151,152,153,154,155,156,157,158,159,160,161,162,163,164,165,166,167,168,169,170,171,172,173,174,175,176,161,162,163,164,165,166,167,168,169,170,171,172,173,174,175,176,161,162,163,164,165,166,167,168,169,170,171,172,173,174,175,176,161,162,163,164,165,166,167,168,169,170,171,172,173,174,175,176,161,162,163,164,165,166,167,168,169,170,171,172,173,174,175,176,161,162,163,164,165,166,167,168,169,170,171,172,173,174,175,176,161,162,163,164,165,166,167,168,169,170,171,172,173,174,175,176,161,162,163,164,165,166,167,168,169,170,171,172,173,174,175,176,161,162,163,164,165,166,167,168,169,170,171,172,173,174,175,176,161,162,163,164,165,166,167,168,169,170,171,172,173,174,175,176,161,162,163,164,165,166,167,168,169,170,171,172,173,174,175,176,161,162,163,164,165,166,167,168,169,170,171,172,173,174,175,176,161,162,163,164,165,166,167,168,169,170,171,172,173,174,175,176,161,162,163,164,165,166,167,168,169,170,171,172,173,174,175,176,161,162,163,164,165,166,167,168,169,170,171,172,173,174,175,176,161,162,163,164,165,166,167,168,169,170,171,172,173,174,175,176,177,178,179,180,181,182,183,184,185,186,187,188,189,190,191,192,177,178,179,180,181,182,183,184,185,186,187,188,189,190,191,192,177,178,179,180,181,182,183,184,185,186,187,188,189,190,191,192,177,178,179,180,181,182,183,184,185,186,187,188,189,190,191,192,177,178,179,180,181,182,183,184,185,186,187,188,189,190,191,192,177,178,179,180,181,182,183,184,185,186,187,188,189,190,191,192,177,178,179,180,181,182,183,184,185,186,187,188,189,190,191,192,177,178,179,180,181,182,183,184,185,186,187,188,189,190,191,192,177,178,179,180,181,182,183,184,185,186,187,188,189,190,191,192,177,178,179,180,181,182,183,184,185,186,187,188,189,190,191,192,177,178,179,180,181,182,183,184,185,186,187,188,189,190,191,192,177,178,179,180,181,182,183,184,185,186,187,188,189,190,191,192,177,178,179,180,181,182,183,184,185,186,187,188,189,190,191,192,177,178,179,180,181,182,183,184,185,186,187,188,189,190,191,192,177,178,179,180,181,182,183,184,185,186,187,188,189,190,191,192,177,178,179,180,181,182,183,184,185,186,187,188,189,190,191,192,193,194,195,196,197,198,199,200,201,202,203,204,205,206,207,208,193,194,195,196,197,198,199,200,201,202,203,204,205,206,207,208,193,194,195,196,197,198,199,200,201,202,203,204,205,206,207,208,193,194,195,196,197,198,199,200,201,202,203,204,205,206,207,208,193,194,195,196,197,198,199,200,201,202,203,204,205,206,207,208,193,194,195,196,197,198,199,200,201,202,203,204,205,206,207,208,193,194,195,196,197,198,199,200,201,202,203,204,205,206,207,208,193,194,195,196,197,198,199,200,201,202,203,204,205,206,207,208,193,194,195,196,197,198,199,200,201,202,203,204,205,206,207,208,193,194,195,196,197,198,199,200,201,202,203,204,205,206,207,208,193,194,195,196,197,198,199,200,201,202,203,204,205,206,207,208,193,194,195,196,197,198,199,200,201,202,203,204,205,206,207,208,193,194,195,196,197,198,199,200,201,202,203,204,205,206,207,208,193,194,195,196,197,198,199,200,201,202,203,204,205,206,207,208,193,194,195,196,197,198,199,200,201,202,203,204,205,206,207,208,193,194,195,196,197,198,199,200,201,202,203,204,205,206,207,208,209,210,211,212,213,214,215,216,217,218,219,220,221,222,223,224,209,210,211,212,213,214,215,216,217,218,219,220,221,222,223,224,209,210,211,212,213,214,215,216,217,218,219,220,221,222,223,224,209,210,211,212,213,214,215,216,217,218,219,220,221,222,223,224,209,210,211,212,213,214,215,216,217,218,219,220,221,222,223,224,209,210,211,212,213,214,215,216,217,218,219,220,221,222,223,224,209,210,211,212,213,214,215,216,217,218,219,220,221,222,223,224,209,210,211,212,213,214,215,216,217,218,219,220,221,222,223,224,209,210,211,212,213,214,215,216,217,218,219,220,221,222,223,224,209,210,211,212,213,214,215,216,217,218,219,220,221,222,223,224,209,210,211,212,213,214,215,216,217,218,219,220,221,222,223,224,209,210,211,212,213,214,215,216,217,218,219,220,221,222,223,224,209,210,211,212,213,214,215,216,217,218,219,220,221,222,223,224,209,210,211,212,213,214,215,216,217,218,219,220,221,222,223,224,209,210,211,212,213,214,215,216,217,218,219,220,221,222,223,224,209,210,211,212,213,214,215,216,217,218,219,220,221,222,223,224,225,226,227,228,229,230,231,232,233,234,235,236,237,238,239,240,225,226,227,228,229,230,231,232,233,234,235,236,237,238,239,240,225,226,227,228,229,230,231,232,233,234,235,236,237,238,239,240,225,226,227,228,229,230,231,232,233,234,235,236,237,238,239,240,225,226,227,228,229,230,231,232,233,234,235,236,237,238,239,240,225,226,227,228,229,230,231,232,233,234,235,236,237,238,239,240,225,226,227,228,229,230,231,232,233,234,235,236,237,238,239,240,225,226,227,228,229,230,231,232,233,234,235,236,237,238,239,240,225,226,227,228,229,230,231,232,233,234,235,236,237,238,239,240,225,226,227,228,229,230,231,232,233,234,235,236,237,238,239,240,225,226,227,228,229,230,231,232,233,234,235,236,237,238,239,240,225,226,227,228,229,230,231,232,233,234,235,236,237,238,239,240,225,226,227,228,229,230,231,232,233,234,235,236,237,238,239,240,225,226,227,228,229,230,231,232,233,234,235,236,237,238,239,240,225,226,227,228,229,230,231,232,233,234,235,236,237,238,239,240,225,226,227,228,229,230,231,232,233,234,235,236,237,238,239,240,241,242,243,244,245,246,247,248,249,250,251,252,253,254,255,256,241,242,243,244,245,246,247,248,249,250,251,252,253,254,255,256,241,242,243,244,245,246,247,248,249,250,251,252,253,254,255,256,241,242,243,244,245,246,247,248,249,250,251,252,253,254,255,256,241,242,243,244,245,246,247,248,249,250,251,252,253,254,255,256,241,242,243,244,245,246,247,248,249,250,251,252,253,254,255,256,241,242,243,244,245,246,247,248,249,250,251,252,253,254,255,256,241,242,243,244,245,246,247,248,249,250,251,252,253,254,255,256,241,242,243,244,245,246,247,248,249,250,251,252,253,254,255,256,241,242,243,244,245,246,247,248,249,250,251,252,253,254,255,256,241,242,243,244,245,246,247,248,249,250,251,252,253,254,255,256,241,242,243,244,245,246,247,248,249,250,251,252,253,254,255,256,241,242,243,244,245,246,247,248,249,250,251,252,253,254,255,256,241,242,243,244,245,246,247,248,249,250,251,252,253,254,255,256,241,242,243,244,245,246,247,248,249,250,251,252,253,254,255,256,241,242,243,244,245,246,247,248,249,250,251,252,253,254,255,256,1,2,3,4,5,6,7,8,9,10,11,12,13,14,15,16,1,2,3,4,5,6,7,8,9,10,11,12,13,14,15,16,1,2,3,4,5,6,7,8,9,10,11,12,13,14,15,16,1,2,3,4,5,6,7,8,9,10,11,12,13,14,15,16,1,2,3,4,5,6,7,8,9,10,11,12,13,14,15,16,1,2,3,4,5,6,7,8,9,10,11,12,13,14,15,16,1,2,3,4,5,6,7,8,9,10,11,12,13,14,15,16,1,2,3,4,5,6,7,8,9,10,11,12,13,14,15,16,1,2,3,4,5,6,7,8,9,10,11,12,13,14,15,16,1,2,3,4,5,6,7,8,9,10,11,12,13,14,15,16,1,2,3,4,5,6,7,8,9,10,11,12,13,14,15,16,1,2,3,4,5,6,7,8,9,10,11,12,13,14,15,16,1,2,3,4,5,6,7,8,9,10,11,12,13,14,15,16,1,2,3,4,5,6,7,8,9,10,11,12,13,14,15,16,1,2,3,4,5,6,7,8,9,10,11,12,13,14,15,16,1,2,3,4,5,6,7,8,9,10,11,12,13,14,15,16,17,18,19,20,21,22,23,24,25,26,27,28,29,30,31,32,17,18,19,20,21,22,23,24,25,26,27,28,29,30,31,32,17,18,19,20,21,22,23,24,25,26,27,28,29,30,31,32,17,18,19,20,21,22,23,24,25,26,27,28,29,30,31,32,17,18,19,20,21,22,23,24,25,26,27,28,29,30,31,32,17,18,19,20,21,22,23,24,25,26,27,28,29,30,31,32,17,18,19,20,21,22,23,24,25,26,27,28,29,30,31,32,17,18,19,20,21,22,23,24,25,26,27,28,29,30,31,32,17,18,19,20,21,22,23,24,25,26,27,28,29,30,31,32,17,18,19,20,21,22,23,24,25,26,27,28,29,30,31,32,17,18,19,20,21,22,23,24,25,26,27,28,29,30,31,32,17,18,19,20,21,22,23,24,25,26,27,28,29,30,31,32,17,18,19,20,21,22,23,24,25,26,27,28,29,30,31,32,17,18,19,20,21,22,23,24,25,26,27,28,29,30,31,32,17,18,19,20,21,22,23,24,25,26,27,28,29,30,31,32,17,18,19,20,21,22,23,24,25,26,27,28,29,30,31,32,33,34,35,36,37,38,39,40,41,42,43,44,45,46,47,48,33,34,35,36,37,38,39,40,41,42,43,44,45,46,47,48,33,34,35,36,37,38,39,40,41,42,43,44,45,46,47,48,33,34,35,36,37,38,39,40,41,42,43,44,45,46,47,48,33,34,35,36,37,38,39,40,41,42,43,44,45,46,47,48,33,34,35,36,37,38,39,40,41,42,43,44,45,46,47,48,33,34,35,36,37,38,39,40,41,42,43,44,45,46,47,48,33,34,35,36,37,38,39,40,41,42,43,44,45,46,47,48,33,34,35,36,37,38,39,40,41,42,43,44,45,46,47,48,33,34,35,36,37,38,39,40,41,42,43,44,45,46,47,48,33,34,35,36,37,38,39,40,41,42,43,44,45,46,47,48,33,34,35,36,37,38,39,40,41,42,43,44,45,46,47,48,33,34,35,36,37,38,39,40,41,42,43,44,45,46,47,48,33,34,35,36,37,38,39,40,41,42,43,44,45,46,47,48,33,34,35,36,37,38,39,40,41,42,43,44,45,46,47,48,33,34,35,36,37,38,39,40,41,42,43,44,45,46,47,48,49,50,51,52,53,54,55,56,57,58,59,60,61,62,63,64,49,50,51,52,53,54,55,56,57,58,59,60,61,62,63,64,49,50,51,52,53,54,55,56,57,58,59,60,61,62,63,64,49,50,51,52,53,54,55,56,57,58,59,60,61,62,63,64,49,50,51,52,53,54,55,56,57,58,59,60,61,62,63,64,49,50,51,52,53,54,55,56,57,58,59,60,61,62,63,64,49,50,51,52,53,54,55,56,57,58,59,60,61,62,63,64,49,50,51,52,53,54,55,56,57,58,59,60,61,62,63,64,49,50,51,52,53,54,55,56,57,58,59,60,61,62,63,64,49,50,51,52,53,54,55,56,57,58,59,60,61,62,63,64,49,50,51,52,53,54,55,56,57,58,59,60,61,62,63,64,49,50,51,52,53,54,55,56,57,58,59,60,61,62,63,64,49,50,51,52,53,54,55,56,57,58,59,60,61,62,63,64,49,50,51,52,53,54,55,56,57,58,59,60,61,62,63,64,49,50,51,52,53,54,55,56,57,58,59,60,61,62,63,64,49,50,51,52,53,54,55,56,57,58,59,60,61,62,63,64,65,66,67,68,69,70,71,72,73,74,75,76,77,78,79,80,65,66,67,68,69,70,71,72,73,74,75,76,77,78,79,80,65,66,67,68,69,70,71,72,73,74,75,76,77,78,79,80,65,66,67,68,69,70,71,72,73,74,75,76,77,78,79,80,65,66,67,68,69,70,71,72,73,74,75,76,77,78,79,80,65,66,67,68,69,70,71,72,73,74,75,76,77,78,79,80,65,66,67,68,69,70,71,72,73,74,75,76,77,78,79,80,65,66,67,68,69,70,71,72,73,74,75,76,77,78,79,80,65,66,67,68,69,70,71,72,73,74,75,76,77,78,79,80,65,66,67,68,69,70,71,72,73,74,75,76,77,78,79,80,65,66,67,68,69,70,71,72,73,74,75,76,77,78,79,80,65,66,67,68,69,70,71,72,73,74,75,76,77,78,79,80,65,66,67,68,69,70,71,72,73,74,75,76,77,78,79,80,65,66,67,68,69,70,71,72,73,74,75,76,77,78,79,80,65,66,67,68,69,70,71,72,73,74,75,76,77,78,79,80,65,66,67,68,69,70,71,72,73,74,75,76,77,78,79,80,81,82,83,84,85,86,87,88,89,90,91,92,93,94,95,96,81,82,83,84,85,86,87,88,89,90,91,92,93,94,95,96,81,82,83,84,85,86,87,88,89,90,91,92,93,94,95,96,81,82,83,84,85,86,87,88,89,90,91,92,93,94,95,96,81,82,83,84,85,86,87,88,89,90,91,92,93,94,95,96,81,82,83,84,85,86,87,88,89,90,91,92,93,94,95,96,81,82,83,84,85,86,87,88,89,90,91,92,93,94,95,96,81,82,83,84,85,86,87,88,89,90,91,92,93,94,95,96,81,82,83,84,85,86,87,88,89,90,91,92,93,94,95,96,81,82,83,84,85,86,87,88,89,90,91,92,93,94,95,96,81,82,83,84,85,86,87,88,89,90,91,92,93,94,95,96,81,82,83,84,85,86,87,88,89,90,91,92,93,94,95,96,81,82,83,84,85,86,87,88,89,90,91,92,93,94,95,96,81,82,83,84,85,86,87,88,89,90,91,92,93,94,95,96,81,82,83,84,85,86,87,88,89,90,91,92,93,94,95,96,81,82,83,84,85,86,87,88,89,90,91,92,93,94,95,96,97,98,99,100,101,102,103,104,105,106,107,108,109,110,111,112,97,98,99,100,101,102,103,104,105,106,107,108,109,110,111,112,97,98,99,100,101,102,103,104,105,106,107,108,109,110,111,112,97,98,99,100,101,102,103,104,105,106,107,108,109,110,111,112,97,98,99,100,101,102,103,104,105,106,107,108,109,110,111,112,97,98,99,100,101,102,103,104,105,106,107,108,109,110,111,112,97,98,99,100,101,102,103,104,105,106,107,108,109,110,111,112,97,98,99,100,101,102,103,104,105,106,107,108,109,110,111,112,97,98,99,100,101,102,103,104,105,106,107,108,109,110,111,112,97,98,99,100,101,102,103,104,105,106,107,108,109,110,111,112,97,98,99,100,101,102,103,104,105,106,107,108,109,110,111,112,97,98,99,100,101,102,103,104,105,106,107,108,109,110,111,112,97,98,99,100,101,102,103,104,105,106,107,108,109,110,111,112,97,98,99,100,101,102,103,104,105,106,107,108,109,110,111,112,97,98,99,100,101,102,103,104,105,106,107,108,109,110,111,112,97,98,99,100,101,102,103,104,105,106,107,108,109,110,111,112,113,114,115,116,117,118,119,120,121,122,123,124,125,126,127,128,113,114,115,116,117,118,119,120,121,122,123,124,125,126,127,128,113,114,115,116,117,118,119,120,121,122,123,124,125,126,127,128,113,114,115,116,117,118,119,120,121,122,123,124,125,126,127,128,113,114,115,116,117,118,119,120,121,122,123,124,125,126,127,128,113,114,115,116,117,118,119,120,121,122,123,124,125,126,127,128,113,114,115,116,117,118,119,120,121,122,123,124,125,126,127,128,113,114,115,116,117,118,119,120,121,122,123,124,125,126,127,128,113,114,115,116,117,118,119,120,121,122,123,124,125,126,127,128,113,114,115,116,117,118,119,120,121,122,123,124,125,126,127,128,113,114,115,116,117,118,119,120,121,122,123,124,125,126,127,128,113,114,115,116,117,118,119,120,121,122,123,124,125,126,127,128,113,114,115,116,117,118,119,120,121,122,123,124,125,126,127,128,113,114,115,116,117,118,119,120,121,122,123,124,125,126,127,128,113,114,115,116,117,118,119,120,121,122,123,124,125,126,127,128,113,114,115,116,117,118,119,120,121,122,123,124,125,126,127,128,129,130,131,132,133,134,135,136,137,138,139,140,141,142,143,144,129,130,131,132,133,134,135,136,137,138,139,140,141,142,143,144,129,130,131,132,133,134,135,136,137,138,139,140,141,142,143,144,129,130,131,132,133,134,135,136,137,138,139,140,141,142,143,144,129,130,131,132,133,134,135,136,137,138,139,140,141,142,143,144,129,130,131,132,133,134,135,136,137,138,139,140,141,142,143,144,129,130,131,132,133,134,135,136,137,138,139,140,141,142,143,144,129,130,131,132,133,134,135,136,137,138,139,140,141,142,143,144,129,130,131,132,133,134,135,136,137,138,139,140,141,142,143,144,129,130,131,132,133,134,135,136,137,138,139,140,141,142,143,144,129,130,131,132,133,134,135,136,137,138,139,140,141,142,143,144,129,130,131,132,133,134,135,136,137,138,139,140,141,142,143,144,129,130,131,132,133,134,135,136,137,138,139,140,141,142,143,144,129,130,131,132,133,134,135,136,137,138,139,140,141,142,143,144,129,130,131,132,133,134,135,136,137,138,139,140,141,142,143,144,129,130,131,132,133,134,135,136,137,138,139,140,141,142,143,144,145,146,147,148,149,150,151,152,153,154,155,156,157,158,159,160,145,146,147,148,149,150,151,152,153,154,155,156,157,158,159,160,145,146,147,148,149,150,151,152,153,154,155,156,157,158,159,160,145,146,147,148,149,150,151,152,153,154,155,156,157,158,159,160,145,146,147,148,149,150,151,152,153,154,155,156,157,158,159,160,145,146,147,148,149,150,151,152,153,154,155,156,157,158,159,160,145,146,147,148,149,150,151,152,153,154,155,156,157,158,159,160,145,146,147,148,149,150,151,152,153,154,155,156,157,158,159,160,145,146,147,148,149,150,151,152,153,154,155,156,157,158,159,160,145,146,147,148,149,150,151,152,153,154,155,156,157,158,159,160,145,146,147,148,149,150,151,152,153,154,155,156,157,158,159,160,145,146,147,148,149,150,151,152,153,154,155,156,157,158,159,160,145,146,147,148,149,150,151,152,153,154,155,156,157,158,159,160,145,146,147,148,149,150,151,152,153,154,155,156,157,158,159,160,145,146,147,148,149,150,151,152,153,154,155,156,157,158,159,160,145,146,147,148,149,150,151,152,153,154,155,156,157,158,159,160,161,162,163,164,165,166,167,168,169,170,171,172,173,174,175,176,161,162,163,164,165,166,167,168,169,170,171,172,173,174,175,176,161,162,163,164,165,166,167,168,169,170,171,172,173,174,175,176,161,162,163,164,165,166,167,168,169,170,171,172,173,174,175,176,161,162,163,164,165,166,167,168,169,170,171,172,173,174,175,176,161,162,163,164,165,166,167,168,169,170,171,172,173,174,175,176,161,162,163,164,165,166,167,168,169,170,171,172,173,174,175,176,161,162,163,164,165,166,167,168,169,170,171,172,173,174,175,176,161,162,163,164,165,166,167,168,169,170,171,172,173,174,175,176,161,162,163,164,165,166,167,168,169,170,171,172,173,174,175,176,161,162,163,164,165,166,167,168,169,170,171,172,173,174,175,176,161,162,163,164,165,166,167,168,169,170,171,172,173,174,175,176,161,162,163,164,165,166,167,168,169,170,171,172,173,174,175,176,161,162,163,164,165,166,167,168,169,170,171,172,173,174,175,176,161,162,163,164,165,166,167,168,169,170,171,172,173,174,175,176,161,162,163,164,165,166,167,168,169,170,171,172,173,174,175,176,177,178,179,180,181,182,183,184,185,186,187,188,189,190,191,192,177,178,179,180,181,182,183,184,185,186,187,188,189,190,191,192,177,178,179,180,181,182,183,184,185,186,187,188,189,190,191,192,177,178,179,180,181,182,183,184,185,186,187,188,189,190,191,192,177,178,179,180,181,182,183,184,185,186,187,188,189,190,191,192,177,178,179,180,181,182,183,184,185,186,187,188,189,190,191,192,177,178,179,180,181,182,183,184,185,186,187,188,189,190,191,192,177,178,179,180,181,182,183,184,185,186,187,188,189,190,191,192,177,178,179,180,181,182,183,184,185,186,187,188,189,190,191,192,177,178,179,180,181,182,183,184,185,186,187,188,189,190,191,192,177,178,179,180,181,182,183,184,185,186,187,188,189,190,191,192,177,178,179,180,181,182,183,184,185,186,187,188,189,190,191,192,177,178,179,180,181,182,183,184,185,186,187,188,189,190,191,192,177,178,179,180,181,182,183,184,185,186,187,188,189,190,191,192,177,178,179,180,181,182,183,184,185,186,187,188,189,190,191,192,177,178,179,180,181,182,183,184,185,186,187,188,189,190,191,192,193,194,195,196,197,198,199,200,201,202,203,204,205,206,207,208,193,194,195,196,197,198,199,200,201,202,203,204,205,206,207,208,193,194,195,196,197,198,199,200,201,202,203,204,205,206,207,208,193,194,195,196,197,198,199,200,201,202,203,204,205,206,207,208,193,194,195,196,197,198,199,200,201,202,203,204,205,206,207,208,193,194,195,196,197,198,199,200,201,202,203,204,205,206,207,208,193,194,195,196,197,198,199,200,201,202,203,204,205,206,207,208,193,194,195,196,197,198,199,200,201,202,203,204,205,206,207,208,193,194,195,196,197,198,199,200,201,202,203,204,205,206,207,208,193,194,195,196,197,198,199,200,201,202,203,204,205,206,207,208,193,194,195,196,197,198,199,200,201,202,203,204,205,206,207,208,193,194,195,196,197,198,199,200,201,202,203,204,205,206,207,208,193,194,195,196,197,198,199,200,201,202,203,204,205,206,207,208,193,194,195,196,197,198,199,200,201,202,203,204,205,206,207,208,193,194,195,196,197,198,199,200,201,202,203,204,205,206,207,208,193,194,195,196,197,198,199,200,201,202,203,204,205,206,207,208,209,210,211,212,213,214,215,216,217,218,219,220,221,222,223,224,209,210,211,212,213,214,215,216,217,218,219,220,221,222,223,224,209,210,211,212,213,214,215,216,217,218,219,220,221,222,223,224,209,210,211,212,213,214,215,216,217,218,219,220,221,222,223,224,209,210,211,212,213,214,215,216,217,218,219,220,221,222,223,224,209,210,211,212,213,214,215,216,217,218,219,220,221,222,223,224,209,210,211,212,213,214,215,216,217,218,219,220,221,222,223,224,209,210,211,212,213,214,215,216,217,218,219,220,221,222,223,224,209,210,211,212,213,214,215,216,217,218,219,220,221,222,223,224,209,210,211,212,213,214,215,216,217,218,219,220,221,222,223,224,209,210,211,212,213,214,215,216,217,218,219,220,221,222,223,224,209,210,211,212,213,214,215,216,217,218,219,220,221,222,223,224,209,210,211,212,213,214,215,216,217,218,219,220,221,222,223,224,209,210,211,212,213,214,215,216,217,218,219,220,221,222,223,224,209,210,211,212,213,214,215,216,217,218,219,220,221,222,223,224,209,210,211,212,213,214,215,216,217,218,219,220,221,222,223,224,225,226,227,228,229,230,231,232,233,234,235,236,237,238,239,240,225,226,227,228,229,230,231,232,233,234,235,236,237,238,239,240,225,226,227,228,229,230,231,232,233,234,235,236,237,238,239,240,225,226,227,228,229,230,231,232,233,234,235,236,237,238,239,240,225,226,227,228,229,230,231,232,233,234,235,236,237,238,239,240,225,226,227,228,229,230,231,232,233,234,235,236,237,238,239,240,225,226,227,228,229,230,231,232,233,234,235,236,237,238,239,240,225,226,227,228,229,230,231,232,233,234,235,236,237,238,239,240,225,226,227,228,229,230,231,232,233,234,235,236,237,238,239,240,225,226,227,228,229,230,231,232,233,234,235,236,237,238,239,240,225,226,227,228,229,230,231,232,233,234,235,236,237,238,239,240,225,226,227,228,229,230,231,232,233,234,235,236,237,238,239,240,225,226,227,228,229,230,231,232,233,234,235,236,237,238,239,240,225,226,227,228,229,230,231,232,233,234,235,236,237,238,239,240,225,226,227,228,229,230,231,232,233,234,235,236,237,238,239,240,225,226,227,228,229,230,231,232,233,234,235,236,237,238,239,240,241,242,243,244,245,246,247,248,249,250,251,252,253,254,255,256,241,242,243,244,245,246,247,248,249,250,251,252,253,254,255,256,241,242,243,244,245,246,247,248,249,250,251,252,253,254,255,256,241,242,243,244,245,246,247,248,249,250,251,252,253,254,255,256,241,242,243,244,245,246,247,248,249,250,251,252,253,254,255,256,241,242,243,244,245,246,247,248,249,250,251,252,253,254,255,256,241,242,243,244,245,246,247,248,249,250,251,252,253,254,255,256,241,242,243,244,245,246,247,248,249,250,251,252,253,254,255,256,241,242,243,244,245,246,247,248,249,250,251,252,253,254,255,256,241,242,243,244,245,246,247,248,249,250,251,252,253,254,255,256,241,242,243,244,245,246,247,248,249,250,251,252,253,254,255,256,241,242,243,244,245,246,247,248,249,250,251,252,253,254,255,256,241,242,243,244,245,246,247,248,249,250,251,252,253,254,255,256,241,242,243,244,245,246,247,248,249,250,251,252,253,254,255,256,241,242,243,244,245,246,247,248,249,250,251,252,253,254,255,256,241,242,243,244,245,246,247,248,249,250,251,252,253,254,255,256,1,2,3,4,5,6,7,8,9,10,11,12,13,14,15,16,1,2,3,4,5,6,7,8,9,10,11,12,13,14,15,16,1,2,3,4,5,6,7,8,9,10,11,12,13,14,15,16,1,2,3,4,5,6,7,8,9,10,11,12,13,14,15,16,1,2,3,4,5,6,7,8,9,10,11,12,13,14,15,16,1,2,3,4,5,6,7,8,9,10,11,12,13,14,15,16,1,2,3,4,5,6,7,8,9,10,11,12,13,14,15,16,1,2,3,4,5,6,7,8,9,10,11,12,13,14,15,16,1,2,3,4,5,6,7,8,9,10,11,12,13,14,15,16,1,2,3,4,5,6,7,8,9,10,11,12,13,14,15,16,1,2,3,4,5,6,7,8,9,10,11,12,13,14,15,16,1,2,3,4,5,6,7,8,9,10,11,12,13,14,15,16,1,2,3,4,5,6,7,8,9,10,11,12,13,14,15,16,1,2,3,4,5,6,7,8,9,10,11,12,13,14,15,16,1,2,3,4,5,6,7,8,9,10,11,12,13,14,15,16,1,2,3,4,5,6,7,8,9,10,11,12,13,14,15,16,17,18,19,20,21,22,23,24,25,26,27,28,29,30,31,32,17,18,19,20,21,22,23,24,25,26,27,28,29,30,31,32,17,18,19,20,21,22,23,24,25,26,27,28,29,30,31,32,17,18,19,20,21,22,23,24,25,26,27,28,29,30,31,32,17,18,19,20,21,22,23,24,25,26,27,28,29,30,31,32,17,18,19,20,21,22,23,24,25,26,27,28,29,30,31,32,17,18,19,20,21,22,23,24,25,26,27,28,29,30,31,32,17,18,19,20,21,22,23,24,25,26,27,28,29,30,31,32,17,18,19,20,21,22,23,24,25,26,27,28,29,30,31,32,17,18,19,20,21,22,23,24,25,26,27,28,29,30,31,32,17,18,19,20,21,22,23,24,25,26,27,28,29,30,31,32,17,18,19,20,21,22,23,24,25,26,27,28,29,30,31,32,17,18,19,20,21,22,23,24,25,26,27,28,29,30,31,32,17,18,19,20,21,22,23,24,25,26,27,28,29,30,31,32,17,18,19,20,21,22,23,24,25,26,27,28,29,30,31,32,17,18,19,20,21,22,23,24,25,26,27,28,29,30,31,32,33,34,35,36,37,38,39,40,41,42,43,44,45,46,47,48,33,34,35,36,37,38,39,40,41,42,43,44,45,46,47,48,33,34,35,36,37,38,39,40,41,42,43,44,45,46,47,48,33,34,35,36,37,38,39,40,41,42,43,44,45,46,47,48,33,34,35,36,37,38,39,40,41,42,43,44,45,46,47,48,33,34,35,36,37,38,39,40,41,42,43,44,45,46,47,48,33,34,35,36,37,38,39,40,41,42,43,44,45,46,47,48,33,34,35,36,37,38,39,40,41,42,43,44,45,46,47,48,33,34,35,36,37,38,39,40,41,42,43,44,45,46,47,48,33,34,35,36,37,38,39,40,41,42,43,44,45,46,47,48,33,34,35,36,37,38,39,40,41,42,43,44,45,46,47,48,33,34,35,36,37,38,39,40,41,42,43,44,45,46,47,48,33,34,35,36,37,38,39,40,41,42,43,44,45,46,47,48,33,34,35,36,37,38,39,40,41,42,43,44,45,46,47,48,33,34,35,36,37,38,39,40,41,42,43,44,45,46,47,48,33,34,35,36,37,38,39,40,41,42,43,44,45,46,47,48,49,50,51,52,53,54,55,56,57,58,59,60,61,62,63,64,49,50,51,52,53,54,55,56,57,58,59,60,61,62,63,64,49,50,51,52,53,54,55,56,57,58,59,60,61,62,63,64,49,50,51,52,53,54,55,56,57,58,59,60,61,62,63,64,49,50,51,52,53,54,55,56,57,58,59,60,61,62,63,64,49,50,51,52,53,54,55,56,57,58,59,60,61,62,63,64,49,50,51,52,53,54,55,56,57,58,59,60,61,62,63,64,49,50,51,52,53,54,55,56,57,58,59,60,61,62,63,64,49,50,51,52,53,54,55,56,57,58,59,60,61,62,63,64,49,50,51,52,53,54,55,56,57,58,59,60,61,62,63,64,49,50,51,52,53,54,55,56,57,58,59,60,61,62,63,64,49,50,51,52,53,54,55,56,57,58,59,60,61,62,63,64,49,50,51,52,53,54,55,56,57,58,59,60,61,62,63,64,49,50,51,52,53,54,55,56,57,58,59,60,61,62,63,64,49,50,51,52,53,54,55,56,57,58,59,60,61,62,63,64,49,50,51,52,53,54,55,56,57,58,59,60,61,62,63,64,65,66,67,68,69,70,71,72,73,74,75,76,77,78,79,80,65,66,67,68,69,70,71,72,73,74,75,76,77,78,79,80,65,66,67,68,69,70,71,72,73,74,75,76,77,78,79,80,65,66,67,68,69,70,71,72,73,74,75,76,77,78,79,80,65,66,67,68,69,70,71,72,73,74,75,76,77,78,79,80,65,66,67,68,69,70,71,72,73,74,75,76,77,78,79,80,65,66,67,68,69,70,71,72,73,74,75,76,77,78,79,80,65,66,67,68,69,70,71,72,73,74,75,76,77,78,79,80,65,66,67,68,69,70,71,72,73,74,75,76,77,78,79,80,65,66,67,68,69,70,71,72,73,74,75,76,77,78,79,80,65,66,67,68,69,70,71,72,73,74,75,76,77,78,79,80,65,66,67,68,69,70,71,72,73,74,75,76,77,78,79,80,65,66,67,68,69,70,71,72,73,74,75,76,77,78,79,80,65,66,67,68,69,70,71,72,73,74,75,76,77,78,79,80,65,66,67,68,69,70,71,72,73,74,75,76,77,78,79,80,65,66,67,68,69,70,71,72,73,74,75,76,77,78,79,80,81,82,83,84,85,86,87,88,89,90,91,92,93,94,95,96,81,82,83,84,85,86,87,88,89,90,91,92,93,94,95,96,81,82,83,84,85,86,87,88,89,90,91,92,93,94,95,96,81,82,83,84,85,86,87,88,89,90,91,92,93,94,95,96,81,82,83,84,85,86,87,88,89,90,91,92,93,94,95,96,81,82,83,84,85,86,87,88,89,90,91,92,93,94,95,96,81,82,83,84,85,86,87,88,89,90,91,92,93,94,95,96,81,82,83,84,85,86,87,88,89,90,91,92,93,94,95,96,81,82,83,84,85,86,87,88,89,90,91,92,93,94,95,96,81,82,83,84,85,86,87,88,89,90,91,92,93,94,95,96,81,82,83,84,85,86,87,88,89,90,91,92,93,94,95,96,81,82,83,84,85,86,87,88,89,90,91,92,93,94,95,96,81,82,83,84,85,86,87,88,89,90,91,92,93,94,95,96,81,82,83,84,85,86,87,88,89,90,91,92,93,94,95,96,81,82,83,84,85,86,87,88,89,90,91,92,93,94,95,96,81,82,83,84,85,86,87,88,89,90,91,92,93,94,95,96,97,98,99,100,101,102,103,104,105,106,107,108,109,110,111,112,97,98,99,100,101,102,103,104,105,106,107,108,109,110,111,112,97,98,99,100,101,102,103,104,105,106,107,108,109,110,111,112,97,98,99,100,101,102,103,104,105,106,107,108,109,110,111,112,97,98,99,100,101,102,103,104,105,106,107,108,109,110,111,112,97,98,99,100,101,102,103,104,105,106,107,108,109,110,111,112,97,98,99,100,101,102,103,104,105,106,107,108,109,110,111,112,97,98,99,100,101,102,103,104,105,106,107,108,109,110,111,112,97,98,99,100,101,102,103,104,105,106,107,108,109,110,111,112,97,98,99,100,101,102,103,104,105,106,107,108,109,110,111,112,97,98,99,100,101,102,103,104,105,106,107,108,109,110,111,112,97,98,99,100,101,102,103,104,105,106,107,108,109,110,111,112,97,98,99,100,101,102,103,104,105,106,107,108,109,110,111,112,97,98,99,100,101,102,103,104,105,106,107,108,109,110,111,112,97,98,99,100,101,102,103,104,105,106,107,108,109,110,111,112,97,98,99,100,101,102,103,104,105,106,107,108,109,110,111,112,113,114,115,116,117,118,119,120,121,122,123,124,125,126,127,128,113,114,115,116,117,118,119,120,121,122,123,124,125,126,127,128,113,114,115,116,117,118,119,120,121,122,123,124,125,126,127,128,113,114,115,116,117,118,119,120,121,122,123,124,125,126,127,128,113,114,115,116,117,118,119,120,121,122,123,124,125,126,127,128,113,114,115,116,117,118,119,120,121,122,123,124,125,126,127,128,113,114,115,116,117,118,119,120,121,122,123,124,125,126,127,128,113,114,115,116,117,118,119,120,121,122,123,124,125,126,127,128,113,114,115,116,117,118,119,120,121,122,123,124,125,126,127,128,113,114,115,116,117,118,119,120,121,122,123,124,125,126,127,128,113,114,115,116,117,118,119,120,121,122,123,124,125,126,127,128,113,114,115,116,117,118,119,120,121,122,123,124,125,126,127,128,113,114,115,116,117,118,119,120,121,122,123,124,125,126,127,128,113,114,115,116,117,118,119,120,121,122,123,124,125,126,127,128,113,114,115,116,117,118,119,120,121,122,123,124,125,126,127,128,113,114,115,116,117,118,119,120,121,122,123,124,125,126,127,128,129,130,131,132,133,134,135,136,137,138,139,140,141,142,143,144,129,130,131,132,133,134,135,136,137,138,139,140,141,142,143,144,129,130,131,132,133,134,135,136,137,138,139,140,141,142,143,144,129,130,131,132,133,134,135,136,137,138,139,140,141,142,143,144,129,130,131,132,133,134,135,136,137,138,139,140,141,142,143,144,129,130,131,132,133,134,135,136,137,138,139,140,141,142,143,144,129,130,131,132,133,134,135,136,137,138,139,140,141,142,143,144,129,130,131,132,133,134,135,136,137,138,139,140,141,142,143,144,129,130,131,132,133,134,135,136,137,138,139,140,141,142,143,144,129,130,131,132,133,134,135,136,137,138,139,140,141,142,143,144,129,130,131,132,133,134,135,136,137,138,139,140,141,142,143,144,129,130,131,132,133,134,135,136,137,138,139,140,141,142,143,144,129,130,131,132,133,134,135,136,137,138,139,140,141,142,143,144,129,130,131,132,133,134,135,136,137,138,139,140,141,142,143,144,129,130,131,132,133,134,135,136,137,138,139,140,141,142,143,144,129,130,131,132,133,134,135,136,137,138,139,140,141,142,143,144,145,146,147,148,149,150,151,152,153,154,155,156,157,158,159,160,145,146,147,148,149,150,151,152,153,154,155,156,157,158,159,160,145,146,147,148,149,150,151,152,153,154,155,156,157,158,159,160,145,146,147,148,149,150,151,152,153,154,155,156,157,158,159,160,145,146,147,148,149,150,151,152,153,154,155,156,157,158,159,160,145,146,147,148,149,150,151,152,153,154,155,156,157,158,159,160,145,146,147,148,149,150,151,152,153,154,155,156,157,158,159,160,145,146,147,148,149,150,151,152,153,154,155,156,157,158,159,160,145,146,147,148,149,150,151,152,153,154,155,156,157,158,159,160,145,146,147,148,149,150,151,152,153,154,155,156,157,158,159,160,145,146,147,148,149,150,151,152,153,154,155,156,157,158,159,160,145,146,147,148,149,150,151,152,153,154,155,156,157,158,159,160,145,146,147,148,149,150,151,152,153,154,155,156,157,158,159,160,145,146,147,148,149,150,151,152,153,154,155,156,157,158,159,160,145,146,147,148,149,150,151,152,153,154,155,156,157,158,159,160,145,146,147,148,149,150,151,152,153,154,155,156,157,158,159,160,161,162,163,164,165,166,167,168,169,170,171,172,173,174,175,176,161,162,163,164,165,166,167,168,169,170,171,172,173,174,175,176,161,162,163,164,165,166,167,168,169,170,171,172,173,174,175,176,161,162,163,164,165,166,167,168,169,170,171,172,173,174,175,176,161,162,163,164,165,166,167,168,169,170,171,172,173,174,175,176,161,162,163,164,165,166,167,168,169,170,171,172,173,174,175,176,161,162,163,164,165,166,167,168,169,170,171,172,173,174,175,176,161,162,163,164,165,166,167,168,169,170,171,172,173,174,175,176,161,162,163,164,165,166,167,168,169,170,171,172,173,174,175,176,161,162,163,164,165,166,167,168,169,170,171,172,173,174,175,176,161,162,163,164,165,166,167,168,169,170,171,172,173,174,175,176,161,162,163,164,165,166,167,168,169,170,171,172,173,174,175,176,161,162,163,164,165,166,167,168,169,170,171,172,173,174,175,176,161,162,163,164,165,166,167,168,169,170,171,172,173,174,175,176,161,162,163,164,165,166,167,168,169,170,171,172,173,174,175,176,161,162,163,164,165,166,167,168,169,170,171,172,173,174,175,176,177,178,179,180,181,182,183,184,185,186,187,188,189,190,191,192,177,178,179,180,181,182,183,184,185,186,187,188,189,190,191,192,177,178,179,180,181,182,183,184,185,186,187,188,189,190,191,192,177,178,179,180,181,182,183,184,185,186,187,188,189,190,191,192,177,178,179,180,181,182,183,184,185,186,187,188,189,190,191,192,177,178,179,180,181,182,183,184,185,186,187,188,189,190,191,192,177,178,179,180,181,182,183,184,185,186,187,188,189,190,191,192,177,178,179,180,181,182,183,184,185,186,187,188,189,190,191,192,177,178,179,180,181,182,183,184,185,186,187,188,189,190,191,192,177,178,179,180,181,182,183,184,185,186,187,188,189,190,191,192,177,178,179,180,181,182,183,184,185,186,187,188,189,190,191,192,177,178,179,180,181,182,183,184,185,186,187,188,189,190,191,192,177,178,179,180,181,182,183,184,185,186,187,188,189,190,191,192,177,178,179,180,181,182,183,184,185,186,187,188,189,190,191,192,177,178,179,180,181,182,183,184,185,186,187,188,189,190,191,192,177,178,179,180,181,182,183,184,185,186,187,188,189,190,191,192,193,194,195,196,197,198,199,200,201,202,203,204,205,206,207,208,193,194,195,196,197,198,199,200,201,202,203,204,205,206,207,208,193,194,195,196,197,198,199,200,201,202,203,204,205,206,207,208,193,194,195,196,197,198,199,200,201,202,203,204,205,206,207,208,193,194,195,196,197,198,199,200,201,202,203,204,205,206,207,208,193,194,195,196,197,198,199,200,201,202,203,204,205,206,207,208,193,194,195,196,197,198,199,200,201,202,203,204,205,206,207,208,193,194,195,196,197,198,199,200,201,202,203,204,205,206,207,208,193,194,195,196,197,198,199,200,201,202,203,204,205,206,207,208,193,194,195,196,197,198,199,200,201,202,203,204,205,206,207,208,193,194,195,196,197,198,199,200,201,202,203,204,205,206,207,208,193,194,195,196,197,198,199,200,201,202,203,204,205,206,207,208,193,194,195,196,197,198,199,200,201,202,203,204,205,206,207,208,193,194,195,196,197,198,199,200,201,202,203,204,205,206,207,208,193,194,195,196,197,198,199,200,201,202,203,204,205,206,207,208,193,194,195,196,197,198,199,200,201,202,203,204,205,206,207,208,209,210,211,212,213,214,215,216,217,218,219,220,221,222,223,224,209,210,211,212,213,214,215,216,217,218,219,220,221,222,223,224,209,210,211,212,213,214,215,216,217,218,219,220,221,222,223,224,209,210,211,212,213,214,215,216,217,218,219,220,221,222,223,224,209,210,211,212,213,214,215,216,217,218,219,220,221,222,223,224,209,210,211,212,213,214,215,216,217,218,219,220,221,222,223,224,209,210,211,212,213,214,215,216,217,218,219,220,221,222,223,224,209,210,211,212,213,214,215,216,217,218,219,220,221,222,223,224,209,210,211,212,213,214,215,216,217,218,219,220,221,222,223,224,209,210,211,212,213,214,215,216,217,218,219,220,221,222,223,224,209,210,211,212,213,214,215,216,217,218,219,220,221,222,223,224,209,210,211,212,213,214,215,216,217,218,219,220,221,222,223,224,209,210,211,212,213,214,215,216,217,218,219,220,221,222,223,224,209,210,211,212,213,214,215,216,217,218,219,220,221,222,223,224,209,210,211,212,213,214,215,216,217,218,219,220,221,222,223,224,209,210,211,212,213,214,215,216,217,218,219,220,221,222,223,224,225,226,227,228,229,230,231,232,233,234,235,236,237,238,239,240,225,226,227,228,229,230,231,232,233,234,235,236,237,238,239,240,225,226,227,228,229,230,231,232,233,234,235,236,237,238,239,240,225,226,227,228,229,230,231,232,233,234,235,236,237,238,239,240,225,226,227,228,229,230,231,232,233,234,235,236,237,238,239,240,225,226,227,228,229,230,231,232,233,234,235,236,237,238,239,240,225,226,227,228,229,230,231,232,233,234,235,236,237,238,239,240,225,226,227,228,229,230,231,232,233,234,235,236,237,238,239,240,225,226,227,228,229,230,231,232,233,234,235,236,237,238,239,240,225,226,227,228,229,230,231,232,233,234,235,236,237,238,239,240,225,226,227,228,229,230,231,232,233,234,235,236,237,238,239,240,225,226,227,228,229,230,231,232,233,234,235,236,237,238,239,240,225,226,227,228,229,230,231,232,233,234,235,236,237,238,239,240,225,226,227,228,229,230,231,232,233,234,235,236,237,238,239,240,225,226,227,228,229,230,231,232,233,234,235,236,237,238,239,240,225,226,227,228,229,230,231,232,233,234,235,236,237,238,239,240,241,242,243,244,245,246,247,248,249,250,251,252,253,254,255,256,241,242,243,244,245,246,247,248,249,250,251,252,253,254,255,256,241,242,243,244,245,246,247,248,249,250,251,252,253,254,255,256,241,242,243,244,245,246,247,248,249,250,251,252,253,254,255,256,241,242,243,244,245,246,247,248,249,250,251,252,253,254,255,256,241,242,243,244,245,246,247,248,249,250,251,252,253,254,255,256,241,242,243,244,245,246,247,248,249,250,251,252,253,254,255,256,241,242,243,244,245,246,247,248,249,250,251,252,253,254,255,256,241,242,243,244,245,246,247,248,249,250,251,252,253,254,255,256,241,242,243,244,245,246,247,248,249,250,251,252,253,254,255,256,241,242,243,244,245,246,247,248,249,250,251,252,253,254,255,256,241,242,243,244,245,246,247,248,249,250,251,252,253,254,255,256,241,242,243,244,245,246,247,248,249,250,251,252,253,254,255,256,241,242,243,244,245,246,247,248,249,250,251,252,253,254,255,256,241,242,243,244,245,246,247,248,249,250,251,252,253,254,255,256,241,242,243,244,245,246,247,248,249,250,251,252,253,254,255,256,1,2,3,4,5,6,7,8,9,10,11,12,13,14,15,16,1,2,3,4,5,6,7,8,9,10,11,12,13,14,15,16,1,2,3,4,5,6,7,8,9,10,11,12,13,14,15,16,1,2,3,4,5,6,7,8,9,10,11,12,13,14,15,16,1,2,3,4,5,6,7,8,9,10,11,12,13,14,15,16,1,2,3,4,5,6,7,8,9,10,11,12,13,14,15,16,1,2,3,4,5,6,7,8,9,10,11,12,13,14,15,16,1,2,3,4,5,6,7,8,9,10,11,12,13,14,15,16,1,2,3,4,5,6,7,8,9,10,11,12,13,14,15,16,1,2,3,4,5,6,7,8,9,10,11,12,13,14,15,16,1,2,3,4,5,6,7,8,9,10,11,12,13,14,15,16,1,2,3,4,5,6,7,8,9,10,11,12,13,14,15,16,1,2,3,4,5,6,7,8,9,10,11,12,13,14,15,16,1,2,3,4,5,6,7,8,9,10,11,12,13,14,15,16,1,2,3,4,5,6,7,8,9,10,11,12,13,14,15,16,1,2,3,4,5,6,7,8,9,10,11,12,13,14,15,16,17,18,19,20,21,22,23,24,25,26,27,28,29,30,31,32,17,18,19,20,21,22,23,24,25,26,27,28,29,30,31,32,17,18,19,20,21,22,23,24,25,26,27,28,29,30,31,32,17,18,19,20,21,22,23,24,25,26,27,28,29,30,31,32,17,18,19,20,21,22,23,24,25,26,27,28,29,30,31,32,17,18,19,20,21,22,23,24,25,26,27,28,29,30,31,32,17,18,19,20,21,22,23,24,25,26,27,28,29,30,31,32,17,18,19,20,21,22,23,24,25,26,27,28,29,30,31,32,17,18,19,20,21,22,23,24,25,26,27,28,29,30,31,32,17,18,19,20,21,22,23,24,25,26,27,28,29,30,31,32,17,18,19,20,21,22,23,24,25,26,27,28,29,30,31,32,17,18,19,20,21,22,23,24,25,26,27,28,29,30,31,32,17,18,19,20,21,22,23,24,25,26,27,28,29,30,31,32,17,18,19,20,21,22,23,24,25,26,27,28,29,30,31,32,17,18,19,20,21,22,23,24,25,26,27,28,29,30,31,32,17,18,19,20,21,22,23,24,25,26,27,28,29,30,31,32,33,34,35,36,37,38,39,40,41,42,43,44,45,46,47,48,33,34,35,36,37,38,39,40,41,42,43,44,45,46,47,48,33,34,35,36,37,38,39,40,41,42,43,44,45,46,47,48,33,34,35,36,37,38,39,40,41,42,43,44,45,46,47,48,33,34,35,36,37,38,39,40,41,42,43,44,45,46,47,48,33,34,35,36,37,38,39,40,41,42,43,44,45,46,47,48,33,34,35,36,37,38,39,40,41,42,43,44,45,46,47,48,33,34,35,36,37,38,39,40,41,42,43,44,45,46,47,48,33,34,35,36,37,38,39,40,41,42,43,44,45,46,47,48,33,34,35,36,37,38,39,40,41,42,43,44,45,46,47,48,33,34,35,36,37,38,39,40,41,42,43,44,45,46,47,48,33,34,35,36,37,38,39,40,41,42,43,44,45,46,47,48,33,34,35,36,37,38,39,40,41,42,43,44,45,46,47,48,33,34,35,36,37,38,39,40,41,42,43,44,45,46,47,48,33,34,35,36,37,38,39,40,41,42,43,44,45,46,47,48,33,34,35,36,37,38,39,40,41,42,43,44,45,46,47,48,49,50,51,52,53,54,55,56,57,58,59,60,61,62,63,64,49,50,51,52,53,54,55,56,57,58,59,60,61,62,63,64,49,50,51,52,53,54,55,56,57,58,59,60,61,62,63,64,49,50,51,52,53,54,55,56,57,58,59,60,61,62,63,64,49,50,51,52,53,54,55,56,57,58,59,60,61,62,63,64,49,50,51,52,53,54,55,56,57,58,59,60,61,62,63,64,49,50,51,52,53,54,55,56,57,58,59,60,61,62,63,64,49,50,51,52,53,54,55,56,57,58,59,60,61,62,63,64,49,50,51,52,53,54,55,56,57,58,59,60,61,62,63,64,49,50,51,52,53,54,55,56,57,58,59,60,61,62,63,64,49,50,51,52,53,54,55,56,57,58,59,60,61,62,63,64,49,50,51,52,53,54,55,56,57,58,59,60,61,62,63,64,49,50,51,52,53,54,55,56,57,58,59,60,61,62,63,64,49,50,51,52,53,54,55,56,57,58,59,60,61,62,63,64,49,50,51,52,53,54,55,56,57,58,59,60,61,62,63,64,49,50,51,52,53,54,55,56,57,58,59,60,61,62,63,64,65,66,67,68,69,70,71,72,73,74,75,76,77,78,79,80,65,66,67,68,69,70,71,72,73,74,75,76,77,78,79,80,65,66,67,68,69,70,71,72,73,74,75,76,77,78,79,80,65,66,67,68,69,70,71,72,73,74,75,76,77,78,79,80,65,66,67,68,69,70,71,72,73,74,75,76,77,78,79,80,65,66,67,68,69,70,71,72,73,74,75,76,77,78,79,80,65,66,67,68,69,70,71,72,73,74,75,76,77,78,79,80,65,66,67,68,69,70,71,72,73,74,75,76,77,78,79,80,65,66,67,68,69,70,71,72,73,74,75,76,77,78,79,80,65,66,67,68,69,70,71,72,73,74,75,76,77,78,79,80,65,66,67,68,69,70,71,72,73,74,75,76,77,78,79,80,65,66,67,68,69,70,71,72,73,74,75,76,77,78,79,80,65,66,67,68,69,70,71,72,73,74,75,76,77,78,79,80,65,66,67,68,69,70,71,72,73,74,75,76,77,78,79,80,65,66,67,68,69,70,71,72,73,74,75,76,77,78,79,80,65,66,67,68,69,70,71,72,73,74,75,76,77,78,79,80,81,82,83,84,85,86,87,88,89,90,91,92,93,94,95,96,81,82,83,84,85,86,87,88,89,90,91,92,93,94,95,96,81,82,83,84,85,86,87,88,89,90,91,92,93,94,95,96,81,82,83,84,85,86,87,88,89,90,91,92,93,94,95,96,81,82,83,84,85,86,87,88,89,90,91,92,93,94,95,96,81,82,83,84,85,86,87,88,89,90,91,92,93,94,95,96,81,82,83,84,85,86,87,88,89,90,91,92,93,94,95,96,81,82,83,84,85,86,87,88,89,90,91,92,93,94,95,96,81,82,83,84,85,86,87,88,89,90,91,92,93,94,95,96,81,82,83,84,85,86,87,88,89,90,91,92,93,94,95,96,81,82,83,84,85,86,87,88,89,90,91,92,93,94,95,96,81,82,83,84,85,86,87,88,89,90,91,92,93,94,95,96,81,82,83,84,85,86,87,88,89,90,91,92,93,94,95,96,81,82,83,84,85,86,87,88,89,90,91,92,93,94,95,96,81,82,83,84,85,86,87,88,89,90,91,92,93,94,95,96,81,82,83,84,85,86,87,88,89,90,91,92,93,94,95,96,97,98,99,100,101,102,103,104,105,106,107,108,109,110,111,112,97,98,99,100,101,102,103,104,105,106,107,108,109,110,111,112,97,98,99,100,101,102,103,104,105,106,107,108,109,110,111,112,97,98,99,100,101,102,103,104,105,106,107,108,109,110,111,112,97,98,99,100,101,102,103,104,105,106,107,108,109,110,111,112,97,98,99,100,101,102,103,104,105,106,107,108,109,110,111,112,97,98,99,100,101,102,103,104,105,106,107,108,109,110,111,112,97,98,99,100,101,102,103,104,105,106,107,108,109,110,111,112,97,98,99,100,101,102,103,104,105,106,107,108,109,110,111,112,97,98,99,100,101,102,103,104,105,106,107,108,109,110,111,112,97,98,99,100,101,102,103,104,105,106,107,108,109,110,111,112,97,98,99,100,101,102,103,104,105,106,107,108,109,110,111,112,97,98,99,100,101,102,103,104,105,106,107,108,109,110,111,112,97,98,99,100,101,102,103,104,105,106,107,108,109,110,111,112,97,98,99,100,101,102,103,104,105,106,107,108,109,110,111,112,97,98,99,100,101,102,103,104,105,106,107,108,109,110,111,112,113,114,115,116,117,118,119,120,121,122,123,124,125,126,127,128,113,114,115,116,117,118,119,120,121,122,123,124,125,126,127,128,113,114,115,116,117,118,119,120,121,122,123,124,125,126,127,128,113,114,115,116,117,118,119,120,121,122,123,124,125,126,127,128,113,114,115,116,117,118,119,120,121,122,123,124,125,126,127,128,113,114,115,116,117,118,119,120,121,122,123,124,125,126,127,128,113,114,115,116,117,118,119,120,121,122,123,124,125,126,127,128,113,114,115,116,117,118,119,120,121,122,123,124,125,126,127,128,113,114,115,116,117,118,119,120,121,122,123,124,125,126,127,128,113,114,115,116,117,118,119,120,121,122,123,124,125,126,127,128,113,114,115,116,117,118,119,120,121,122,123,124,125,126,127,128,113,114,115,116,117,118,119,120,121,122,123,124,125,126,127,128,113,114,115,116,117,118,119,120,121,122,123,124,125,126,127,128,113,114,115,116,117,118,119,120,121,122,123,124,125,126,127,128,113,114,115,116,117,118,119,120,121,122,123,124,125,126,127,128,113,114,115,116,117,118,119,120,121,122,123,124,125,126,127,128,129,130,131,132,133,134,135,136,137,138,139,140,141,142,143,144,129,130,131,132,133,134,135,136,137,138,139,140,141,142,143,144,129,130,131,132,133,134,135,136,137,138,139,140,141,142,143,144,129,130,131,132,133,134,135,136,137,138,139,140,141,142,143,144,129,130,131,132,133,134,135,136,137,138,139,140,141,142,143,144,129,130,131,132,133,134,135,136,137,138,139,140,141,142,143,144,129,130,131,132,133,134,135,136,137,138,139,140,141,142,143,144,129,130,131,132,133,134,135,136,137,138,139,140,141,142,143,144,129,130,131,132,133,134,135,136,137,138,139,140,141,142,143,144,129,130,131,132,133,134,135,136,137,138,139,140,141,142,143,144,129,130,131,132,133,134,135,136,137,138,139,140,141,142,143,144,129,130,131,132,133,134,135,136,137,138,139,140,141,142,143,144,129,130,131,132,133,134,135,136,137,138,139,140,141,142,143,144,129,130,131,132,133,134,135,136,137,138,139,140,141,142,143,144,129,130,131,132,133,134,135,136,137,138,139,140,141,142,143,144,129,130,131,132,133,134,135,136,137,138,139,140,141,142,143,144,145,146,147,148,149,150,151,152,153,154,155,156,157,158,159,160,145,146,147,148,149,150,151,152,153,154,155,156,157,158,159,160,145,146,147,148,149,150,151,152,153,154,155,156,157,158,159,160,145,146,147,148,149,150,151,152,153,154,155,156,157,158,159,160,145,146,147,148,149,150,151,152,153,154,155,156,157,158,159,160,145,146,147,148,149,150,151,152,153,154,155,156,157,158,159,160,145,146,147,148,149,150,151,152,153,154,155,156,157,158,159,160,145,146,147,148,149,150,151,152,153,154,155,156,157,158,159,160,145,146,147,148,149,150,151,152,153,154,155,156,157,158,159,160,145,146,147,148,149,150,151,152,153,154,155,156,157,158,159,160,145,146,147,148,149,150,151,152,153,154,155,156,157,158,159,160,145,146,147,148,149,150,151,152,153,154,155,156,157,158,159,160,145,146,147,148,149,150,151,152,153,154,155,156,157,158,159,160,145,146,147,148,149,150,151,152,153,154,155,156,157,158,159,160,145,146,147,148,149,150,151,152,153,154,155,156,157,158,159,160,145,146,147,148,149,150,151,152,153,154,155,156,157,158,159,160,161,162,163,164,165,166,167,168,169,170,171,172,173,174,175,176,161,162,163,164,165,166,167,168,169,170,171,172,173,174,175,176,161,162,163,164,165,166,167,168,169,170,171,172,173,174,175,176,161,162,163,164,165,166,167,168,169,170,171,172,173,174,175,176,161,162,163,164,165,166,167,168,169,170,171,172,173,174,175,176,161,162,163,164,165,166,167,168,169,170,171,172,173,174,175,176,161,162,163,164,165,166,167,168,169,170,171,172,173,174,175,176,161,162,163,164,165,166,167,168,169,170,171,172,173,174,175,176,161,162,163,164,165,166,167,168,169,170,171,172,173,174,175,176,161,162,163,164,165,166,167,168,169,170,171,172,173,174,175,176,161,162,163,164,165,166,167,168,169,170,171,172,173,174,175,176,161,162,163,164,165,166,167,168,169,170,171,172,173,174,175,176,161,162,163,164,165,166,167,168,169,170,171,172,173,174,175,176,161,162,163,164,165,166,167,168,169,170,171,172,173,174,175,176,161,162,163,164,165,166,167,168,169,170,171,172,173,174,175,176,161,162,163,164,165,166,167,168,169,170,171,172,173,174,175,176,177,178,179,180,181,182,183,184,185,186,187,188,189,190,191,192,177,178,179,180,181,182,183,184,185,186,187,188,189,190,191,192,177,178,179,180,181,182,183,184,185,186,187,188,189,190,191,192,177,178,179,180,181,182,183,184,185,186,187,188,189,190,191,192,177,178,179,180,181,182,183,184,185,186,187,188,189,190,191,192,177,178,179,180,181,182,183,184,185,186,187,188,189,190,191,192,177,178,179,180,181,182,183,184,185,186,187,188,189,190,191,192,177,178,179,180,181,182,183,184,185,186,187,188,189,190,191,192,177,178,179,180,181,182,183,184,185,186,187,188,189,190,191,192,177,178,179,180,181,182,183,184,185,186,187,188,189,190,191,192,177,178,179,180,181,182,183,184,185,186,187,188,189,190,191,192,177,178,179,180,181,182,183,184,185,186,187,188,189,190,191,192,177,178,179,180,181,182,183,184,185,186,187,188,189,190,191,192,177,178,179,180,181,182,183,184,185,186,187,188,189,190,191,192,177,178,179,180,181,182,183,184,185,186,187,188,189,190,191,192,177,178,179,180,181,182,183,184,185,186,187,188,189,190,191,192,193,194,195,196,197,198,199,200,201,202,203,204,205,206,207,208,193,194,195,196,197,198,199,200,201,202,203,204,205,206,207,208,193,194,195,196,197,198,199,200,201,202,203,204,205,206,207,208,193,194,195,196,197,198,199,200,201,202,203,204,205,206,207,208,193,194,195,196,197,198,199,200,201,202,203,204,205,206,207,208,193,194,195,196,197,198,199,200,201,202,203,204,205,206,207,208,193,194,195,196,197,198,199,200,201,202,203,204,205,206,207,208,193,194,195,196,197,198,199,200,201,202,203,204,205,206,207,208,193,194,195,196,197,198,199,200,201,202,203,204,205,206,207,208,193,194,195,196,197,198,199,200,201,202,203,204,205,206,207,208,193,194,195,196,197,198,199,200,201,202,203,204,205,206,207,208,193,194,195,196,197,198,199,200,201,202,203,204,205,206,207,208,193,194,195,196,197,198,199,200,201,202,203,204,205,206,207,208,193,194,195,196,197,198,199,200,201,202,203,204,205,206,207,208,193,194,195,196,197,198,199,200,201,202,203,204,205,206,207,208,193,194,195,196,197,198,199,200,201,202,203,204,205,206,207,208,209,210,211,212,213,214,215,216,217,218,219,220,221,222,223,224,209,210,211,212,213,214,215,216,217,218,219,220,221,222,223,224,209,210,211,212,213,214,215,216,217,218,219,220,221,222,223,224,209,210,211,212,213,214,215,216,217,218,219,220,221,222,223,224,209,210,211,212,213,214,215,216,217,218,219,220,221,222,223,224,209,210,211,212,213,214,215,216,217,218,219,220,221,222,223,224,209,210,211,212,213,214,215,216,217,218,219,220,221,222,223,224,209,210,211,212,213,214,215,216,217,218,219,220,221,222,223,224,209,210,211,212,213,214,215,216,217,218,219,220,221,222,223,224,209,210,211,212,213,214,215,216,217,218,219,220,221,222,223,224,209,210,211,212,213,214,215,216,217,218,219,220,221,222,223,224,209,210,211,212,213,214,215,216,217,218,219,220,221,222,223,224,209,210,211,212,213,214,215,216,217,218,219,220,221,222,223,224,209,210,211,212,213,214,215,216,217,218,219,220,221,222,223,224,209,210,211,212,213,214,215,216,217,218,219,220,221,222,223,224,209,210,211,212,213,214,215,216,217,218,219,220,221,222,223,224,225,226,227,228,229,230,231,232,233,234,235,236,237,238,239,240,225,226,227,228,229,230,231,232,233,234,235,236,237,238,239,240,225,226,227,228,229,230,231,232,233,234,235,236,237,238,239,240,225,226,227,228,229,230,231,232,233,234,235,236,237,238,239,240,225,226,227,228,229,230,231,232,233,234,235,236,237,238,239,240,225,226,227,228,229,230,231,232,233,234,235,236,237,238,239,240,225,226,227,228,229,230,231,232,233,234,235,236,237,238,239,240,225,226,227,228,229,230,231,232,233,234,235,236,237,238,239,240,225,226,227,228,229,230,231,232,233,234,235,236,237,238,239,240,225,226,227,228,229,230,231,232,233,234,235,236,237,238,239,240,225,226,227,228,229,230,231,232,233,234,235,236,237,238,239,240,225,226,227,228,229,230,231,232,233,234,235,236,237,238,239,240,225,226,227,228,229,230,231,232,233,234,235,236,237,238,239,240,225,226,227,228,229,230,231,232,233,234,235,236,237,238,239,240,225,226,227,228,229,230,231,232,233,234,235,236,237,238,239,240,225,226,227,228,229,230,231,232,233,234,235,236,237,238,239,240,241,242,243,244,245,246,247,248,249,250,251,252,253,254,255,256,241,242,243,244,245,246,247,248,249,250,251,252,253,254,255,256,241,242,243,244,245,246,247,248,249,250,251,252,253,254,255,256,241,242,243,244,245,246,247,248,249,250,251,252,253,254,255,256,241,242,243,244,245,246,247,248,249,250,251,252,253,254,255,256,241,242,243,244,245,246,247,248,249,250,251,252,253,254,255,256,241,242,243,244,245,246,247,248,249,250,251,252,253,254,255,256,241,242,243,244,245,246,247,248,249,250,251,252,253,254,255,256,241,242,243,244,245,246,247,248,249,250,251,252,253,254,255,256,241,242,243,244,245,246,247,248,249,250,251,252,253,254,255,256,241,242,243,244,245,246,247,248,249,250,251,252,253,254,255,256,241,242,243,244,245,246,247,248,249,250,251,252,253,254,255,256,241,242,243,244,245,246,247,248,249,250,251,252,253,254,255,256,241,242,243,244,245,246,247,248,249,250,251,252,253,254,255,256,241,242,243,244,245,246,247,248,249,250,251,252,253,254,255,256,241,242,243,244,245,246,247,248,249,250,251,252,253,254,255,256,1,2,3,4,5,6,7,8,9,10,11,12,13,14,15,16,1,2,3,4,5,6,7,8,9,10,11,12,13,14,15,16,1,2,3,4,5,6,7,8,9,10,11,12,13,14,15,16,1,2,3,4,5,6,7,8,9,10,11,12,13,14,15,16,1,2,3,4,5,6,7,8,9,10,11,12,13,14,15,16,1,2,3,4,5,6,7,8,9,10,11,12,13,14,15,16,1,2,3,4,5,6,7,8,9,10,11,12,13,14,15,16,1,2,3,4,5,6,7,8,9,10,11,12,13,14,15,16,1,2,3,4,5,6,7,8,9,10,11,12,13,14,15,16,1,2,3,4,5,6,7,8,9,10,11,12,13,14,15,16,1,2,3,4,5,6,7,8,9,10,11,12,13,14,15,16,1,2,3,4,5,6,7,8,9,10,11,12,13,14,15,16,1,2,3,4,5,6,7,8,9,10,11,12,13,14,15,16,1,2,3,4,5,6,7,8,9,10,11,12,13,14,15,16,1,2,3,4,5,6,7,8,9,10,11,12,13,14,15,16,1,2,3,4,5,6,7,8,9,10,11,12,13,14,15,16,17,18,19,20,21,22,23,24,25,26,27,28,29,30,31,32,17,18,19,20,21,22,23,24,25,26,27,28,29,30,31,32,17,18,19,20,21,22,23,24,25,26,27,28,29,30,31,32,17,18,19,20,21,22,23,24,25,26,27,28,29,30,31,32,17,18,19,20,21,22,23,24,25,26,27,28,29,30,31,32,17,18,19,20,21,22,23,24,25,26,27,28,29,30,31,32,17,18,19,20,21,22,23,24,25,26,27,28,29,30,31,32,17,18,19,20,21,22,23,24,25,26,27,28,29,30,31,32,17,18,19,20,21,22,23,24,25,26,27,28,29,30,31,32,17,18,19,20,21,22,23,24,25,26,27,28,29,30,31,32,17,18,19,20,21,22,23,24,25,26,27,28,29,30,31,32,17,18,19,20,21,22,23,24,25,26,27,28,29,30,31,32,17,18,19,20,21,22,23,24,25,26,27,28,29,30,31,32,17,18,19,20,21,22,23,24,25,26,27,28,29,30,31,32,17,18,19,20,21,22,23,24,25,26,27,28,29,30,31,32,17,18,19,20,21,22,23,24,25,26,27,28,29,30,31,32,33,34,35,36,37,38,39,40,41,42,43,44,45,46,47,48,33,34,35,36,37,38,39,40,41,42,43,44,45,46,47,48,33,34,35,36,37,38,39,40,41,42,43,44,45,46,47,48,33,34,35,36,37,38,39,40,41,42,43,44,45,46,47,48,33,34,35,36,37,38,39,40,41,42,43,44,45,46,47,48,33,34,35,36,37,38,39,40,41,42,43,44,45,46,47,48,33,34,35,36,37,38,39,40,41,42,43,44,45,46,47,48,33,34,35,36,37,38,39,40,41,42,43,44,45,46,47,48,33,34,35,36,37,38,39,40,41,42,43,44,45,46,47,48,33,34,35,36,37,38,39,40,41,42,43,44,45,46,47,48,33,34,35,36,37,38,39,40,41,42,43,44,45,46,47,48,33,34,35,36,37,38,39,40,41,42,43,44,45,46,47,48,33,34,35,36,37,38,39,40,41,42,43,44,45,46,47,48,33,34,35,36,37,38,39,40,41,42,43,44,45,46,47,48,33,34,35,36,37,38,39,40,41,42,43,44,45,46,47,48,33,34,35,36,37,38,39,40,41,42,43,44,45,46,47,48,49,50,51,52,53,54,55,56,57,58,59,60,61,62,63,64,49,50,51,52,53,54,55,56,57,58,59,60,61,62,63,64,49,50,51,52,53,54,55,56,57,58,59,60,61,62,63,64,49,50,51,52,53,54,55,56,57,58,59,60,61,62,63,64,49,50,51,52,53,54,55,56,57,58,59,60,61,62,63,64,49,50,51,52,53,54,55,56,57,58,59,60,61,62,63,64,49,50,51,52,53,54,55,56,57,58,59,60,61,62,63,64,49,50,51,52,53,54,55,56,57,58,59,60,61,62,63,64,49,50,51,52,53,54,55,56,57,58,59,60,61,62,63,64,49,50,51,52,53,54,55,56,57,58,59,60,61,62,63,64,49,50,51,52,53,54,55,56,57,58,59,60,61,62,63,64,49,50,51,52,53,54,55,56,57,58,59,60,61,62,63,64,49,50,51,52,53,54,55,56,57,58,59,60,61,62,63,64,49,50,51,52,53,54,55,56,57,58,59,60,61,62,63,64,49,50,51,52,53,54,55,56,57,58,59,60,61,62,63,64,49,50,51,52,53,54,55,56,57,58,59,60,61,62,63,64,65,66,67,68,69,70,71,72,73,74,75,76,77,78,79,80,65,66,67,68,69,70,71,72,73,74,75,76,77,78,79,80,65,66,67,68,69,70,71,72,73,74,75,76,77,78,79,80,65,66,67,68,69,70,71,72,73,74,75,76,77,78,79,80,65,66,67,68,69,70,71,72,73,74,75,76,77,78,79,80,65,66,67,68,69,70,71,72,73,74,75,76,77,78,79,80,65,66,67,68,69,70,71,72,73,74,75,76,77,78,79,80,65,66,67,68,69,70,71,72,73,74,75,76,77,78,79,80,65,66,67,68,69,70,71,72,73,74,75,76,77,78,79,80,65,66,67,68,69,70,71,72,73,74,75,76,77,78,79,80,65,66,67,68,69,70,71,72,73,74,75,76,77,78,79,80,65,66,67,68,69,70,71,72,73,74,75,76,77,78,79,80,65,66,67,68,69,70,71,72,73,74,75,76,77,78,79,80,65,66,67,68,69,70,71,72,73,74,75,76,77,78,79,80,65,66,67,68,69,70,71,72,73,74,75,76,77,78,79,80,65,66,67,68,69,70,71,72,73,74,75,76,77,78,79,80,81,82,83,84,85,86,87,88,89,90,91,92,93,94,95,96,81,82,83,84,85,86,87,88,89,90,91,92,93,94,95,96,81,82,83,84,85,86,87,88,89,90,91,92,93,94,95,96,81,82,83,84,85,86,87,88,89,90,91,92,93,94,95,96,81,82,83,84,85,86,87,88,89,90,91,92,93,94,95,96,81,82,83,84,85,86,87,88,89,90,91,92,93,94,95,96,81,82,83,84,85,86,87,88,89,90,91,92,93,94,95,96,81,82,83,84,85,86,87,88,89,90,91,92,93,94,95,96,81,82,83,84,85,86,87,88,89,90,91,92,93,94,95,96,81,82,83,84,85,86,87,88,89,90,91,92,93,94,95,96,81,82,83,84,85,86,87,88,89,90,91,92,93,94,95,96,81,82,83,84,85,86,87,88,89,90,91,92,93,94,95,96,81,82,83,84,85,86,87,88,89,90,91,92,93,94,95,96,81,82,83,84,85,86,87,88,89,90,91,92,93,94,95,96,81,82,83,84,85,86,87,88,89,90,91,92,93,94,95,96,81,82,83,84,85,86,87,88,89,90,91,92,93,94,95,96,97,98,99,100,101,102,103,104,105,106,107,108,109,110,111,112,97,98,99,100,101,102,103,104,105,106,107,108,109,110,111,112,97,98,99,100,101,102,103,104,105,106,107,108,109,110,111,112,97,98,99,100,101,102,103,104,105,106,107,108,109,110,111,112,97,98,99,100,101,102,103,104,105,106,107,108,109,110,111,112,97,98,99,100,101,102,103,104,105,106,107,108,109,110,111,112,97,98,99,100,101,102,103,104,105,106,107,108,109,110,111,112,97,98,99,100,101,102,103,104,105,106,107,108,109,110,111,112,97,98,99,100,101,102,103,104,105,106,107,108,109,110,111,112,97,98,99,100,101,102,103,104,105,106,107,108,109,110,111,112,97,98,99,100,101,102,103,104,105,106,107,108,109,110,111,112,97,98,99,100,101,102,103,104,105,106,107,108,109,110,111,112,97,98,99,100,101,102,103,104,105,106,107,108,109,110,111,112,97,98,99,100,101,102,103,104,105,106,107,108,109,110,111,112,97,98,99,100,101,102,103,104,105,106,107,108,109,110,111,112,97,98,99,100,101,102,103,104,105,106,107,108,109,110,111,112,113,114,115,116,117,118,119,120,121,122,123,124,125,126,127,128,113,114,115,116,117,118,119,120,121,122,123,124,125,126,127,128,113,114,115,116,117,118,119,120,121,122,123,124,125,126,127,128,113,114,115,116,117,118,119,120,121,122,123,124,125,126,127,128,113,114,115,116,117,118,119,120,121,122,123,124,125,126,127,128,113,114,115,116,117,118,119,120,121,122,123,124,125,126,127,128,113,114,115,116,117,118,119,120,121,122,123,124,125,126,127,128,113,114,115,116,117,118,119,120,121,122,123,124,125,126,127,128,113,114,115,116,117,118,119,120,121,122,123,124,125,126,127,128,113,114,115,116,117,118,119,120,121,122,123,124,125,126,127,128,113,114,115,116,117,118,119,120,121,122,123,124,125,126,127,128,113,114,115,116,117,118,119,120,121,122,123,124,125,126,127,128,113,114,115,116,117,118,119,120,121,122,123,124,125,126,127,128,113,114,115,116,117,118,119,120,121,122,123,124,125,126,127,128,113,114,115,116,117,118,119,120,121,122,123,124,125,126,127,128,113,114,115,116,117,118,119,120,121,122,123,124,125,126,127,128,129,130,131,132,133,134,135,136,137,138,139,140,141,142,143,144,129,130,131,132,133,134,135,136,137,138,139,140,141,142,143,144,129,130,131,132,133,134,135,136,137,138,139,140,141,142,143,144,129,130,131,132,133,134,135,136,137,138,139,140,141,142,143,144,129,130,131,132,133,134,135,136,137,138,139,140,141,142,143,144,129,130,131,132,133,134,135,136,137,138,139,140,141,142,143,144,129,130,131,132,133,134,135,136,137,138,139,140,141,142,143,144,129,130,131,132,133,134,135,136,137,138,139,140,141,142,143,144,129,130,131,132,133,134,135,136,137,138,139,140,141,142,143,144,129,130,131,132,133,134,135,136,137,138,139,140,141,142,143,144,129,130,131,132,133,134,135,136,137,138,139,140,141,142,143,144,129,130,131,132,133,134,135,136,137,138,139,140,141,142,143,144,129,130,131,132,133,134,135,136,137,138,139,140,141,142,143,144,129,130,131,132,133,134,135,136,137,138,139,140,141,142,143,144,129,130,131,132,133,134,135,136,137,138,139,140,141,142,143,144,129,130,131,132,133,134,135,136,137,138,139,140,141,142,143,144,145,146,147,148,149,150,151,152,153,154,155,156,157,158,159,160,145,146,147,148,149,150,151,152,153,154,155,156,157,158,159,160,145,146,147,148,149,150,151,152,153,154,155,156,157,158,159,160,145,146,147,148,149,150,151,152,153,154,155,156,157,158,159,160,145,146,147,148,149,150,151,152,153,154,155,156,157,158,159,160,145,146,147,148,149,150,151,152,153,154,155,156,157,158,159,160,145,146,147,148,149,150,151,152,153,154,155,156,157,158,159,160,145,146,147,148,149,150,151,152,153,154,155,156,157,158,159,160,145,146,147,148,149,150,151,152,153,154,155,156,157,158,159,160,145,146,147,148,149,150,151,152,153,154,155,156,157,158,159,160,145,146,147,148,149,150,151,152,153,154,155,156,157,158,159,160,145,146,147,148,149,150,151,152,153,154,155,156,157,158,159,160,145,146,147,148,149,150,151,152,153,154,155,156,157,158,159,160,145,146,147,148,149,150,151,152,153,154,155,156,157,158,159,160,145,146,147,148,149,150,151,152,153,154,155,156,157,158,159,160,145,146,147,148,149,150,151,152,153,154,155,156,157,158,159,160,161,162,163,164,165,166,167,168,169,170,171,172,173,174,175,176,161,162,163,164,165,166,167,168,169,170,171,172,173,174,175,176,161,162,163,164,165,166,167,168,169,170,171,172,173,174,175,176,161,162,163,164,165,166,167,168,169,170,171,172,173,174,175,176,161,162,163,164,165,166,167,168,169,170,171,172,173,174,175,176,161,162,163,164,165,166,167,168,169,170,171,172,173,174,175,176,161,162,163,164,165,166,167,168,169,170,171,172,173,174,175,176,161,162,163,164,165,166,167,168,169,170,171,172,173,174,175,176,161,162,163,164,165,166,167,168,169,170,171,172,173,174,175,176,161,162,163,164,165,166,167,168,169,170,171,172,173,174,175,176,161,162,163,164,165,166,167,168,169,170,171,172,173,174,175,176,161,162,163,164,165,166,167,168,169,170,171,172,173,174,175,176,161,162,163,164,165,166,167,168,169,170,171,172,173,174,175,176,161,162,163,164,165,166,167,168,169,170,171,172,173,174,175,176,161,162,163,164,165,166,167,168,169,170,171,172,173,174,175,176,161,162,163,164,165,166,167,168,169,170,171,172,173,174,175,176,177,178,179,180,181,182,183,184,185,186,187,188,189,190,191,192,177,178,179,180,181,182,183,184,185,186,187,188,189,190,191,192,177,178,179,180,181,182,183,184,185,186,187,188,189,190,191,192,177,178,179,180,181,182,183,184,185,186,187,188,189,190,191,192,177,178,179,180,181,182,183,184,185,186,187,188,189,190,191,192,177,178,179,180,181,182,183,184,185,186,187,188,189,190,191,192,177,178,179,180,181,182,183,184,185,186,187,188,189,190,191,192,177,178,179,180,181,182,183,184,185,186,187,188,189,190,191,192,177,178,179,180,181,182,183,184,185,186,187,188,189,190,191,192,177,178,179,180,181,182,183,184,185,186,187,188,189,190,191,192,177,178,179,180,181,182,183,184,185,186,187,188,189,190,191,192,177,178,179,180,181,182,183,184,185,186,187,188,189,190,191,192,177,178,179,180,181,182,183,184,185,186,187,188,189,190,191,192,177,178,179,180,181,182,183,184,185,186,187,188,189,190,191,192,177,178,179,180,181,182,183,184,185,186,187,188,189,190,191,192,177,178,179,180,181,182,183,184,185,186,187,188,189,190,191,192,193,194,195,196,197,198,199,200,201,202,203,204,205,206,207,208,193,194,195,196,197,198,199,200,201,202,203,204,205,206,207,208,193,194,195,196,197,198,199,200,201,202,203,204,205,206,207,208,193,194,195,196,197,198,199,200,201,202,203,204,205,206,207,208,193,194,195,196,197,198,199,200,201,202,203,204,205,206,207,208,193,194,195,196,197,198,199,200,201,202,203,204,205,206,207,208,193,194,195,196,197,198,199,200,201,202,203,204,205,206,207,208,193,194,195,196,197,198,199,200,201,202,203,204,205,206,207,208,193,194,195,196,197,198,199,200,201,202,203,204,205,206,207,208,193,194,195,196,197,198,199,200,201,202,203,204,205,206,207,208,193,194,195,196,197,198,199,200,201,202,203,204,205,206,207,208,193,194,195,196,197,198,199,200,201,202,203,204,205,206,207,208,193,194,195,196,197,198,199,200,201,202,203,204,205,206,207,208,193,194,195,196,197,198,199,200,201,202,203,204,205,206,207,208,193,194,195,196,197,198,199,200,201,202,203,204,205,206,207,208,193,194,195,196,197,198,199,200,201,202,203,204,205,206,207,208,209,210,211,212,213,214,215,216,217,218,219,220,221,222,223,224,209,210,211,212,213,214,215,216,217,218,219,220,221,222,223,224,209,210,211,212,213,214,215,216,217,218,219,220,221,222,223,224,209,210,211,212,213,214,215,216,217,218,219,220,221,222,223,224,209,210,211,212,213,214,215,216,217,218,219,220,221,222,223,224,209,210,211,212,213,214,215,216,217,218,219,220,221,222,223,224,209,210,211,212,213,214,215,216,217,218,219,220,221,222,223,224,209,210,211,212,213,214,215,216,217,218,219,220,221,222,223,224,209,210,211,212,213,214,215,216,217,218,219,220,221,222,223,224,209,210,211,212,213,214,215,216,217,218,219,220,221,222,223,224,209,210,211,212,213,214,215,216,217,218,219,220,221,222,223,224,209,210,211,212,213,214,215,216,217,218,219,220,221,222,223,224,209,210,211,212,213,214,215,216,217,218,219,220,221,222,223,224,209,210,211,212,213,214,215,216,217,218,219,220,221,222,223,224,209,210,211,212,213,214,215,216,217,218,219,220,221,222,223,224,209,210,211,212,213,214,215,216,217,218,219,220,221,222,223,224,225,226,227,228,229,230,231,232,233,234,235,236,237,238,239,240,225,226,227,228,229,230,231,232,233,234,235,236,237,238,239,240,225,226,227,228,229,230,231,232,233,234,235,236,237,238,239,240,225,226,227,228,229,230,231,232,233,234,235,236,237,238,239,240,225,226,227,228,229,230,231,232,233,234,235,236,237,238,239,240,225,226,227,228,229,230,231,232,233,234,235,236,237,238,239,240,225,226,227,228,229,230,231,232,233,234,235,236,237,238,239,240,225,226,227,228,229,230,231,232,233,234,235,236,237,238,239,240,225,226,227,228,229,230,231,232,233,234,235,236,237,238,239,240,225,226,227,228,229,230,231,232,233,234,235,236,237,238,239,240,225,226,227,228,229,230,231,232,233,234,235,236,237,238,239,240,225,226,227,228,229,230,231,232,233,234,235,236,237,238,239,240,225,226,227,228,229,230,231,232,233,234,235,236,237,238,239,240,225,226,227,228,229,230,231,232,233,234,235,236,237,238,239,240,225,226,227,228,229,230,231,232,233,234,235,236,237,238,239,240,225,226,227,228,229,230,231,232,233,234,235,236,237,238,239,240,241,242,243,244,245,246,247,248,249,250,251,252,253,254,255,256,241,242,243,244,245,246,247,248,249,250,251,252,253,254,255,256,241,242,243,244,245,246,247,248,249,250,251,252,253,254,255,256,241,242,243,244,245,246,247,248,249,250,251,252,253,254,255,256,241,242,243,244,245,246,247,248,249,250,251,252,253,254,255,256,241,242,243,244,245,246,247,248,249,250,251,252,253,254,255,256,241,242,243,244,245,246,247,248,249,250,251,252,253,254,255,256,241,242,243,244,245,246,247,248,249,250,251,252,253,254,255,256,241,242,243,244,245,246,247,248,249,250,251,252,253,254,255,256,241,242,243,244,245,246,247,248,249,250,251,252,253,254,255,256,241,242,243,244,245,246,247,248,249,250,251,252,253,254,255,256,241,242,243,244,245,246,247,248,249,250,251,252,253,254,255,256,241,242,243,244,245,246,247,248,249,250,251,252,253,254,255,256,241,242,243,244,245,246,247,248,249,250,251,252,253,254,255,256,241,242,243,244,245,246,247,248,249,250,251,252,253,254,255,256,241,242,243,244,245,246,247,248,249,250,251,252,253,254,255,256,1,2,3,4,5,6,7,8,9,10,11,12,13,14,15,16,1,2,3,4,5,6,7,8,9,10,11,12,13,14,15,16,1,2,3,4,5,6,7,8,9,10,11,12,13,14,15,16,1,2,3,4,5,6,7,8,9,10,11,12,13,14,15,16,1,2,3,4,5,6,7,8,9,10,11,12,13,14,15,16,1,2,3,4,5,6,7,8,9,10,11,12,13,14,15,16,1,2,3,4,5,6,7,8,9,10,11,12,13,14,15,16,1,2,3,4,5,6,7,8,9,10,11,12,13,14,15,16,1,2,3,4,5,6,7,8,9,10,11,12,13,14,15,16,1,2,3,4,5,6,7,8,9,10,11,12,13,14,15,16,1,2,3,4,5,6,7,8,9,10,11,12,13,14,15,16,1,2,3,4,5,6,7,8,9,10,11,12,13,14,15,16,1,2,3,4,5,6,7,8,9,10,11,12,13,14,15,16,1,2,3,4,5,6,7,8,9,10,11,12,13,14,15,16,1,2,3,4,5,6,7,8,9,10,11,12,13,14,15,16,1,2,3,4,5,6,7,8,9,10,11,12,13,14,15,16,17,18,19,20,21,22,23,24,25,26,27,28,29,30,31,32,17,18,19,20,21,22,23,24,25,26,27,28,29,30,31,32,17,18,19,20,21,22,23,24,25,26,27,28,29,30,31,32,17,18,19,20,21,22,23,24,25,26,27,28,29,30,31,32,17,18,19,20,21,22,23,24,25,26,27,28,29,30,31,32,17,18,19,20,21,22,23,24,25,26,27,28,29,30,31,32,17,18,19,20,21,22,23,24,25,26,27,28,29,30,31,32,17,18,19,20,21,22,23,24,25,26,27,28,29,30,31,32,17,18,19,20,21,22,23,24,25,26,27,28,29,30,31,32,17,18,19,20,21,22,23,24,25,26,27,28,29,30,31,32,17,18,19,20,21,22,23,24,25,26,27,28,29,30,31,32,17,18,19,20,21,22,23,24,25,26,27,28,29,30,31,32,17,18,19,20,21,22,23,24,25,26,27,28,29,30,31,32,17,18,19,20,21,22,23,24,25,26,27,28,29,30,31,32,17,18,19,20,21,22,23,24,25,26,27,28,29,30,31,32,17,18,19,20,21,22,23,24,25,26,27,28,29,30,31,32,33,34,35,36,37,38,39,40,41,42,43,44,45,46,47,48,33,34,35,36,37,38,39,40,41,42,43,44,45,46,47,48,33,34,35,36,37,38,39,40,41,42,43,44,45,46,47,48,33,34,35,36,37,38,39,40,41,42,43,44,45,46,47,48,33,34,35,36,37,38,39,40,41,42,43,44,45,46,47,48,33,34,35,36,37,38,39,40,41,42,43,44,45,46,47,48,33,34,35,36,37,38,39,40,41,42,43,44,45,46,47,48,33,34,35,36,37,38,39,40,41,42,43,44,45,46,47,48,33,34,35,36,37,38,39,40,41,42,43,44,45,46,47,48,33,34,35,36,37,38,39,40,41,42,43,44,45,46,47,48,33,34,35,36,37,38,39,40,41,42,43,44,45,46,47,48,33,34,35,36,37,38,39,40,41,42,43,44,45,46,47,48,33,34,35,36,37,38,39,40,41,42,43,44,45,46,47,48,33,34,35,36,37,38,39,40,41,42,43,44,45,46,47,48,33,34,35,36,37,38,39,40,41,42,43,44,45,46,47,48,33,34,35,36,37,38,39,40,41,42,43,44,45,46,47,48,49,50,51,52,53,54,55,56,57,58,59,60,61,62,63,64,49,50,51,52,53,54,55,56,57,58,59,60,61,62,63,64,49,50,51,52,53,54,55,56,57,58,59,60,61,62,63,64,49,50,51,52,53,54,55,56,57,58,59,60,61,62,63,64,49,50,51,52,53,54,55,56,57,58,59,60,61,62,63,64,49,50,51,52,53,54,55,56,57,58,59,60,61,62,63,64,49,50,51,52,53,54,55,56,57,58,59,60,61,62,63,64,49,50,51,52,53,54,55,56,57,58,59,60,61,62,63,64,49,50,51,52,53,54,55,56,57,58,59,60,61,62,63,64,49,50,51,52,53,54,55,56,57,58,59,60,61,62,63,64,49,50,51,52,53,54,55,56,57,58,59,60,61,62,63,64,49,50,51,52,53,54,55,56,57,58,59,60,61,62,63,64,49,50,51,52,53,54,55,56,57,58,59,60,61,62,63,64,49,50,51,52,53,54,55,56,57,58,59,60,61,62,63,64,49,50,51,52,53,54,55,56,57,58,59,60,61,62,63,64,49,50,51,52,53,54,55,56,57,58,59,60,61,62,63,64,65,66,67,68,69,70,71,72,73,74,75,76,77,78,79,80,65,66,67,68,69,70,71,72,73,74,75,76,77,78,79,80,65,66,67,68,69,70,71,72,73,74,75,76,77,78,79,80,65,66,67,68,69,70,71,72,73,74,75,76,77,78,79,80,65,66,67,68,69,70,71,72,73,74,75,76,77,78,79,80,65,66,67,68,69,70,71,72,73,74,75,76,77,78,79,80,65,66,67,68,69,70,71,72,73,74,75,76,77,78,79,80,65,66,67,68,69,70,71,72,73,74,75,76,77,78,79,80,65,66,67,68,69,70,71,72,73,74,75,76,77,78,79,80,65,66,67,68,69,70,71,72,73,74,75,76,77,78,79,80,65,66,67,68,69,70,71,72,73,74,75,76,77,78,79,80,65,66,67,68,69,70,71,72,73,74,75,76,77,78,79,80,65,66,67,68,69,70,71,72,73,74,75,76,77,78,79,80,65,66,67,68,69,70,71,72,73,74,75,76,77,78,79,80,65,66,67,68,69,70,71,72,73,74,75,76,77,78,79,80,65,66,67,68,69,70,71,72,73,74,75,76,77,78,79,80,81,82,83,84,85,86,87,88,89,90,91,92,93,94,95,96,81,82,83,84,85,86,87,88,89,90,91,92,93,94,95,96,81,82,83,84,85,86,87,88,89,90,91,92,93,94,95,96,81,82,83,84,85,86,87,88,89,90,91,92,93,94,95,96,81,82,83,84,85,86,87,88,89,90,91,92,93,94,95,96,81,82,83,84,85,86,87,88,89,90,91,92,93,94,95,96,81,82,83,84,85,86,87,88,89,90,91,92,93,94,95,96,81,82,83,84,85,86,87,88,89,90,91,92,93,94,95,96,81,82,83,84,85,86,87,88,89,90,91,92,93,94,95,96,81,82,83,84,85,86,87,88,89,90,91,92,93,94,95,96,81,82,83,84,85,86,87,88,89,90,91,92,93,94,95,96,81,82,83,84,85,86,87,88,89,90,91,92,93,94,95,96,81,82,83,84,85,86,87,88,89,90,91,92,93,94,95,96,81,82,83,84,85,86,87,88,89,90,91,92,93,94,95,96,81,82,83,84,85,86,87,88,89,90,91,92,93,94,95,96,81,82,83,84,85,86,87,88,89,90,91,92,93,94,95,96,97,98,99,100,101,102,103,104,105,106,107,108,109,110,111,112,97,98,99,100,101,102,103,104,105,106,107,108,109,110,111,112,97,98,99,100,101,102,103,104,105,106,107,108,109,110,111,112,97,98,99,100,101,102,103,104,105,106,107,108,109,110,111,112,97,98,99,100,101,102,103,104,105,106,107,108,109,110,111,112,97,98,99,100,101,102,103,104,105,106,107,108,109,110,111,112,97,98,99,100,101,102,103,104,105,106,107,108,109,110,111,112,97,98,99,100,101,102,103,104,105,106,107,108,109,110,111,112,97,98,99,100,101,102,103,104,105,106,107,108,109,110,111,112,97,98,99,100,101,102,103,104,105,106,107,108,109,110,111,112,97,98,99,100,101,102,103,104,105,106,107,108,109,110,111,112,97,98,99,100,101,102,103,104,105,106,107,108,109,110,111,112,97,98,99,100,101,102,103,104,105,106,107,108,109,110,111,112,97,98,99,100,101,102,103,104,105,106,107,108,109,110,111,112,97,98,99,100,101,102,103,104,105,106,107,108,109,110,111,112,97,98,99,100,101,102,103,104,105,106,107,108,109,110,111,112,113,114,115,116,117,118,119,120,121,122,123,124,125,126,127,128,113,114,115,116,117,118,119,120,121,122,123,124,125,126,127,128,113,114,115,116,117,118,119,120,121,122,123,124,125,126,127,128,113,114,115,116,117,118,119,120,121,122,123,124,125,126,127,128,113,114,115,116,117,118,119,120,121,122,123,124,125,126,127,128,113,114,115,116,117,118,119,120,121,122,123,124,125,126,127,128,113,114,115,116,117,118,119,120,121,122,123,124,125,126,127,128,113,114,115,116,117,118,119,120,121,122,123,124,125,126,127,128,113,114,115,116,117,118,119,120,121,122,123,124,125,126,127,128,113,114,115,116,117,118,119,120,121,122,123,124,125,126,127,128,113,114,115,116,117,118,119,120,121,122,123,124,125,126,127,128,113,114,115,116,117,118,119,120,121,122,123,124,125,126,127,128,113,114,115,116,117,118,119,120,121,122,123,124,125,126,127,128,113,114,115,116,117,118,119,120,121,122,123,124,125,126,127,128,113,114,115,116,117,118,119,120,121,122,123,124,125,126,127,128,113,114,115,116,117,118,119,120,121,122,123,124,125,126,127,128,129,130,131,132,133,134,135,136,137,138,139,140,141,142,143,144,129,130,131,132,133,134,135,136,137,138,139,140,141,142,143,144,129,130,131,132,133,134,135,136,137,138,139,140,141,142,143,144,129,130,131,132,133,134,135,136,137,138,139,140,141,142,143,144,129,130,131,132,133,134,135,136,137,138,139,140,141,142,143,144,129,130,131,132,133,134,135,136,137,138,139,140,141,142,143,144,129,130,131,132,133,134,135,136,137,138,139,140,141,142,143,144,129,130,131,132,133,134,135,136,137,138,139,140,141,142,143,144,129,130,131,132,133,134,135,136,137,138,139,140,141,142,143,144,129,130,131,132,133,134,135,136,137,138,139,140,141,142,143,144,129,130,131,132,133,134,135,136,137,138,139,140,141,142,143,144,129,130,131,132,133,134,135,136,137,138,139,140,141,142,143,144,129,130,131,132,133,134,135,136,137,138,139,140,141,142,143,144,129,130,131,132,133,134,135,136,137,138,139,140,141,142,143,144,129,130,131,132,133,134,135,136,137,138,139,140,141,142,143,144,129,130,131,132,133,134,135,136,137,138,139,140,141,142,143,144,145,146,147,148,149,150,151,152,153,154,155,156,157,158,159,160,145,146,147,148,149,150,151,152,153,154,155,156,157,158,159,160,145,146,147,148,149,150,151,152,153,154,155,156,157,158,159,160,145,146,147,148,149,150,151,152,153,154,155,156,157,158,159,160,145,146,147,148,149,150,151,152,153,154,155,156,157,158,159,160,145,146,147,148,149,150,151,152,153,154,155,156,157,158,159,160,145,146,147,148,149,150,151,152,153,154,155,156,157,158,159,160,145,146,147,148,149,150,151,152,153,154,155,156,157,158,159,160,145,146,147,148,149,150,151,152,153,154,155,156,157,158,159,160,145,146,147,148,149,150,151,152,153,154,155,156,157,158,159,160,145,146,147,148,149,150,151,152,153,154,155,156,157,158,159,160,145,146,147,148,149,150,151,152,153,154,155,156,157,158,159,160,145,146,147,148,149,150,151,152,153,154,155,156,157,158,159,160,145,146,147,148,149,150,151,152,153,154,155,156,157,158,159,160,145,146,147,148,149,150,151,152,153,154,155,156,157,158,159,160,145,146,147,148,149,150,151,152,153,154,155,156,157,158,159,160,161,162,163,164,165,166,167,168,169,170,171,172,173,174,175,176,161,162,163,164,165,166,167,168,169,170,171,172,173,174,175,176,161,162,163,164,165,166,167,168,169,170,171,172,173,174,175,176,161,162,163,164,165,166,167,168,169,170,171,172,173,174,175,176,161,162,163,164,165,166,167,168,169,170,171,172,173,174,175,176,161,162,163,164,165,166,167,168,169,170,171,172,173,174,175,176,161,162,163,164,165,166,167,168,169,170,171,172,173,174,175,176,161,162,163,164,165,166,167,168,169,170,171,172,173,174,175,176,161,162,163,164,165,166,167,168,169,170,171,172,173,174,175,176,161,162,163,164,165,166,167,168,169,170,171,172,173,174,175,176,161,162,163,164,165,166,167,168,169,170,171,172,173,174,175,176,161,162,163,164,165,166,167,168,169,170,171,172,173,174,175,176,161,162,163,164,165,166,167,168,169,170,171,172,173,174,175,176,161,162,163,164,165,166,167,168,169,170,171,172,173,174,175,176,161,162,163,164,165,166,167,168,169,170,171,172,173,174,175,176,161,162,163,164,165,166,167,168,169,170,171,172,173,174,175,176,177,178,179,180,181,182,183,184,185,186,187,188,189,190,191,192,177,178,179,180,181,182,183,184,185,186,187,188,189,190,191,192,177,178,179,180,181,182,183,184,185,186,187,188,189,190,191,192,177,178,179,180,181,182,183,184,185,186,187,188,189,190,191,192,177,178,179,180,181,182,183,184,185,186,187,188,189,190,191,192,177,178,179,180,181,182,183,184,185,186,187,188,189,190,191,192,177,178,179,180,181,182,183,184,185,186,187,188,189,190,191,192,177,178,179,180,181,182,183,184,185,186,187,188,189,190,191,192,177,178,179,180,181,182,183,184,185,186,187,188,189,190,191,192,177,178,179,180,181,182,183,184,185,186,187,188,189,190,191,192,177,178,179,180,181,182,183,184,185,186,187,188,189,190,191,192,177,178,179,180,181,182,183,184,185,186,187,188,189,190,191,192,177,178,179,180,181,182,183,184,185,186,187,188,189,190,191,192,177,178,179,180,181,182,183,184,185,186,187,188,189,190,191,192,177,178,179,180,181,182,183,184,185,186,187,188,189,190,191,192,177,178,179,180,181,182,183,184,185,186,187,188,189,190,191,192,193,194,195,196,197,198,199,200,201,202,203,204,205,206,207,208,193,194,195,196,197,198,199,200,201,202,203,204,205,206,207,208,193,194,195,196,197,198,199,200,201,202,203,204,205,206,207,208,193,194,195,196,197,198,199,200,201,202,203,204,205,206,207,208,193,194,195,196,197,198,199,200,201,202,203,204,205,206,207,208,193,194,195,196,197,198,199,200,201,202,203,204,205,206,207,208,193,194,195,196,197,198,199,200,201,202,203,204,205,206,207,208,193,194,195,196,197,198,199,200,201,202,203,204,205,206,207,208,193,194,195,196,197,198,199,200,201,202,203,204,205,206,207,208,193,194,195,196,197,198,199,200,201,202,203,204,205,206,207,208,193,194,195,196,197,198,199,200,201,202,203,204,205,206,207,208,193,194,195,196,197,198,199,200,201,202,203,204,205,206,207,208,193,194,195,196,197,198,199,200,201,202,203,204,205,206,207,208,193,194,195,196,197,198,199,200,201,202,203,204,205,206,207,208,193,194,195,196,197,198,199,200,201,202,203,204,205,206,207,208,193,194,195,196,197,198,199,200,201,202,203,204,205,206,207,208,209,210,211,212,213,214,215,216,217,218,219,220,221,222,223,224,209,210,211,212,213,214,215,216,217,218,219,220,221,222,223,224,209,210,211,212,213,214,215,216,217,218,219,220,221,222,223,224,209,210,211,212,213,214,215,216,217,218,219,220,221,222,223,224,209,210,211,212,213,214,215,216,217,218,219,220,221,222,223,224,209,210,211,212,213,214,215,216,217,218,219,220,221,222,223,224,209,210,211,212,213,214,215,216,217,218,219,220,221,222,223,224,209,210,211,212,213,214,215,216,217,218,219,220,221,222,223,224,209,210,211,212,213,214,215,216,217,218,219,220,221,222,223,224,209,210,211,212,213,214,215,216,217,218,219,220,221,222,223,224,209,210,211,212,213,214,215,216,217,218,219,220,221,222,223,224,209,210,211,212,213,214,215,216,217,218,219,220,221,222,223,224,209,210,211,212,213,214,215,216,217,218,219,220,221,222,223,224,209,210,211,212,213,214,215,216,217,218,219,220,221,222,223,224,209,210,211,212,213,214,215,216,217,218,219,220,221,222,223,224,209,210,211,212,213,214,215,216,217,218,219,220,221,222,223,224,225,226,227,228,229,230,231,232,233,234,235,236,237,238,239,240,225,226,227,228,229,230,231,232,233,234,235,236,237,238,239,240,225,226,227,228,229,230,231,232,233,234,235,236,237,238,239,240,225,226,227,228,229,230,231,232,233,234,235,236,237,238,239,240,225,226,227,228,229,230,231,232,233,234,235,236,237,238,239,240,225,226,227,228,229,230,231,232,233,234,235,236,237,238,239,240,225,226,227,228,229,230,231,232,233,234,235,236,237,238,239,240,225,226,227,228,229,230,231,232,233,234,235,236,237,238,239,240,225,226,227,228,229,230,231,232,233,234,235,236,237,238,239,240,225,226,227,228,229,230,231,232,233,234,235,236,237,238,239,240,225,226,227,228,229,230,231,232,233,234,235,236,237,238,239,240,225,226,227,228,229,230,231,232,233,234,235,236,237,238,239,240,225,226,227,228,229,230,231,232,233,234,235,236,237,238,239,240,225,226,227,228,229,230,231,232,233,234,235,236,237,238,239,240,225,226,227,228,229,230,231,232,233,234,235,236,237,238,239,240,225,226,227,228,229,230,231,232,233,234,235,236,237,238,239,240,241,242,243,244,245,246,247,248,249,250,251,252,253,254,255,256,241,242,243,244,245,246,247,248,249,250,251,252,253,254,255,256,241,242,243,244,245,246,247,248,249,250,251,252,253,254,255,256,241,242,243,244,245,246,247,248,249,250,251,252,253,254,255,256,241,242,243,244,245,246,247,248,249,250,251,252,253,254,255,256,241,242,243,244,245,246,247,248,249,250,251,252,253,254,255,256,241,242,243,244,245,246,247,248,249,250,251,252,253,254,255,256,241,242,243,244,245,246,247,248,249,250,251,252,253,254,255,256,241,242,243,244,245,246,247,248,249,250,251,252,253,254,255,256,241,242,243,244,245,246,247,248,249,250,251,252,253,254,255,256,241,242,243,244,245,246,247,248,249,250,251,252,253,254,255,256,241,242,243,244,245,246,247,248,249,250,251,252,253,254,255,256,241,242,243,244,245,246,247,248,249,250,251,252,253,254,255,256,241,242,243,244,245,246,247,248,249,250,251,252,253,254,255,256,241,242,243,244,245,246,247,248,249,250,251,252,253,254,255,256,241,242,243,244,245,246,247,248,249,250,251,252,253,254,255,256,1,2,3,4,5,6,7,8,9,10,11,12,13,14,15,16,1,2,3,4,5,6,7,8,9,10,11,12,13,14,15,16,1,2,3,4,5,6,7,8,9,10,11,12,13,14,15,16,1,2,3,4,5,6,7,8,9,10,11,12,13,14,15,16,1,2,3,4,5,6,7,8,9,10,11,12,13,14,15,16,1,2,3,4,5,6,7,8,9,10,11,12,13,14,15,16,1,2,3,4,5,6,7,8,9,10,11,12,13,14,15,16,1,2,3,4,5,6,7,8,9,10,11,12,13,14,15,16,1,2,3,4,5,6,7,8,9,10,11,12,13,14,15,16,1,2,3,4,5,6,7,8,9,10,11,12,13,14,15,16,1,2,3,4,5,6,7,8,9,10,11,12,13,14,15,16,1,2,3,4,5,6,7,8,9,10,11,12,13,14,15,16,1,2,3,4,5,6,7,8,9,10,11,12,13,14,15,16,1,2,3,4,5,6,7,8,9,10,11,12,13,14,15,16,1,2,3,4,5,6,7,8,9,10,11,12,13,14,15,16,1,2,3,4,5,6,7,8,9,10,11,12,13,14,15,16,17,18,19,20,21,22,23,24,25,26,27,28,29,30,31,32,17,18,19,20,21,22,23,24,25,26,27,28,29,30,31,32,17,18,19,20,21,22,23,24,25,26,27,28,29,30,31,32,17,18,19,20,21,22,23,24,25,26,27,28,29,30,31,32,17,18,19,20,21,22,23,24,25,26,27,28,29,30,31,32,17,18,19,20,21,22,23,24,25,26,27,28,29,30,31,32,17,18,19,20,21,22,23,24,25,26,27,28,29,30,31,32,17,18,19,20,21,22,23,24,25,26,27,28,29,30,31,32,17,18,19,20,21,22,23,24,25,26,27,28,29,30,31,32,17,18,19,20,21,22,23,24,25,26,27,28,29,30,31,32,17,18,19,20,21,22,23,24,25,26,27,28,29,30,31,32,17,18,19,20,21,22,23,24,25,26,27,28,29,30,31,32,17,18,19,20,21,22,23,24,25,26,27,28,29,30,31,32,17,18,19,20,21,22,23,24,25,26,27,28,29,30,31,32,17,18,19,20,21,22,23,24,25,26,27,28,29,30,31,32,17,18,19,20,21,22,23,24,25,26,27,28,29,30,31,32,33,34,35,36,37,38,39,40,41,42,43,44,45,46,47,48,33,34,35,36,37,38,39,40,41,42,43,44,45,46,47,48,33,34,35,36,37,38,39,40,41,42,43,44,45,46,47,48,33,34,35,36,37,38,39,40,41,42,43,44,45,46,47,48,33,34,35,36,37,38,39,40,41,42,43,44,45,46,47,48,33,34,35,36,37,38,39,40,41,42,43,44,45,46,47,48,33,34,35,36,37,38,39,40,41,42,43,44,45,46,47,48,33,34,35,36,37,38,39,40,41,42,43,44,45,46,47,48,33,34,35,36,37,38,39,40,41,42,43,44,45,46,47,48,33,34,35,36,37,38,39,40,41,42,43,44,45,46,47,48,33,34,35,36,37,38,39,40,41,42,43,44,45,46,47,48,33,34,35,36,37,38,39,40,41,42,43,44,45,46,47,48,33,34,35,36,37,38,39,40,41,42,43,44,45,46,47,48,33,34,35,36,37,38,39,40,41,42,43,44,45,46,47,48,33,34,35,36,37,38,39,40,41,42,43,44,45,46,47,48,33,34,35,36,37,38,39,40,41,42,43,44,45,46,47,48,49,50,51,52,53,54,55,56,57,58,59,60,61,62,63,64,49,50,51,52,53,54,55,56,57,58,59,60,61,62,63,64,49,50,51,52,53,54,55,56,57,58,59,60,61,62,63,64,49,50,51,52,53,54,55,56,57,58,59,60,61,62,63,64,49,50,51,52,53,54,55,56,57,58,59,60,61,62,63,64,49,50,51,52,53,54,55,56,57,58,59,60,61,62,63,64,49,50,51,52,53,54,55,56,57,58,59,60,61,62,63,64,49,50,51,52,53,54,55,56,57,58,59,60,61,62,63,64,49,50,51,52,53,54,55,56,57,58,59,60,61,62,63,64,49,50,51,52,53,54,55,56,57,58,59,60,61,62,63,64,49,50,51,52,53,54,55,56,57,58,59,60,61,62,63,64,49,50,51,52,53,54,55,56,57,58,59,60,61,62,63,64,49,50,51,52,53,54,55,56,57,58,59,60,61,62,63,64,49,50,51,52,53,54,55,56,57,58,59,60,61,62,63,64,49,50,51,52,53,54,55,56,57,58,59,60,61,62,63,64,49,50,51,52,53,54,55,56,57,58,59,60,61,62,63,64,65,66,67,68,69,70,71,72,73,74,75,76,77,78,79,80,65,66,67,68,69,70,71,72,73,74,75,76,77,78,79,80,65,66,67,68,69,70,71,72,73,74,75,76,77,78,79,80,65,66,67,68,69,70,71,72,73,74,75,76,77,78,79,80,65,66,67,68,69,70,71,72,73,74,75,76,77,78,79,80,65,66,67,68,69,70,71,72,73,74,75,76,77,78,79,80,65,66,67,68,69,70,71,72,73,74,75,76,77,78,79,80,65,66,67,68,69,70,71,72,73,74,75,76,77,78,79,80,65,66,67,68,69,70,71,72,73,74,75,76,77,78,79,80,65,66,67,68,69,70,71,72,73,74,75,76,77,78,79,80,65,66,67,68,69,70,71,72,73,74,75,76,77,78,79,80,65,66,67,68,69,70,71,72,73,74,75,76,77,78,79,80,65,66,67,68,69,70,71,72,73,74,75,76,77,78,79,80,65,66,67,68,69,70,71,72,73,74,75,76,77,78,79,80,65,66,67,68,69,70,71,72,73,74,75,76,77,78,79,80,65,66,67,68,69,70,71,72,73,74,75,76,77,78,79,80,81,82,83,84,85,86,87,88,89,90,91,92,93,94,95,96,81,82,83,84,85,86,87,88,89,90,91,92,93,94,95,96,81,82,83,84,85,86,87,88,89,90,91,92,93,94,95,96,81,82,83,84,85,86,87,88,89,90,91,92,93,94,95,96,81,82,83,84,85,86,87,88,89,90,91,92,93,94,95,96,81,82,83,84,85,86,87,88,89,90,91,92,93,94,95,96,81,82,83,84,85,86,87,88,89,90,91,92,93,94,95,96,81,82,83,84,85,86,87,88,89,90,91,92,93,94,95,96,81,82,83,84,85,86,87,88,89,90,91,92,93,94,95,96,81,82,83,84,85,86,87,88,89,90,91,92,93,94,95,96,81,82,83,84,85,86,87,88,89,90,91,92,93,94,95,96,81,82,83,84,85,86,87,88,89,90,91,92,93,94,95,96,81,82,83,84,85,86,87,88,89,90,91,92,93,94,95,96,81,82,83,84,85,86,87,88,89,90,91,92,93,94,95,96,81,82,83,84,85,86,87,88,89,90,91,92,93,94,95,96,81,82,83,84,85,86,87,88,89,90,91,92,93,94,95,96,97,98,99,100,101,102,103,104,105,106,107,108,109,110,111,112,97,98,99,100,101,102,103,104,105,106,107,108,109,110,111,112,97,98,99,100,101,102,103,104,105,106,107,108,109,110,111,112,97,98,99,100,101,102,103,104,105,106,107,108,109,110,111,112,97,98,99,100,101,102,103,104,105,106,107,108,109,110,111,112,97,98,99,100,101,102,103,104,105,106,107,108,109,110,111,112,97,98,99,100,101,102,103,104,105,106,107,108,109,110,111,112,97,98,99,100,101,102,103,104,105,106,107,108,109,110,111,112,97,98,99,100,101,102,103,104,105,106,107,108,109,110,111,112,97,98,99,100,101,102,103,104,105,106,107,108,109,110,111,112,97,98,99,100,101,102,103,104,105,106,107,108,109,110,111,112,97,98,99,100,101,102,103,104,105,106,107,108,109,110,111,112,97,98,99,100,101,102,103,104,105,106,107,108,109,110,111,112,97,98,99,100,101,102,103,104,105,106,107,108,109,110,111,112,97,98,99,100,101,102,103,104,105,106,107,108,109,110,111,112,97,98,99,100,101,102,103,104,105,106,107,108,109,110,111,112,113,114,115,116,117,118,119,120,121,122,123,124,125,126,127,128,113,114,115,116,117,118,119,120,121,122,123,124,125,126,127,128,113,114,115,116,117,118,119,120,121,122,123,124,125,126,127,128,113,114,115,116,117,118,119,120,121,122,123,124,125,126,127,128,113,114,115,116,117,118,119,120,121,122,123,124,125,126,127,128,113,114,115,116,117,118,119,120,121,122,123,124,125,126,127,128,113,114,115,116,117,118,119,120,121,122,123,124,125,126,127,128,113,114,115,116,117,118,119,120,121,122,123,124,125,126,127,128,113,114,115,116,117,118,119,120,121,122,123,124,125,126,127,128,113,114,115,116,117,118,119,120,121,122,123,124,125,126,127,128,113,114,115,116,117,118,119,120,121,122,123,124,125,126,127,128,113,114,115,116,117,118,119,120,121,122,123,124,125,126,127,128,113,114,115,116,117,118,119,120,121,122,123,124,125,126,127,128,113,114,115,116,117,118,119,120,121,122,123,124,125,126,127,128,113,114,115,116,117,118,119,120,121,122,123,124,125,126,127,128,113,114,115,116,117,118,119,120,121,122,123,124,125,126,127,128,129,130,131,132,133,134,135,136,137,138,139,140,141,142,143,144,129,130,131,132,133,134,135,136,137,138,139,140,141,142,143,144,129,130,131,132,133,134,135,136,137,138,139,140,141,142,143,144,129,130,131,132,133,134,135,136,137,138,139,140,141,142,143,144,129,130,131,132,133,134,135,136,137,138,139,140,141,142,143,144,129,130,131,132,133,134,135,136,137,138,139,140,141,142,143,144,129,130,131,132,133,134,135,136,137,138,139,140,141,142,143,144,129,130,131,132,133,134,135,136,137,138,139,140,141,142,143,144,129,130,131,132,133,134,135,136,137,138,139,140,141,142,143,144,129,130,131,132,133,134,135,136,137,138,139,140,141,142,143,144,129,130,131,132,133,134,135,136,137,138,139,140,141,142,143,144,129,130,131,132,133,134,135,136,137,138,139,140,141,142,143,144,129,130,131,132,133,134,135,136,137,138,139,140,141,142,143,144,129,130,131,132,133,134,135,136,137,138,139,140,141,142,143,144,129,130,131,132,133,134,135,136,137,138,139,140,141,142,143,144,129,130,131,132,133,134,135,136,137,138,139,140,141,142,143,144,145,146,147,148,149,150,151,152,153,154,155,156,157,158,159,160,145,146,147,148,149,150,151,152,153,154,155,156,157,158,159,160,145,146,147,148,149,150,151,152,153,154,155,156,157,158,159,160,145,146,147,148,149,150,151,152,153,154,155,156,157,158,159,160,145,146,147,148,149,150,151,152,153,154,155,156,157,158,159,160,145,146,147,148,149,150,151,152,153,154,155,156,157,158,159,160,145,146,147,148,149,150,151,152,153,154,155,156,157,158,159,160,145,146,147,148,149,150,151,152,153,154,155,156,157,158,159,160,145,146,147,148,149,150,151,152,153,154,155,156,157,158,159,160,145,146,147,148,149,150,151,152,153,154,155,156,157,158,159,160,145,146,147,148,149,150,151,152,153,154,155,156,157,158,159,160,145,146,147,148,149,150,151,152,153,154,155,156,157,158,159,160,145,146,147,148,149,150,151,152,153,154,155,156,157,158,159,160,145,146,147,148,149,150,151,152,153,154,155,156,157,158,159,160,145,146,147,148,149,150,151,152,153,154,155,156,157,158,159,160,145,146,147,148,149,150,151,152,153,154,155,156,157,158,159,160,161,162,163,164,165,166,167,168,169,170,171,172,173,174,175,176,161,162,163,164,165,166,167,168,169,170,171,172,173,174,175,176,161,162,163,164,165,166,167,168,169,170,171,172,173,174,175,176,161,162,163,164,165,166,167,168,169,170,171,172,173,174,175,176,161,162,163,164,165,166,167,168,169,170,171,172,173,174,175,176,161,162,163,164,165,166,167,168,169,170,171,172,173,174,175,176,161,162,163,164,165,166,167,168,169,170,171,172,173,174,175,176,161,162,163,164,165,166,167,168,169,170,171,172,173,174,175,176,161,162,163,164,165,166,167,168,169,170,171,172,173,174,175,176,161,162,163,164,165,166,167,168,169,170,171,172,173,174,175,176,161,162,163,164,165,166,167,168,169,170,171,172,173,174,175,176,161,162,163,164,165,166,167,168,169,170,171,172,173,174,175,176,161,162,163,164,165,166,167,168,169,170,171,172,173,174,175,176,161,162,163,164,165,166,167,168,169,170,171,172,173,174,175,176,161,162,163,164,165,166,167,168,169,170,171,172,173,174,175,176,161,162,163,164,165,166,167,168,169,170,171,172,173,174,175,176,177,178,179,180,181,182,183,184,185,186,187,188,189,190,191,192,177,178,179,180,181,182,183,184,185,186,187,188,189,190,191,192,177,178,179,180,181,182,183,184,185,186,187,188,189,190,191,192,177,178,179,180,181,182,183,184,185,186,187,188,189,190,191,192,177,178,179,180,181,182,183,184,185,186,187,188,189,190,191,192,177,178,179,180,181,182,183,184,185,186,187,188,189,190,191,192,177,178,179,180,181,182,183,184,185,186,187,188,189,190,191,192,177,178,179,180,181,182,183,184,185,186,187,188,189,190,191,192,177,178,179,180,181,182,183,184,185,186,187,188,189,190,191,192,177,178,179,180,181,182,183,184,185,186,187,188,189,190,191,192,177,178,179,180,181,182,183,184,185,186,187,188,189,190,191,192,177,178,179,180,181,182,183,184,185,186,187,188,189,190,191,192,177,178,179,180,181,182,183,184,185,186,187,188,189,190,191,192,177,178,179,180,181,182,183,184,185,186,187,188,189,190,191,192,177,178,179,180,181,182,183,184,185,186,187,188,189,190,191,192,177,178,179,180,181,182,183,184,185,186,187,188,189,190,191,192,193,194,195,196,197,198,199,200,201,202,203,204,205,206,207,208,193,194,195,196,197,198,199,200,201,202,203,204,205,206,207,208,193,194,195,196,197,198,199,200,201,202,203,204,205,206,207,208,193,194,195,196,197,198,199,200,201,202,203,204,205,206,207,208,193,194,195,196,197,198,199,200,201,202,203,204,205,206,207,208,193,194,195,196,197,198,199,200,201,202,203,204,205,206,207,208,193,194,195,196,197,198,199,200,201,202,203,204,205,206,207,208,193,194,195,196,197,198,199,200,201,202,203,204,205,206,207,208,193,194,195,196,197,198,199,200,201,202,203,204,205,206,207,208,193,194,195,196,197,198,199,200,201,202,203,204,205,206,207,208,193,194,195,196,197,198,199,200,201,202,203,204,205,206,207,208,193,194,195,196,197,198,199,200,201,202,203,204,205,206,207,208,193,194,195,196,197,198,199,200,201,202,203,204,205,206,207,208,193,194,195,196,197,198,199,200,201,202,203,204,205,206,207,208,193,194,195,196,197,198,199,200,201,202,203,204,205,206,207,208,193,194,195,196,197,198,199,200,201,202,203,204,205,206,207,208,209,210,211,212,213,214,215,216,217,218,219,220,221,222,223,224,209,210,211,212,213,214,215,216,217,218,219,220,221,222,223,224,209,210,211,212,213,214,215,216,217,218,219,220,221,222,223,224,209,210,211,212,213,214,215,216,217,218,219,220,221,222,223,224,209,210,211,212,213,214,215,216,217,218,219,220,221,222,223,224,209,210,211,212,213,214,215,216,217,218,219,220,221,222,223,224,209,210,211,212,213,214,215,216,217,218,219,220,221,222,223,224,209,210,211,212,213,214,215,216,217,218,219,220,221,222,223,224,209,210,211,212,213,214,215,216,217,218,219,220,221,222,223,224,209,210,211,212,213,214,215,216,217,218,219,220,221,222,223,224,209,210,211,212,213,214,215,216,217,218,219,220,221,222,223,224,209,210,211,212,213,214,215,216,217,218,219,220,221,222,223,224,209,210,211,212,213,214,215,216,217,218,219,220,221,222,223,224,209,210,211,212,213,214,215,216,217,218,219,220,221,222,223,224,209,210,211,212,213,214,215,216,217,218,219,220,221,222,223,224,209,210,211,212,213,214,215,216,217,218,219,220,221,222,223,224,225,226,227,228,229,230,231,232,233,234,235,236,237,238,239,240,225,226,227,228,229,230,231,232,233,234,235,236,237,238,239,240,225,226,227,228,229,230,231,232,233,234,235,236,237,238,239,240,225,226,227,228,229,230,231,232,233,234,235,236,237,238,239,240,225,226,227,228,229,230,231,232,233,234,235,236,237,238,239,240,225,226,227,228,229,230,231,232,233,234,235,236,237,238,239,240,225,226,227,228,229,230,231,232,233,234,235,236,237,238,239,240,225,226,227,228,229,230,231,232,233,234,235,236,237,238,239,240,225,226,227,228,229,230,231,232,233,234,235,236,237,238,239,240,225,226,227,228,229,230,231,232,233,234,235,236,237,238,239,240,225,226,227,228,229,230,231,232,233,234,235,236,237,238,239,240,225,226,227,228,229,230,231,232,233,234,235,236,237,238,239,240,225,226,227,228,229,230,231,232,233,234,235,236,237,238,239,240,225,226,227,228,229,230,231,232,233,234,235,236,237,238,239,240,225,226,227,228,229,230,231,232,233,234,235,236,237,238,239,240,225,226,227,228,229,230,231,232,233,234,235,236,237,238,239,240,241,242,243,244,245,246,247,248,249,250,251,252,253,254,255,256,241,242,243,244,245,246,247,248,249,250,251,252,253,254,255,256,241,242,243,244,245,246,247,248,249,250,251,252,253,254,255,256,241,242,243,244,245,246,247,248,249,250,251,252,253,254,255,256,241,242,243,244,245,246,247,248,249,250,251,252,253,254,255,256,241,242,243,244,245,246,247,248,249,250,251,252,253,254,255,256,241,242,243,244,245,246,247,248,249,250,251,252,253,254,255,256,241,242,243,244,245,246,247,248,249,250,251,252,253,254,255,256,241,242,243,244,245,246,247,248,249,250,251,252,253,254,255,256,241,242,243,244,245,246,247,248,249,250,251,252,253,254,255,256,241,242,243,244,245,246,247,248,249,250,251,252,253,254,255,256,241,242,243,244,245,246,247,248,249,250,251,252,253,254,255,256,241,242,243,244,245,246,247,248,249,250,251,252,253,254,255,256,241,242,243,244,245,246,247,248,249,250,251,252,253,254,255,256,241,242,243,244,245,246,247,248,249,250,251,252,253,254,255,256,241,242,243,244,245,246,247,248,249,250,251,252,253,254,255,256,1,2,3,4,5,6,7,8,9,10,11,12,13,14,15,16,1,2,3,4,5,6,7,8,9,10,11,12,13,14,15,16,1,2,3,4,5,6,7,8,9,10,11,12,13,14,15,16,1,2,3,4,5,6,7,8,9,10,11,12,13,14,15,16,1,2,3,4,5,6,7,8,9,10,11,12,13,14,15,16,1,2,3,4,5,6,7,8,9,10,11,12,13,14,15,16,1,2,3,4,5,6,7,8,9,10,11,12,13,14,15,16,1,2,3,4,5,6,7,8,9,10,11,12,13,14,15,16,1,2,3,4,5,6,7,8,9,10,11,12,13,14,15,16,1,2,3,4,5,6,7,8,9,10,11,12,13,14,15,16,1,2,3,4,5,6,7,8,9,10,11,12,13,14,15,16,1,2,3,4,5,6,7,8,9,10,11,12,13,14,15,16,1,2,3,4,5,6,7,8,9,10,11,12,13,14,15,16,1,2,3,4,5,6,7,8,9,10,11,12,13,14,15,16,1,2,3,4,5,6,7,8,9,10,11,12,13,14,15,16,1,2,3,4,5,6,7,8,9,10,11,12,13,14,15,16,17,18,19,20,21,22,23,24,25,26,27,28,29,30,31,32,17,18,19,20,21,22,23,24,25,26,27,28,29,30,31,32,17,18,19,20,21,22,23,24,25,26,27,28,29,30,31,32,17,18,19,20,21,22,23,24,25,26,27,28,29,30,31,32,17,18,19,20,21,22,23,24,25,26,27,28,29,30,31,32,17,18,19,20,21,22,23,24,25,26,27,28,29,30,31,32,17,18,19,20,21,22,23,24,25,26,27,28,29,30,31,32,17,18,19,20,21,22,23,24,25,26,27,28,29,30,31,32,17,18,19,20,21,22,23,24,25,26,27,28,29,30,31,32,17,18,19,20,21,22,23,24,25,26,27,28,29,30,31,32,17,18,19,20,21,22,23,24,25,26,27,28,29,30,31,32,17,18,19,20,21,22,23,24,25,26,27,28,29,30,31,32,17,18,19,20,21,22,23,24,25,26,27,28,29,30,31,32,17,18,19,20,21,22,23,24,25,26,27,28,29,30,31,32,17,18,19,20,21,22,23,24,25,26,27,28,29,30,31,32,17,18,19,20,21,22,23,24,25,26,27,28,29,30,31,32,33,34,35,36,37,38,39,40,41,42,43,44,45,46,47,48,33,34,35,36,37,38,39,40,41,42,43,44,45,46,47,48,33,34,35,36,37,38,39,40,41,42,43,44,45,46,47,48,33,34,35,36,37,38,39,40,41,42,43,44,45,46,47,48,33,34,35,36,37,38,39,40,41,42,43,44,45,46,47,48,33,34,35,36,37,38,39,40,41,42,43,44,45,46,47,48,33,34,35,36,37,38,39,40,41,42,43,44,45,46,47,48,33,34,35,36,37,38,39,40,41,42,43,44,45,46,47,48,33,34,35,36,37,38,39,40,41,42,43,44,45,46,47,48,33,34,35,36,37,38,39,40,41,42,43,44,45,46,47,48,33,34,35,36,37,38,39,40,41,42,43,44,45,46,47,48,33,34,35,36,37,38,39,40,41,42,43,44,45,46,47,48,33,34,35,36,37,38,39,40,41,42,43,44,45,46,47,48,33,34,35,36,37,38,39,40,41,42,43,44,45,46,47,48,33,34,35,36,37,38,39,40,41,42,43,44,45,46,47,48,33,34,35,36,37,38,39,40,41,42,43,44,45,46,47,48,49,50,51,52,53,54,55,56,57,58,59,60,61,62,63,64,49,50,51,52,53,54,55,56,57,58,59,60,61,62,63,64,49,50,51,52,53,54,55,56,57,58,59,60,61,62,63,64,49,50,51,52,53,54,55,56,57,58,59,60,61,62,63,64,49,50,51,52,53,54,55,56,57,58,59,60,61,62,63,64,49,50,51,52,53,54,55,56,57,58,59,60,61,62,63,64,49,50,51,52,53,54,55,56,57,58,59,60,61,62,63,64,49,50,51,52,53,54,55,56,57,58,59,60,61,62,63,64,49,50,51,52,53,54,55,56,57,58,59,60,61,62,63,64,49,50,51,52,53,54,55,56,57,58,59,60,61,62,63,64,49,50,51,52,53,54,55,56,57,58,59,60,61,62,63,64,49,50,51,52,53,54,55,56,57,58,59,60,61,62,63,64,49,50,51,52,53,54,55,56,57,58,59,60,61,62,63,64,49,50,51,52,53,54,55,56,57,58,59,60,61,62,63,64,49,50,51,52,53,54,55,56,57,58,59,60,61,62,63,64,49,50,51,52,53,54,55,56,57,58,59,60,61,62,63,64,65,66,67,68,69,70,71,72,73,74,75,76,77,78,79,80,65,66,67,68,69,70,71,72,73,74,75,76,77,78,79,80,65,66,67,68,69,70,71,72,73,74,75,76,77,78,79,80,65,66,67,68,69,70,71,72,73,74,75,76,77,78,79,80,65,66,67,68,69,70,71,72,73,74,75,76,77,78,79,80,65,66,67,68,69,70,71,72,73,74,75,76,77,78,79,80,65,66,67,68,69,70,71,72,73,74,75,76,77,78,79,80,65,66,67,68,69,70,71,72,73,74,75,76,77,78,79,80,65,66,67,68,69,70,71,72,73,74,75,76,77,78,79,80,65,66,67,68,69,70,71,72,73,74,75,76,77,78,79,80,65,66,67,68,69,70,71,72,73,74,75,76,77,78,79,80,65,66,67,68,69,70,71,72,73,74,75,76,77,78,79,80,65,66,67,68,69,70,71,72,73,74,75,76,77,78,79,80,65,66,67,68,69,70,71,72,73,74,75,76,77,78,79,80,65,66,67,68,69,70,71,72,73,74,75,76,77,78,79,80,65,66,67,68,69,70,71,72,73,74,75,76,77,78,79,80,81,82,83,84,85,86,87,88,89,90,91,92,93,94,95,96,81,82,83,84,85,86,87,88,89,90,91,92,93,94,95,96,81,82,83,84,85,86,87,88,89,90,91,92,93,94,95,96,81,82,83,84,85,86,87,88,89,90,91,92,93,94,95,96,81,82,83,84,85,86,87,88,89,90,91,92,93,94,95,96,81,82,83,84,85,86,87,88,89,90,91,92,93,94,95,96,81,82,83,84,85,86,87,88,89,90,91,92,93,94,95,96,81,82,83,84,85,86,87,88,89,90,91,92,93,94,95,96,81,82,83,84,85,86,87,88,89,90,91,92,93,94,95,96,81,82,83,84,85,86,87,88,89,90,91,92,93,94,95,96,81,82,83,84,85,86,87,88,89,90,91,92,93,94,95,96,81,82,83,84,85,86,87,88,89,90,91,92,93,94,95,96,81,82,83,84,85,86,87,88,89,90,91,92,93,94,95,96,81,82,83,84,85,86,87,88,89,90,91,92,93,94,95,96,81,82,83,84,85,86,87,88,89,90,91,92,93,94,95,96,81,82,83,84,85,86,87,88,89,90,91,92,93,94,95,96,97,98,99,100,101,102,103,104,105,106,107,108,109,110,111,112,97,98,99,100,101,102,103,104,105,106,107,108,109,110,111,112,97,98,99,100,101,102,103,104,105,106,107,108,109,110,111,112,97,98,99,100,101,102,103,104,105,106,107,108,109,110,111,112,97,98,99,100,101,102,103,104,105,106,107,108,109,110,111,112,97,98,99,100,101,102,103,104,105,106,107,108,109,110,111,112,97,98,99,100,101,102,103,104,105,106,107,108,109,110,111,112,97,98,99,100,101,102,103,104,105,106,107,108,109,110,111,112,97,98,99,100,101,102,103,104,105,106,107,108,109,110,111,112,97,98,99,100,101,102,103,104,105,106,107,108,109,110,111,112,97,98,99,100,101,102,103,104,105,106,107,108,109,110,111,112,97,98,99,100,101,102,103,104,105,106,107,108,109,110,111,112,97,98,99,100,101,102,103,104,105,106,107,108,109,110,111,112,97,98,99,100,101,102,103,104,105,106,107,108,109,110,111,112,97,98,99,100,101,102,103,104,105,106,107,108,109,110,111,112,97,98,99,100,101,102,103,104,105,106,107,108,109,110,111,112,113,114,115,116,117,118,119,120,121,122,123,124,125,126,127,128,113,114,115,116,117,118,119,120,121,122,123,124,125,126,127,128,113,114,115,116,117,118,119,120,121,122,123,124,125,126,127,128,113,114,115,116,117,118,119,120,121,122,123,124,125,126,127,128,113,114,115,116,117,118,119,120,121,122,123,124,125,126,127,128,113,114,115,116,117,118,119,120,121,122,123,124,125,126,127,128,113,114,115,116,117,118,119,120,121,122,123,124,125,126,127,128,113,114,115,116,117,118,119,120,121,122,123,124,125,126,127,128,113,114,115,116,117,118,119,120,121,122,123,124,125,126,127,128,113,114,115,116,117,118,119,120,121,122,123,124,125,126,127,128,113,114,115,116,117,118,119,120,121,122,123,124,125,126,127,128,113,114,115,116,117,118,119,120,121,122,123,124,125,126,127,128,113,114,115,116,117,118,119,120,121,122,123,124,125,126,127,128,113,114,115,116,117,118,119,120,121,122,123,124,125,126,127,128,113,114,115,116,117,118,119,120,121,122,123,124,125,126,127,128,113,114,115,116,117,118,119,120,121,122,123,124,125,126,127,128,129,130,131,132,133,134,135,136,137,138,139,140,141,142,143,144,129,130,131,132,133,134,135,136,137,138,139,140,141,142,143,144,129,130,131,132,133,134,135,136,137,138,139,140,141,142,143,144,129,130,131,132,133,134,135,136,137,138,139,140,141,142,143,144,129,130,131,132,133,134,135,136,137,138,139,140,141,142,143,144,129,130,131,132,133,134,135,136,137,138,139,140,141,142,143,144,129,130,131,132,133,134,135,136,137,138,139,140,141,142,143,144,129,130,131,132,133,134,135,136,137,138,139,140,141,142,143,144,129,130,131,132,133,134,135,136,137,138,139,140,141,142,143,144,129,130,131,132,133,134,135,136,137,138,139,140,141,142,143,144,129,130,131,132,133,134,135,136,137,138,139,140,141,142,143,144,129,130,131,132,133,134,135,136,137,138,139,140,141,142,143,144,129,130,131,132,133,134,135,136,137,138,139,140,141,142,143,144,129,130,131,132,133,134,135,136,137,138,139,140,141,142,143,144,129,130,131,132,133,134,135,136,137,138,139,140,141,142,143,144,129,130,131,132,133,134,135,136,137,138,139,140,141,142,143,144,145,146,147,148,149,150,151,152,153,154,155,156,157,158,159,160,145,146,147,148,149,150,151,152,153,154,155,156,157,158,159,160,145,146,147,148,149,150,151,152,153,154,155,156,157,158,159,160,145,146,147,148,149,150,151,152,153,154,155,156,157,158,159,160,145,146,147,148,149,150,151,152,153,154,155,156,157,158,159,160,145,146,147,148,149,150,151,152,153,154,155,156,157,158,159,160,145,146,147,148,149,150,151,152,153,154,155,156,157,158,159,160,145,146,147,148,149,150,151,152,153,154,155,156,157,158,159,160,145,146,147,148,149,150,151,152,153,154,155,156,157,158,159,160,145,146,147,148,149,150,151,152,153,154,155,156,157,158,159,160,145,146,147,148,149,150,151,152,153,154,155,156,157,158,159,160,145,146,147,148,149,150,151,152,153,154,155,156,157,158,159,160,145,146,147,148,149,150,151,152,153,154,155,156,157,158,159,160,145,146,147,148,149,150,151,152,153,154,155,156,157,158,159,160,145,146,147,148,149,150,151,152,153,154,155,156,157,158,159,160,145,146,147,148,149,150,151,152,153,154,155,156,157,158,159,160,161,162,163,164,165,166,167,168,169,170,171,172,173,174,175,176,161,162,163,164,165,166,167,168,169,170,171,172,173,174,175,176,161,162,163,164,165,166,167,168,169,170,171,172,173,174,175,176,161,162,163,164,165,166,167,168,169,170,171,172,173,174,175,176,161,162,163,164,165,166,167,168,169,170,171,172,173,174,175,176,161,162,163,164,165,166,167,168,169,170,171,172,173,174,175,176,161,162,163,164,165,166,167,168,169,170,171,172,173,174,175,176,161,162,163,164,165,166,167,168,169,170,171,172,173,174,175,176,161,162,163,164,165,166,167,168,169,170,171,172,173,174,175,176,161,162,163,164,165,166,167,168,169,170,171,172,173,174,175,176,161,162,163,164,165,166,167,168,169,170,171,172,173,174,175,176,161,162,163,164,165,166,167,168,169,170,171,172,173,174,175,176,161,162,163,164,165,166,167,168,169,170,171,172,173,174,175,176,161,162,163,164,165,166,167,168,169,170,171,172,173,174,175,176,161,162,163,164,165,166,167,168,169,170,171,172,173,174,175,176,161,162,163,164,165,166,167,168,169,170,171,172,173,174,175,176,177,178,179,180,181,182,183,184,185,186,187,188,189,190,191,192,177,178,179,180,181,182,183,184,185,186,187,188,189,190,191,192,177,178,179,180,181,182,183,184,185,186,187,188,189,190,191,192,177,178,179,180,181,182,183,184,185,186,187,188,189,190,191,192,177,178,179,180,181,182,183,184,185,186,187,188,189,190,191,192,177,178,179,180,181,182,183,184,185,186,187,188,189,190,191,192,177,178,179,180,181,182,183,184,185,186,187,188,189,190,191,192,177,178,179,180,181,182,183,184,185,186,187,188,189,190,191,192,177,178,179,180,181,182,183,184,185,186,187,188,189,190,191,192,177,178,179,180,181,182,183,184,185,186,187,188,189,190,191,192,177,178,179,180,181,182,183,184,185,186,187,188,189,190,191,192,177,178,179,180,181,182,183,184,185,186,187,188,189,190,191,192,177,178,179,180,181,182,183,184,185,186,187,188,189,190,191,192,177,178,179,180,181,182,183,184,185,186,187,188,189,190,191,192,177,178,179,180,181,182,183,184,185,186,187,188,189,190,191,192,177,178,179,180,181,182,183,184,185,186,187,188,189,190,191,192,193,194,195,196,197,198,199,200,201,202,203,204,205,206,207,208,193,194,195,196,197,198,199,200,201,202,203,204,205,206,207,208,193,194,195,196,197,198,199,200,201,202,203,204,205,206,207,208,193,194,195,196,197,198,199,200,201,202,203,204,205,206,207,208,193,194,195,196,197,198,199,200,201,202,203,204,205,206,207,208,193,194,195,196,197,198,199,200,201,202,203,204,205,206,207,208,193,194,195,196,197,198,199,200,201,202,203,204,205,206,207,208,193,194,195,196,197,198,199,200,201,202,203,204,205,206,207,208,193,194,195,196,197,198,199,200,201,202,203,204,205,206,207,208,193,194,195,196,197,198,199,200,201,202,203,204,205,206,207,208,193,194,195,196,197,198,199,200,201,202,203,204,205,206,207,208,193,194,195,196,197,198,199,200,201,202,203,204,205,206,207,208,193,194,195,196,197,198,199,200,201,202,203,204,205,206,207,208,193,194,195,196,197,198,199,200,201,202,203,204,205,206,207,208,193,194,195,196,197,198,199,200,201,202,203,204,205,206,207,208,193,194,195,196,197,198,199,200,201,202,203,204,205,206,207,208,209,210,211,212,213,214,215,216,217,218,219,220,221,222,223,224,209,210,211,212,213,214,215,216,217,218,219,220,221,222,223,224,209,210,211,212,213,214,215,216,217,218,219,220,221,222,223,224,209,210,211,212,213,214,215,216,217,218,219,220,221,222,223,224,209,210,211,212,213,214,215,216,217,218,219,220,221,222,223,224,209,210,211,212,213,214,215,216,217,218,219,220,221,222,223,224,209,210,211,212,213,214,215,216,217,218,219,220,221,222,223,224,209,210,211,212,213,214,215,216,217,218,219,220,221,222,223,224,209,210,211,212,213,214,215,216,217,218,219,220,221,222,223,224,209,210,211,212,213,214,215,216,217,218,219,220,221,222,223,224,209,210,211,212,213,214,215,216,217,218,219,220,221,222,223,224,209,210,211,212,213,214,215,216,217,218,219,220,221,222,223,224,209,210,211,212,213,214,215,216,217,218,219,220,221,222,223,224,209,210,211,212,213,214,215,216,217,218,219,220,221,222,223,224,209,210,211,212,213,214,215,216,217,218,219,220,221,222,223,224,209,210,211,212,213,214,215,216,217,218,219,220,221,222,223,224,225,226,227,228,229,230,231,232,233,234,235,236,237,238,239,240,225,226,227,228,229,230,231,232,233,234,235,236,237,238,239,240,225,226,227,228,229,230,231,232,233,234,235,236,237,238,239,240,225,226,227,228,229,230,231,232,233,234,235,236,237,238,239,240,225,226,227,228,229,230,231,232,233,234,235,236,237,238,239,240,225,226,227,228,229,230,231,232,233,234,235,236,237,238,239,240,225,226,227,228,229,230,231,232,233,234,235,236,237,238,239,240,225,226,227,228,229,230,231,232,233,234,235,236,237,238,239,240,225,226,227,228,229,230,231,232,233,234,235,236,237,238,239,240,225,226,227,228,229,230,231,232,233,234,235,236,237,238,239,240,225,226,227,228,229,230,231,232,233,234,235,236,237,238,239,240,225,226,227,228,229,230,231,232,233,234,235,236,237,238,239,240,225,226,227,228,229,230,231,232,233,234,235,236,237,238,239,240,225,226,227,228,229,230,231,232,233,234,235,236,237,238,239,240,225,226,227,228,229,230,231,232,233,234,235,236,237,238,239,240,225,226,227,228,229,230,231,232,233,234,235,236,237,238,239,240,241,242,243,244,245,246,247,248,249,250,251,252,253,254,255,256,241,242,243,244,245,246,247,248,249,250,251,252,253,254,255,256,241,242,243,244,245,246,247,248,249,250,251,252,253,254,255,256,241,242,243,244,245,246,247,248,249,250,251,252,253,254,255,256,241,242,243,244,245,246,247,248,249,250,251,252,253,254,255,256,241,242,243,244,245,246,247,248,249,250,251,252,253,254,255,256,241,242,243,244,245,246,247,248,249,250,251,252,253,254,255,256,241,242,243,244,245,246,247,248,249,250,251,252,253,254,255,256,241,242,243,244,245,246,247,248,249,250,251,252,253,254,255,256,241,242,243,244,245,246,247,248,249,250,251,252,253,254,255,256,241,242,243,244,245,246,247,248,249,250,251,252,253,254,255,256,241,242,243,244,245,246,247,248,249,250,251,252,253,254,255,256,241,242,243,244,245,246,247,248,249,250,251,252,253,254,255,256,241,242,243,244,245,246,247,248,249,250,251,252,253,254,255,256,241,242,243,244,245,246,247,248,249,250,251,252,253,254,255,256,241,242,243,244,245,246,247,248,249,250,251,252,253,254,255,256]},{"id":2,"name":"falaises_bordures","type":"tilelayer","x":0,"y":0,"width":256,"height":192,"opacity":1,"visible":true,"data":[0,0,0,0,0,0,0,0,0,0,0,0,0,0,0,0,0,0,0,0,0,0,0,0,0,0,0,0,0,0,0,0,0,0,0,0,0,0,0,0,0,0,0,0,0,0,0,0,0,0,0,0,0,0,0,0,0,0,0,0,0,0,0,0,0,0,0,0,0,0,0,0,0,0,0,0,0,0,0,0,0,0,0,0,0,0,0,0,0,0,0,0,0,0,0,0,0,0,0,0,0,0,0,0,0,0,0,0,0,0,0,0,0,0,0,0,0,0,0,0,0,0,0,0,0,0,0,0,0,0,0,0,0,0,0,0,0,0,0,0,0,0,0,0,0,0,0,0,0,0,0,0,0,0,0,0,0,0,0,0,0,0,0,0,0,0,0,0,0,0,0,0,0,0,0,0,0,0,0,0,0,0,0,0,0,0,0,0,0,0,0,0,0,0,0,0,0,0,0,0,0,0,0,0,0,0,0,0,0,0,0,0,0,0,0,0,0,0,0,0,0,0,0,0,0,0,0,0,0,0,0,0,0,0,0,0,0,0,0,0,0,0,0,0,0,0,0,0,0,0,0,0,0,0,0,0,0,0,0,0,0,0,0,0,0,0,0,0,0,0,0,0,0,0,0,0,0,0,0,0,0,0,0,0,0,0,0,0,0,0,0,0,0,0,0,0,0,0,0,0,0,0,0,0,0,0,0,0,0,0,0,0,0,0,0,0,0,0,0,0,0,0,0,0,0,0,0,0,0,0,0,0,0,0,0,0,0,0,0,0,0,0,0,0,0,0,0,0,0,0,0,0,0,0,0,0,0,0,0,0,0,0,0,0,0,0,0,0,0,0,0,0,0,0,0,0,0,0,0,0,0,0,0,0,0,0,0,0,0,0,0,0,0,0,0,0,0,0,0,0,0,0,0,0,0,0,0,0,0,0,0,0,0,0,0,0,0,0,0,0,0,0,0,0,0,0,0,0,0,0,0,0,0,0,0,0,0,0,0,0,0,0,0,0,0,0,0,0,0,0,0,0,0,0,0,0,0,0,0,0,0,0,0,0,0,0,0,0,0,0,0,0,0,0,0,0,0,0,0,0,0,0,0,0,0,0,0,0,0,0,0,0,0,0,0,0,0,0,0,0,0,0,0,0,0,0,0,0,0,0,0,0,0,0,0,0,0,0,0,0,0,0,0,0,0,0,0,0,0,0,0,0,0,0,0,0,0,0,0,0,0,0,0,0,0,0,0,0,0,0,0,0,0,0,0,0,0,0,0,0,0,0,0,0,0,0,0,0,0,0,0,0,0,0,0,0,0,0,0,0,0,0,0,0,0,0,0,0,0,0,0,0,0,0,0,0,0,0,0,0,0,0,0,0,0,0,0,0,0,0,0,0,0,0,0,0,0,0,0,0,0,0,0,0,0,0,0,0,0,0,0,0,0,0,0,0,0,0,0,0,0,0,0,0,0,0,0,0,0,0,0,0,0,0,0,0,0,0,0,0,0,0,0,0,0,0,0,0,0,0,0,0,0,0,0,0,0,0,0,0,0,0,0,0,0,0,0,0,0,0,0,0,0,0,0,0,0,0,0,0,0,0,0,0,0,0,0,0,0,0,0,0,0,0,0,0,0,0,0,0,0,0,0,0,0,0,0,0,0,0,0,0,0,0,0,0,0,0,0,0,0,0,0,0,0,0,0,0,0,0,0,0,0,0,0,0,0,0,0,0,0,0,0,0,0,0,0,0,0,0,0,0,0,0,0,0,0,0,0,0,0,0,0,0,0,0,0,0,0,0,0,0,0,0,0,0,0,0,0,0,0,0,0,0,0,0,0,0,0,0,0,0,0,0,0,0,0,0,0,0,0,0,0,0,0,0,0,0,0,0,0,0,0,0,0,0,0,0,0,0,0,0,0,0,0,0,0,0,0,0,0,0,0,0,0,0,0,0,0,0,0,0,0,0,0,0,0,0,0,0,0,0,0,0,0,0,0,0,0,0,0,0,0,0,0,0,0,0,0,0,0,0,0,0,0,0,0,0,0,0,0,0,0,0,0,0,0,0,0,0,0,0,0,0,0,0,0,0,0,0,0,0,0,0,0,0,0,0,0,0,0,0,0,0,0,0,0,0,0,0,0,0,0,0,0,0,0,0,0,0,0,0,0,0,0,0,0,0,0,0,0,0,0,0,0,0,0,0,0,0,0,0,0,0,0,0,0,0,0,0,0,0,0,0,0,0,0,0,0,0,0,0,0,0,0,0,0,0,0,0,0,0,0,0,0,0,0,0,0,0,0,0,0,0,0,0,0,0,0,0,0,0,0,0,0,0,0,0,0,0,0,0,0,0,0,0,0,0,0,0,0,0,0,0,0,0,0,0,0,0,0,0,0,0,0,0,0,0,0,0,0,0,0,0,0,0,0,0,0,0,0,0,0,0,0,0,0,0,0,0,0,0,0,0,0,0,0,0,0,0,0,0,0,0,0,0,0,0,0,0,0,0,0,0,0,0,0,0,0,0,0,0,0,0,0,0,0,0,0,0,0,0,0,0,0,0,0,0,0,0,0,0,0,0,0,0,0,0,0,0,0,0,0,0,0,0,0,0,0,0,0,0,0,0,0,0,0,0,0,0,0,0,0,0,0,0,0,0,0,0,0,0,0,0,0,0,0,0,0,0,0,0,0,0,0,0,0,0,0,0,0,0,0,0,0,0,0,0,0,0,0,0,0,0,0,0,0,0,0,0,0,0,0,0,0,0,0,0,0,0,0,0,0,0,0,0,0,0,0,0,0,0,0,0,0,0,0,0,0,0,0,0,0,0,0,0,0,0,0,0,0,0,0,0,0,0,0,0,0,0,0,0,0,0,0,0,0,0,0,0,0,0,0,0,0,0,0,0,0,0,0,0,0,0,0,0,0,0,0,0,0,0,0,0,0,0,0,0,0,0,0,0,0,0,0,0,0,0,0,0,0,0,0,0,0,0,0,0,0,0,0,0,0,0,0,0,0,0,0,0,0,0,0,0,0,0,0,0,0,0,0,0,0,0,0,0,0,0,0,0,0,0,0,0,0,0,0,0,0,0,0,0,0,0,0,0,0,0,0,0,0,0,0,0,0,0,0,0,0,0,0,0,0,0,0,0,0,0,0,0,0,0,0,0,0,0,0,0,0,0,0,0,0,0,0,0,0,0,0,0,0,0,0,0,0,0,0,0,0,0,0,0,0,0,0,0,0,0,0,0,0,0,0,0,0,0,0,0,0,0,0,0,0,0,0,0,0,0,0,0,0,0,0,0,0,0,0,0,0,0,0,0,0,0,0,0,0,0,0,0,0,0,0,0,0,0,0,0,0,0,0,0,0,0,0,0,0,0,0,0,0,0,0,0,0,0,0,0,0,0,0,0,0,0,0,0,0,0,0,0,0,0,0,0,0,0,0,0,0,0,0,0,0,0,0,0,0,0,0,0,0,0,0,0,0,0,0,0,0,0,0,0,0,0,0,0,0,0,0,0,0,0,0,0,0,0,0,0,0,0,0,0,0,0,0,0,0,0,0,0,0,0,0,0,0,0,0,0,0,0,0,0,0,0,0,0,0,0,0,0,0,0,0,0,0,0,0,0,0,0,0,0,0,0,0,0,0,0,0,0,0,0,0,0,0,0,0,0,0,0,0,0,0,0,0,0,0,0,0,0,0,0,0,0,0,0,0,0,0,0,0,0,0,0,0,0,0,0,0,0,0,0,0,0,0,0,0,0,0,0,0,0,0,0,0,0,0,0,0,0,0,0,0,0,0,0,0,0,0,0,0,0,0,0,0,0,0,0,0,0,0,0,0,0,0,0,0,0,0,0,0,0,0,0,0,0,0,0,0,0,0,0,0,0,0,0,0,0,0,0,0,0,0,0,0,0,0,0,0,0,0,0,0,0,0,0,0,0,0,0,0,0,0,0,0,0,0,0,0,0,0,0,0,0,0,0,0,0,0,0,0,0,0,0,0,0,0,0,0,0,0,0,0,0,0,0,0,0,0,0,0,0,0,0,0,0,0,0,0,0,0,0,0,0,0,0,0,0,0,0,0,0,0,0,0,0,0,0,0,0,0,0,0,0,0,0,0,0,0,0,0,0,0,0,0,0,0,0,0,0,0,0,0,0,0,0,0,0,0,0,0,0,0,0,0,0,0,0,0,0,0,0,0,0,0,0,0,0,0,0,0,0,0,0,0,0,0,0,0,0,0,0,0,0,0,0,0,0,0,0,0,0,0,0,0,0,0,0,0,0,0,0,0,0,0,0,0,0,0,0,0,0,0,0,0,0,0,0,0,0,0,0,0,0,0,0,0,0,0,0,0,0,0,0,0,0,0,0,0,0,0,0,0,0,0,0,0,0,0,0,0,0,0,0,0,0,0,0,0,0,0,0,0,0,0,0,0,0,0,0,0,0,0,0,0,0,0,0,0,0,0,0,0,0,0,0,0,0,0,0,0,0,0,0,0,0,0,0,0,0,0,0,0,0,0,0,0,0,0,0,0,0,0,0,0,0,0,0,0,0,0,0,0,0,0,0,0,0,0,0,0,0,0,0,0,0,0,0,0,0,0,0,0,0,0,0,0,0,0,0,0,0,0,0,0,0,0,0,0,0,0,0,0,0,0,0,0,0,0,0,0,0,0,0,0,0,0,0,0,0,0,0,0,0,0,0,0,0,0,0,0,0,0,0,0,0,0,0,0,0,0,0,0,0,0,0,0,0,0,0,0,0,0,0,0,0,0,0,0,0,0,0,0,0,0,0,0,0,0,0,0,0,0,0,0,0,0,0,0,0,0,0,0,0,0,0,0,0,0,0,0,0,0,0,0,0,0,0,0,0,0,0,0,0,0,0,0,0,0,0,0,0,0,0,0,0,0,0,0,0,0,0,0,0,0,0,0,0,0,0,0,0,0,0,0,0,0,0,0,0,0,0,0,0,0,0,0,0,0,0,0,0,0,0,0,0,0,0,0,0,0,0,0,0,0,0,0,0,0,0,0,0,0,0,0,0,0,0,0,0,0,0,0,0,0,0,0,0,0,0,0,0,0,0,0,0,0,0,0,0,0,0,0,0,0,0,0,0,0,0,0,0,0,0,0,0,0,0,0,0,0,0,0,0,0,0,0,0,0,0,0,0,0,0,0,0,0,0,0,0,0,0,0,0,0,0,0,0,0,0,0,0,0,0,0,0,0,0,0,0,0,0,0,0,0,0,0,0,0,0,0,0,0,0,0,0,0,0,0,0,0,0,0,0,0,0,0,0,0,0,0,0,0,0,0,0,0,0,0,0,0,0,0,0,0,0,0,0,0,0,0,0,0,0,0,0,0,0,0,0,0,0,0,0,0,0,0,0,0,0,0,0,0,0,0,0,0,0,0,0,0,0,0,0,0,0,0,0,0,0,0,0,0,0,0,0,0,0,0,0,0,0,0,0,0,0,0,0,0,0,0,0,0,0,0,0,0,0,0,0,0,0,0,0,0,0,0,0,0,0,0,0,0,0,0,0,0,0,0,0,0,0,0,0,0,0,0,0,0,0,0,0,0,0,0,0,0,0,0,0,0,0,0,0,0,0,0,0,0,0,0,0,0,0,0,0,0,0,0,0,0,0,0,0,0,0,0,0,0,0,0,0,0,0,0,0,0,0,0,0,0,0,0,0,0,0,0,0,0,0,0,0,0,0,0,0,0,0,0,0,0,0,0,0,0,0,0,0,0,0,0,0,0,0,0,0,0,0,0,0,0,0,0,0,0,0,0,0,0,0,0,0,0,0,0,0,0,0,0,0,0,0,0,0,0,0,0,0,0,0,0,0,0,0,0,0,0,0,0,0,0,0,0,0,0,0,0,0,0,0,0,0,0,0,0,0,0,0,0,0,0,0,0,0,0,0,0,0,0,0,0,0,0,0,0,0,0,0,0,0,0,0,0,0,0,0,0,0,0,0,0,0,0,0,0,0,0,0,0,0,0,0,0,0,0,0,0,0,0,0,0,0,0,0,0,0,0,0,0,0,0,0,0,0,0,0,0,0,0,0,0,0,0,0,0,0,0,0,0,0,0,0,0,0,0,0,0,0,0,0,0,0,0,0,0,0,0,0,0,0,0,0,0,0,0,0,0,0,0,0,0,0,0,0,0,0,0,0,0,0,0,0,0,0,0,0,0,0,0,0,0,0,0,0,0,0,0,0,0,0,0,0,0,0,0,0,0,0,0,0,0,0,0,0,0,0,0,0,0,0,0,0,0,0,0,0,0,0,0,0,0,0,0,0,0,0,0,0,0,0,0,0,0,0,0,0,0,0,0,0,0,0,0,0,0,0,0,0,0,0,0,0,0,0,0,0,0,0,0,0,0,0,0,0,0,0,0,0,0,0,0,0,0,0,0,0,0,0,0,0,0,0,0,0,0,0,0,0,0,0,0,0,0,0,0,0,0,0,0,0,0,0,0,0,0,0,0,0,0,0,0,0,0,0,0,0,0,0,0,0,0,0,0,0,0,0,0,0,0,0,0,0,0,0,0,0,0,0,0,0,0,0,0,0,0,0,0,0,0,0,0,0,0,0,0,0,0,0,0,0,0,0,0,0,0,0,0,0,0,0,0,0,0,0,0,0,0,0,0,0,0,0,0,0,0,0,0,0,0,0,0,0,0,0,0,0,0,0,0,0,0,0,0,0,0,0,0,0,0,0,0,0,0,0,0,0,0,0,0,0,0,0,0,0,0,0,0,0,0,0,0,0,0,0,0,0,0,0,0,0,0,0,0,0,0,0,0,0,0,0,0,0,0,0,0,0,0,0,0,0,0,0,0,0,0,0,0,0,0,0,0,0,0,0,0,0,0,0,0,0,0,0,0,0,0,0,0,0,0,0,0,0,0,0,0,0,0,0,0,0,0,0,0,0,0,0,0,0,0,0,0,0,0,0,0,0,0,0,0,0,0,0,0,0,0,0,0,0,0,0,0,0,0,0,0,0,0,0,0,0,0,0,0,0,0,0,0,0,0,0,0,0,0,0,0,0,0,0,0,0,0,0,0,0,0,0,0,0,0,0,0,0,0,0,0,0,0,0,0,0,0,0,0,0,0,0,0,0,0,0,0,0,0,0,0,0,0,0,0,0,0,0,0,0,0,0,0,0,0,0,0,0,0,0,0,0,0,0,0,0,0,0,0,0,0,0,0,0,0,0,0,0,0,0,0,0,0,0,0,0,0,0,0,0,0,0,0,0,0,0,0,0,0,0,0,0,0,0,0,0,0,0,0,0,0,0,0,0,0,0,0,0,0,0,0,0,0,0,0,0,0,0,0,0,0,0,0,0,0,0,0,0,0,0,0,0,0,0,0,0,0,0,0,0,0,0,0,0,0,0,0,0,0,0,0,0,0,0,0,0,0,0,0,0,0,0,0,0,0,0,0,0,0,0,0,0,0,0,0,0,0,0,0,0,0,0,0,0,0,0,0,0,0,0,0,0,0,0,0,0,0,0,0,0,0,0,0,0,0,0,0,0,0,0,0,0,0,0,0,0,0,0,0,0,0,0,0,0,0,0,0,0,0,0,0,0,0,0,0,0,0,0,0,0,0,0,0,0,0,0,0,0,0,0,0,0,0,0,0,0,0,0,0,0,0,0,0,0,0,0,0,0,0,0,0,0,0,0,0,0,0,0,0,0,0,0,0,0,0,0,0,0,0,0,0,0,0,0,0,0,0,0,0,0,0,0,0,0,0,0,0,0,0,0,0,0,0,0,0,0,0,0,0,0,0,0,0,0,0,0,0,0,0,0,0,0,0,0,0,0,0,0,0,0,0,0,0,0,0,0,0,0,0,0,0,0,0,0,0,0,0,0,0,0,0,0,0,0,0,0,0,0,0,0,0,0,0,0,0,0,0,0,0,0,0,0,0,0,0,0,0,0,0,0,0,0,0,0,0,0,0,0,0,0,0,0,0,0,0,0,0,0,0,0,0,0,0,0,0,0,0,0,0,0,0,0,0,0,0,0,0,0,0,0,0,0,0,0,0,0,0,0,0,0,0,0,0,0,0,0,0,0,0,0,0,0,0,0,0,0,0,0,0,0,0,0,0,0,0,0,0,0,0,0,0,0,0,0,0,0,0,0,0,0,0,0,0,0,0,0,0,0,0,0,0,0,0,0,0,0,0,0,0,0,0,0,0,0,0,0,0,0,0,0,0,0,0,0,0,0,0,0,0,0,0,0,0,0,0,0,0,0,0,0,0,0,0,0,0,0,0,0,0,0,0,0,0,0,0,0,0,0,0,0,0,0,0,0,0,0,0,0,0,0,0,0,0,0,0,0,0,0,0,0,0,0,0,0,0,0,0,0,0,0,0,0,0,0,0,0,0,0,0,0,0,0,0,0,0,0,0,0,0,0,0,0,0,0,0,0,0,0,0,0,0,0,0,0,0,0,0,0,0,0,0,0,0,0,0,0,0,0,0,0,0,0,0,0,0,0,0,0,0,0,0,0,0,0,0,0,0,0,0,0,0,0,0,0,0,0,0,0,0,0,0,0,0,0,0,0,0,0,0,0,0,0,0,0,0,0,0,0,0,0,0,0,0,0,0,0,0,0,0,0,0,0,0,0,0,0,0,0,0,0,0,0,0,0,0,0,0,0,0,0,0,0,0,0,0,0,0,0,0,0,0,0,0,0,0,0,0,0,0,0,0,0,0,0,0,0,0,0,0,0,0,0,0,0,0,0,0,0,0,0,0,0,0,0,0,0,0,0,0,0,0,0,0,0,0,0,0,0,0,0,0,0,0,0,0,0,0,0,0,0,0,0,0,0,0,0,0,0,0,0,0,0,0,0,0,0,0,0,0,0,0,0,0,0,0,0,0,0,0,0,0,0,0,0,0,0,0,0,0,0,0,0,0,0,0,0,0,0,0,0,0,0,0,0,0,0,0,0,0,0,0,0,0,0,0,0,0,0,0,0,0,0,0,0,0,0,0,0,0,0,0,0,0,0,0,0,0,0,0,0,0,0,0,0,0,0,0,0,0,0,0,0,0,0,0,0,0,0,0,0,0,0,0,0,0,0,0,0,0,0,0,0,0,0,0,0,0,0,0,0,0,0,0,0,0,0,0,0,0,0,0,0,0,0,0,0,0,0,0,0,0,0,0,0,0,0,0,0,0,0,0,0,0,0,0,0,0,0,0,0,0,0,0,0,0,0,0,0,0,0,0,0,0,0,0,0,0,0,0,0,0,0,0,0,0,0,0,0,0,0,0,0,0,0,0,0,0,0,0,0,0,0,0,0,0,0,0,0,0,0,0,0,0,0,0,0,0,0,0,0,0,0,0,0,0,0,0,0,0,0,0,0,0,0,0,0,0,0,0,0,0,0,0,0,0,0,0,0,0,0,0,0,0,0,0,0,0,0,0,0,0,0,0,0,0,0,0,0,0,0,0,0,0,0,0,0,0,0,0,0,0,0,0,0,0,0,0,0,0,0,0,0,0,0,0,0,0,0,0,0,0,0,0,0,0,0,0,0,0,0,0,0,0,0,0,0,0,0,0,0,0,0,0,0,0,0,0,0,0,0,0,0,0,0,0,0,0,0,0,0,0,0,0,0,0,0,0,0,0,0,0,0,0,0,0,0,0,0,0,0,0,0,0,0,0,0,0,0,0,0,0,0,0,0,0,0,0,0,0,0,0,0,0,0,0,0,0,0,0,0,0,0,0,0,0,0,0,0,0,0,0,0,0,0,0,0,0,0,0,0,0,0,0,0,0,0,0,0,0,0,0,0,0,0,0,0,0,0,0,0,0,0,0,0,0,0,0,0,0,0,0,0,0,0,0,0,0,0,0,0,0,0,0,0,0,0,0,0,0,0,0,0,0,0,0,0,0,0,0,0,0,0,0,0,0,0,0,0,0,0,0,0,0,0,0,0,0,0,0,0,0,0,0,0,0,0,0,0,0,0,0,0,0,0,0,0,0,0,0,0,0,0,0,0,0,0,0,0,0,0,0,0,0,0,0,0,0,0,0,0,0,0,0,0,0,0,0,0,0,0,0,0,0,0,0,0,0,0,0,0,0,0,0,0,0,0,0,0,0,0,0,0,0,0,0,0,0,0,0,0,0,0,0,0,0,0,0,0,0,0,0,0,0,0,0,0,0,0,0,0,0,0,0,0,0,0,0,0,0,0,0,0,0,0,0,0,0,0,0,0,0,0,0,0,0,0,0,0,0,0,0,0,0,0,0,0,0,0,0,0,0,0,0,0,0,0,0,0,0,0,0,0,0,0,0,0,0,0,0,0,0,0,0,0,0,0,0,0,0,0,0,0,0,0,0,0,0,0,0,0,0,0,0,0,0,0,0,0,0,0,0,0,0,0,0,0,0,0,0,0,0,0,0,0,0,0,0,0,0,0,0,0,0,0,0,0,0,0,0,0,0,0,0,0,0,0,0,0,0,0,0,0,0,0,0,0,0,0,0,0,0,0,0,0,0,0,0,0,0,0,0,0,0,0,0,0,0,0,0,0,0,0,0,0,0,0,0,0,0,0,0,0,0,0,0,0,0,0,0,0,0,0,0,0,0,0,0,0,0,0,0,0,0,0,0,0,0,0,0,0,0,0,0,0,0,0,0,0,0,0,0,0,0,0,0,0,0,0,0,0,0,0,0,0,0,0,0,0,0,0,0,0,0,0,0,0,0,0,0,0,0,0,0,0,0,0,0,0,0,0,0,0,0,0,0,0,0,0,0,0,0,0,0,0,0,0,0,0,0,0,0,0,0,0,0,0,0,0,0,0,0,0,0,0,0,0,0,0,0,0,0,0,0,0,0,0,0,0,0,0,0,0,0,0,0,0,0,0,0,0,0,0,0,0,0,0,0,0,0,0,0,0,0,0,0,0,0,0,0,0,0,0,0,0,0,0,0,0,0,0,0,0,0,0,0,0,0,0,0,0,0,0,0,0,0,0,0,0,0,0,0,0,0,0,0,0,0,0,0,0,0,0,0,0,0,0,0,0,0,0,0,0,0,0,0,0,0,0,0,0,0,0,0,0,0,0,0,0,0,0,0,0,0,0,0,0,0,0,0,0,0,0,0,0,0,0,0,0,0,0,0,0,0,0,0,0,0,0,0,0,0,0,0,0,0,0,0,0,0,0,0,0,0,0,0,0,0,0,0,0,0,0,0,0,0,0,0,0,0,0,0,0,0,0,0,0,0,0,0,0,0,0,0,0,0,0,0,0,0,0,0,0,0,0,0,0,0,0,0,0,0,0,0,0,0,0,0,0,0,0,0,0,0,0,0,0,0,0,0,0,0,0,0,0,0,0,0,0,0,0,0,0,0,0,0,0,0,0,0,0,0,0,0,0,0,0,0,0,0,0,0,0,0,0,0,0,0,0,0,0,0,0,0,0,0,0,0,0,0,0,0,0,0,0,0,0,0,0,0,0,0,0,0,0,0,0,0,0,0,0,0,0,0,0,0,0,0,0,0,0,0,0,0,0,0,0,0,0,0,0,0,0,0,0,0,0,0,0,0,0,0,0,0,0,0,0,0,0,0,0,0,0,0,0,0,0,0,0,0,0,0,0,0,0,0,0,0,0,0,0,0,0,0,0,0,0,0,0,0,0,0,0,0,0,0,0,0,0,0,0,0,0,0,0,0,0,0,0,0,0,0,0,0,0,0,0,0,0,0,0,0,0,0,0,0,0,0,0,0,0,0,0,0,0,0,0,0,0,0,0,0,0,0,0,0,0,0,0,0,0,0,0,0,0,0,0,0,0,0,0,0,0,0,0,0,0,0,0,0,0,0,0,0,0,0,0,0,0,0,0,0,0,0,0,0,0,0,0,0,0,0,0,0,0,0,0,0,0,0,0,0,0,0,0,0,0,0,0,0,0,0,0,0,0,0,0,0,0,0,0,0,0,0,0,0,0,0,0,0,0,0,0,0,0,0,0,0,0,0,0,0,0,0,0,0,0,0,0,0,0,0,0,0,0,0,0,0,0,0,0,0,0,0,0,0,0,0,0,0,0,0,0,0,0,0,0,0,0,0,0,0,0,0,0,0,0,0,0,0,0,0,0,0,0,0,0,0,0,0,0,0,0,0,0,0,0,0,0,0,0,0,0,0,0,0,0,0,0,0,0,0,0,0,0,0,0,0,0,0,0,0,0,0,0,0,0,0,0,0,0,0,0,0,0,0,0,0,0,0,0,0,0,0,0,0,0,0,0,0,0,0,0,0,0,0,0,0,0,0,0,0,0,0,0,0,0,0,0,0,0,0,0,0,0,0,0,0,0,0,0,0,0,0,0,0,0,0,0,0,0,0,0,0,0,0,0,0,0,0,0,0,0,0,0,0,0,0,0,0,0,0,0,0,0,0,0,0,0,0,0,0,0,0,0,0,0,0,0,0,0,0,0,0,0,0,0,0,0,0,0,0,0,0,0,0,0,0,0,0,0,0,0,0,0,0,0,0,0,0,0,0,0,0,0,0,0,0,0,0,0,0,0,0,0,0,0,0,0,0,0,0,0,0,0,0,0,0,0,0,0,0,0,0,0,0,0,0,0,0,0,0,0,0,0,0,0,0,0,0,0,0,0,0,0,0,0,0,0,0,0,0,0,0,0,0,0,0,0,0,0,0,0,0,0,0,0,0,0,0,0,0,0,0,0,0,0,0,0,0,0,0,0,0,0,0,0,0,0,0,0,0,0,0,0,0,0,0,0,0,0,0,0,0,0,0,0,0,0,0,0,0,0,0,0,0,0,0,0,0,0,0,0,0,0,0,0,0,0,0,0,0,0,0,0,0,0,0,0,0,0,0,0,0,0,0,0,0,0,0,0,0,0,0,0,0,0,0,0,0,0,0,0,0,0,0,0,0,0,0,0,0,0,0,0,0,0,0,0,0,0,0,0,0,0,0,0,0,0,0,0,0,0,0,0,0,0,0,0,0,0,0,0,0,0,0,0,0,0,0,0,0,0,0,0,0,0,0,0,0,0,0,0,0,0,0,0,0,0,0,0,0,0,0,0,0,0,0,0,0,0,0,0,0,0,0,0,0,0,0,0,0,0,0,0,0,0,0,0,0,0,0,0,0,0,0,0,0,0,0,0,0,0,0,0,0,0,0,0,0,0,0,0,0,0,0,0,0,0,0,0,0,0,0,0,0,0,0,0,0,0,0,0,0,0,0,0,0,0,0,0,0,0,0,0,0,0,0,0,0,0,0,0,0,0,0,0,0,0,0,0,0,0,0,0,0,0,0,0,0,0,0,0,0,0,0,0,0,0,0,0,0,0,0,0,0,0,0,0,0,0,0,0,0,0,0,0,0,0,0,0,0,0,0,0,0,0,0,0,0,0,0,0,0,0,0,0,0,0,0,0,0,0,0,0,0,0,0,0,0,0,0,0,0,0,0,0,0,0,0,0,0,0,0,0,0,0,0,0,0,0,0,0,0,0,0,0,0,0,0,0,0,0,0,0,0,0,0,0,0,0,0,0,0,0,0,0,0,0,0,0,0,0,0,0,0,0,0,0,0,0,0,0,0,0,0,0,0,0,0,0,0,0,0,0,0,0,0,0,0,0,0,0,0,0,0,0,0,0,0,0,0,0,0,0,0,0,0,0,0,0,0,0,0,0,0,0,0,0,0,0,0,0,0,0,0,0,0,0,0,0,0,0,0,0,0,0,0,0,0,0,0,0,0,0,0,0,0,0,0,0,0,0,0,0,0,0,0,0,0,0,0,0,0,0,0,0,0,0,0,0,0,0,0,0,0,0,0,0,0,0,0,0,0,0,0,0,0,0,0,0,0,0,0,0,0,0,0,0,0,0,0,0,0,0,0,0,0,0,0,0,0,0,0,0,0,0,0,0,0,0,0,0,0,0,0,0,0,0,0,0,0,0,0,0,0,0,0,0,0,0,0,0,0,0,0,0,0,0,0,0,0,0,0,0,0,0,0,0,0,0,0,0,0,0,0,0,0,0,0,0,0,0,0,0,0,0,0,0,0,0,0,0,0,0,0,0,0,0,0,0,0,0,0,0,0,0,0,0,0,0,0,0,0,0,0,0,0,0,0,0,0,0,0,0,0,0,0,0,0,0,0,0,0,0,0,0,0,0,0,0,0,0,0,0,0,0,0,0,0,0,0,0,0,0,0,0,0,0,0,0,0,0,0,0,0,0,0,0,0,0,0,0,0,0,0,0,0,0,0,0,0,0,0,0,0,0,0,0,0,0,0,0,0,0,0,0,0,0,0,0,0,0,0,0,0,0,0,0,0,0,0,0,0,0,0,0,0,0,0,0,0,0,0,0,0,0,0,0,0,0,0,0,0,0,0,0,0,0,0,0,0,0,0,0,0,0,0,0,0,0,0,0,0,0,0,0,0,0,0,0,0,0,0,0,0,0,0,0,0,0,0,0,0,0,0,0,0,0,0,0,0,0,0,0,0,0,0,0,0,0,0,0,0,0,0,0,0,0,0,0,0,0,0,0,0,0,0,0,0,0,0,0,0,0,0,0,0,0,0,0,0,0,0,0,0,0,0,0,0,0,0,0,0,0,0,0,0,0,0,0,0,0,0,0,0,0,0,0,0,0,0,0,0,0,0,0,0,0,0,0,0,0,0,0,0,0,0,0,0,0,0,0,0,0,0,0,0,0,0,0,0,0,0,0,0,0,0,0,0,0,0,0,0,0,0,0,0,0,0,0,0,0,0,0,0,0,0,0,0,0,0,0,0,0,0,0,0,0,0,0,0,0,0,0,0,0,0,0,0,0,0,0,0,0,0,0,0,0,0,0,0,0,0,0,0,0,0,0,0,0,0,0,0,0,0,0,0,0,0,0,0,0,0,0,0,0,0,0,0,0,0,0,0,0,0,0,0,0,0,0,0,0,0,0,0,0,0,0,0,0,0,0,0,0,0,0,0,0,0,0,0,0,0,0,0,0,0,0,0,0,0,0,0,0,0,0,0,0,0,0,0,0,0,0,0,0,0,0,0,0,0,0,0,0,0,0,0,0,0,0,0,0,0,0,0,0,0,0,0,0,0,0,0,0,0,0,0,0,0,0,0,0,0,0,0,0,0,0,0,0,0,0,0,0,0,0,0,0,0,0,0,0,0,0,0,0,0,0,0,0,0,0,0,0,0,0,0,0,0,0,0,0,0,0,0,0,0,0,0,0,0,0,0,0,0,0,0,0,0,0,0,0,0,0,0,0,0,0,0,0,0,0,0,0,0,0,0,0,0,0,0,0,0,0,0,0,0,0,0,0,0,0,0,0,0,0,0,0,0,0,0,0,0,0,0,0,0,0,0,0,0,0,0,0,0,0,0,0,0,0,0,0,0,0,0,0,0,0,0,0,0,0,0,0,0,0,0,0,0,0,0,0,0,0,0,0,0,0,0,0,0,0,0,0,0,0,0,0,0,0,0,0,0,0,0,0,0,0,0,0,0,0,0,0,0,0,0,0,0,0,0,0,0,0,0,0,0,0,0,0,0,0,0,0,0,0,0,0,0,0,0,0,0,0,0,0,0,0,0,0,0,0,0,0,0,0,0,0,0,0,0,0,0,0,0,0,0,0,0,0,0,0,0,0,0,0,0,0,0,0,0,0,0,0,0,0,0,0,0,0,0,0,0,0,0,0,0,0,0,0,0,0,0,0,0,0,0,0,0,0,0,0,0,0,0,0,0,0,0,0,0,0,0,0,0,0,0,0,0,0,0,0,0,0,0,0,0,0,0,0,0,0,0,0,0,0,0,0,0,0,0,0,0,0,0,0,0,0,0,0,0,0,0,0,0,0,0,0,0,0,0,0,0,0,0,0,0,0,0,0,0,0,0,0,0,0,0,0,0,0,0,0,0,0,0,0,0,0,0,0,0,0,0,0,0,0,0,0,0,0,0,0,0,0,0,0,0,0,0,0,0,0,0,0,0,0,0,0,0,0,0,0,0,0,0,0,0,0,0,0,0,0,0,0,0,0,0,0,0,0,0,0,0,0,0,0,0,0,0,0,0,0,0,0,0,0,0,0,0,0,0,0,0,0,0,0,0,0,0,0,0,0,0,0,0,0,0,0,0,0,0,0,0,0,0,0,0,0,0,0,0,0,0,0,0,0,0,0,0,0,0,0,0,0,0,0,0,0,0,0,0,0,0,0,0,0,0,0,0,0,0,0,0,0,0,0,0,0,0,0,0,0,0,0,0,0,0,0,0,0,0,0,0,0,0,0,0,0,0,0,0,0,0,0,0,0,0,0,0,0,0,0,0,0,0,0,0,0,0,0,0,0,0,0,0,0,0,0,0,0,0,0,0,0,0,0,0,0,0,0,0,0,0,0,0,0,0,0,0,0,0,0,0,0,0,0,0,0,0,0,0,0,0,0,0,0,0,0,0,0,0,0,0,0,0,0,0,0,0,0,0,0,0,0,0,0,0,0,0,0,0,0,0,0,0,0,0,0,0,0,0,0,0,0,0,0,0,0,0,0,0,0,0,0,0,0,0,0,0,0,0,0,0,0,0,0,0,0,0,0,0,0,0,0,0,0,0,0,0,0,0,0,0,0,0,0,0,0,0,0,0,0,0,0,0,0,0,0,0,0,0,0,0,0,0,0,0,0,0,0,0,0,0,0,0,0,0,0,0,0,0,0,0,0,0,0,0,0,0,0,0,0,0,0,0,0,0,0,0,0,0,0,0,0,0,0,0,0,0,0,0,0,0,0,0,0,0,0,0,0,0,0,0,0,0,0,0,0,0,0,0,0,0,0,0,0,0,0,0,0,0,0,0,0,0,0,0,0,0,0,0,0,0,0,0,0,0,0,0,0,0,0,0,0,0,0,0,0,0,0,0,0,0,0,0,0,0,0,0,0,0,0,0,0,0,0,0,0,0,0,0,0,0,0,0,0,0,0,0,0,0,0,0,0,0,0,0,0,0,0,0,0,0,0,0,0,0,0,0,0,0,0,0,0,0,0,0,0,0,0,0,0,0,0,0,0,0,0,0,0,0,0,0,0,0,0,0,0,0,0,0,0,0,0,0,0,0,0,0,0,0,0,0,0,0,0,0,0,0,0,0,0,0,0,0,0,0,0,0,0,0,0,0,0,0,0,0,0,0,0,0,0,0,0,0,0,0,0,0,0,0,0,0,0,0,0,0,0,0,0,0,0,0,0,0,0,0,0,0,0,0,0,0,0,0,0,0,0,0,0,0,0,0,0,0,0,0,0,0,0,0,0,0,0,0,0,0,0,0,0,0,0,0,0,0,0,0,0,0,0,0,0,0,0,0,0,0,0,0,0,0,0,0,0,0,0,0,0,0,0,0,0,0,0,0,0,0,0,0,0,0,0,0,0,0,0,0,0,0,0,0,0,0,0,0,0,0,0,0,0,0,0,0,0,0,0,0,0,0,0,0,0,0,0,0,0,0,0,0,0,0,0,0,0,0,0,0,0,0,0,0,0,0,0,0,0,0,0,0,0,0,0,0,0,0,0,0,0,0,0,0,0,0,0,0,0,0,0,0,0,0,0,0,0,0,0,0,0,0,0,0,0,0,0,0,0,0,0,0,0,0,0,0,0,0,0,0,0,0,0,0,0,0,0,0,0,0,0,0,0,0,0,0,0,0,0,0,0,0,0,0,0,0,0,0,0,0,0,0,0,0,0,0,0,0,0,0,0,0,0,0,0,0,0,0,0,0,0,0,0,0,0,0,0,0,0,0,0,0,0,0,0,0,0,0,0,0,0,0,0,0,0,0,0,0,0,0,0,0,0,0,0,0,0,0,0,0,0,0,0,0,0,0,0,0,0,0,0,0,0,0,0,0,0,0,0,0,0,0,0,0,0,0,0,0,0,0,0,0,0,0,0,0,0,0,0,0,0,0,0,0,0,0,0,0,0,0,0,0,0,0,0,0,0,0,0,0,0,0,0,0,0,0,0,0,0,0,0,0,0,0,0,0,0,0,0,0,0,0,0,0,0,0,0,0,0,0,0,0,0,0,0,0,0,0,0,0,0,0,0,0,0,0,0,0,0,0,0,0,0,0,0,0,0,0,0,0,0,0,0,0,0,0,0,0,0,0,0,0,0,0,0,0,0,0,0,0,0,0,0,0,0,0,0,0,0,0,0,0,0,0,0,0,0,0,0,0,0,0,0,0,0,0,0,0,0,0,0,0,0,0,0,0,0,0,0,0,0,0,0,0,0,0,0,0,0,0,0,0,0,0,0,0,0,0,0,0,0,0,0,0,0,0,0,0,0,0,0,0,0,0,0,0,0,0,0,0,0,0,0,0,0,0,0,0,0,0,0,0,0,0,0,0,0,0,0,0,0,0,0,0,0,0,0,0,0,0,0,0,0,0,0,0,0,0,0,0,0,0,0,0,0,0,0,0,0,0,0,0,0,0,0,0,0,0,0,0,0,0,0,0,0,0,0,0,0,0,0,0,0,0,0,0,0,0,0,0,0,0,0,0,0,0,0,0,0,0,0,0,0,0,0,0,0,0,0,0,0,0,0,0,0,0,0,0,0,0,0,0,0,0,0,0,0,0,0,0,0,0,0,0,0,0,0,0,0,0,0,0,0,0,0,0,0,0,0,0,0,0,0,0,0,0,0,0,0,0,0,0,0,0,0,0,0,0,0,0,0,0,0,0,0,0,0,0,0,0,0,0,0,0,0,0,0,0,0,0,0,0,0,0,0,0,0,0,0,0,0,0,0,0,0,0,0,0,0,0,0,0,0,0,0,0,0,0,0,0,0,0,0,0,0,0,0,0,0,0,0,0,0,0,0,0,0,0,0,0,0,0,0,0,0,0,0,0,0,0,0,0,0,0,0,0,0,0,0,0,0,0,0,0,0,0,0,0,0,0,0,0,0,0,0,0,0,0,0,0,0,0,0,0,0,0,0,0,0,0,0,0,0,0,0,0,0,0,0,0,0,0,0,0,0,0,0,0,0,0,0,0,0,0,0,0,0,0,0,0,0,0,0,0,0,0,0,0,0,0,0,0,0,0,0,0,0,0,0,0,0,0,0,0,0,0,0,0,0,0,0,0,0,0,0,0,0,0,0,0,0,0,0,0,0,0,0,0,0,0,0,0,0,0,0,0,0,0,0,0,0,0,0,0,0,0,0,0,0,0,0,0,0,0,0,0,0,0,0,0,0,0,0,0,0,0,0,0,0,0,0,0,0,0,0,0,0,0,0,0,0,0,0,0,0,0,0,0,0,0,0,0,0,0,0,0,0,0,0,0,0,0,0,0,0,0,0,0,0,0,0,0,0,0,0,0,0,0,0,0,0,0,0,0,0,0,0,0,0,0,0,0,0,0,0,0,0,0,0,0,0,0,0,0,0,0,0,0,0,0,0,0,0,0,0,0,0,0,0,0,0,0,0,0,0,0,0,0,0,0,0,0,0,0,0,0,0,0,0,0,0,0,0,0,0,0,0,0,0,0,0,0,0,0,0,0,0,0,0,0,0,0,0,0,0,0,0,0,0,0,0,0,0,0,0,0,0,0,0,0,0,0,0,0,0,0,0,0,0,0,0,0,0,0,0,0,0,0,0,0,0,0,0,0,0,0,0,0,0,0,0,0,0,0,0,0,0,0,0,0,0,0,0,0,0,0,0,0,0,0,0,0,0,0,0,0,0,0,0,0,0,0,0,0,0,0,0,0,0,0,0,0,0,0,0,0,0,0,0,0,0,0,0,0,0,0,0,0,0,0,0,0,0,0,0,0,0,0,0,0,0,0,0,0,0,0,0,0,0,0,0,0,0,0,0,0,0,0,0,0,0,0,0,0,0,0,0,0,0,0,0,0,0,0,0,0,0,0,0,0,0,0,0,0,0,0,0,0,0,0,0,0,0,0,0,0,0,0,0,0,0,0,0,0,0,0,0,0,0,0,0,0,0,0,0,0,0,0,0,0,0,0,0,0,0,0,0,0,0,0,0,0,0,0,0,0,0,0,0,0,0,0,0,0,0,0,0,0,0,0,0,0,0,0,0,0,0,0,0,0,0,0,0,0,0,0,0,0,0,0,0,0,0,0,0,0,0,0,0,0,0,0,0,0,0,0,0,0,0,0,0,0,0,0,0,0,0,0,0,0,0,0,0,0,0,0,0,0,0,0,0,0,0,0,0,0,0,0,0,0,0,0,0,0,0,0,0,0,0,0,0,0,0,0,0,0,0,0,0,0,0,0,0,0,0,0,0,0,0,0,0,0,0,0,0,0,0,0,0,0,0,0,0,0,0,0,0,0,0,0,0,0,0,0,0,0,0,0,0,0,0,0,0,0,0,0,0,0,0,0,0,0,0,0,0,0,0,0,0,0,0,0,0,0,0,0,0,0,0,0,0,0,0,0,0,0,0,0,0,0,0,0,0,0,0,0,0,0,0,0,0,0,0,0,0,0,0,0,0,0,0,0,0,0,0,0,0,0,0,0,0,0,0,0,0,0,0,0,0,0,0,0,0,0,0,0,0,0,0,0,0,0,0,0,0,0,0,0,0,0,0,0,0,0,0,0,0,0,0,0,0,0,0,0,0,0,0,0,0,0,0,0,0,0,0,0,0,0,0,0,0,0,0,0,0,0,0,0,0,0,0,0,0,0,0,0,0,0,0,0,0,0,0,0,0,0,0,0,0,0,0,0,0,0,0,0,0,0,0,0,0,0,0,0,0,0,0,0,0,0,0,0,0,0,0,0,0,0,0,0,0,0,0,0,0,0,0,0,0,0,0,0,0,0,0,0,0,0,0,0,0,0,0,0,0,0,0,0,0,0,0,0,0,0,0,0,0,0,0,0,0,0,0,0,0,0,0,0,0,0,0,0,0,0,0,0,0,0,0,0,0,0,0,0,0,0,0,0,0,0,0,0,0,0,0,0,0,0,0,0,0,0,0,0,0,0,0,0,0,0,0,0,0,0,0,0,0,0,0,0,0,0,0,0,0,0,0,0,0,0,0,0,0,0,0,0,0,0,0,0,0,0,0,0,0,0,0,0,0,0,0,0,0,0,0,0,0,0,0,0,0,0,0,0,0,0,0,0,0,0,0,0,0,0,0,0,0,0,0,0,0,0,0,0,0,0,0,0,0,0,0,0,0,0,0,0,0,0,0,0,0,0,0,0,0,0,0,0,0,0,0,0,0,0,0,0,0,0,0,0,0,0,0,0,0,0,0,0,0,0,0,0,0,0,0,0,0,0,0,0,0,0,0,0,0,0,0,0,0,0,0,0,0,0,0,0,0,0,0,0,0,0,0,0,0,0,0,0,0,0,0,0,0,0,0,0,0,0,0,0,0,0,0,0,0,0,0,0,0,0,0,0,0,0,0,0,0,0,0,0,0,0,0,0,0,0,0,0,0,0,0,0,0,0,0,0,0,0,0,0,0,0,0,0,0,0,0,0,0,0,0,0,0,0,0,0,0,0,0,0,0,0,0,0,0,0,0,0,0,0,0,0,0,0,0,0,0,0,0,0,0,0,0,0,0,0,0,0,0,0,0,0,0,0,0,0,0,0,0,0,0,0,0,0,0,0,0,0,0,0,0,0,0,0,0,0,0,0,0,0,0,0,0,0,0,0,0,0,0,0,0,0,0,0,0,0,0,0,0,0,0,0,0,0,0,0,0,0,0,0,0,0,0,0,0,0,0,0,0,0,0,0,0,0,0,0,0,0,0,0,0,0,0,0,0,0,0,0,0,0,0,0,0,0,0,0,0,0,0,0,0,0,0,0,0,0,0,0,0,0,0,0,0,0,0,0,0,0,0,0,0,0,0,0,0,0,0,0,0,0,0,0,0,0,0,0,0,0,0,0,0,0,0,0,0,0,0,0,0,0,0,0,0,0,0,0,0,0,0,0,0,0,0,0,0,0,0,0,0,0,0,0,0,0,0,0,0,0,0,0,0,0,0,0,0,0,0,0,0,0,0,0,0,0,0,0,0,0,0,0,0,0,0,0,0,0,0,0,0,0,0,0,0,0,0,0,0,0,0,0,0,0,0,0,0,0,0,0,0,0,0,0,0,0,0,0,0,0,0,0,0,0,0,0,0,0,0,0,0,0,0,0,0,0,0,0,0,0,0,0,0,0,0,0,0,0,0,0,0,0,0,0,0,0,0,0,0,0,0,0,0,0,0,0,0,0,0,0,0,0,0,0,0,0,0,0,0,0,0,0,0,0,0,0,0,0,0,0,0,0,0,0,0,0,0,0,0,0,0,0,0,0,0,0,0,0,0,0,0,0,0,0,0,0,0,0,0,0,0,0,0,0,0,0,0,0,0,0,0,0,0,0,0,0,0,0,0,0,0,0,0,0,0,0,0,0,0,0,0,0,0,0,0,0,0,0,0,0,0,0,0,0,0,0,0,0,0,0,0,0,0,0,0,0,0,0,0,0,0,0,0,0,0,0,0,0,0,0,0,0,0,0,0,0,0,0,0,0,0,0,0,0,0,0,0,0,0,0,0,0,0,0,0,0,0,0,0,0,0,0,0,0,0,0,0,0,0,0,0,0,0,0,0,0,0,0,0,0,0,0,0,0,0,0,0,0,0,0,0,0,0,0,0,0,0,0,0,0,0,0,0,0,0,0,0,0,0,0,0,0,0,0,0,0,0,0,0,0,0,0,0,0,0,0,0,0,0,0,0,0,0,0,0,0,0,0,0,0,0,0,0,0,0,0,0,0,0,0,0,0,0,0,0,0,0,0,0,0,0,0,0,0,0,0,0,0,0,0,0,0,0,0,0,0,0,0,0,0,0,0,0,0,0,0,0,0,0,0,0,0,0,0,0,0,0,0,0,0,0,0,0,0,0,0,0,0,0,0,0,0,0,0,0,0,0,0,0,0,0,0,0,0,0,0,0,0,0,0,0,0,0,0,0,0,0,0,0,0,0,0,0,0,0,0,0,0,0,0,0,0,0,0,0,0,0,0,0,0,0,0,0,0,0,0,0,0,0,0,0,0,0,0,0,0,0,0,0,0,0,0,0,0,0,0,0,0,0,0,0,0,0,0,0,0,0,0,0,0,0,0,0,0,0,0,0,0,0,0,0,0,0,0,0,0,0,0,0,0,0,0,0,0,0,0,0,0,0,0,0,0,0,0,0,0,0,0,0,0,0,0,0,0,0,0,0,0,0,0,0,0,0,0,0,0,0,0,0,0,0,0,0,0,0,0,0,0,0,0,0,0,0,0,0,0,0,0,0,0,0,0,0,0,0,0,0,0,0,0,0,0,0,0,0,0,0,0,0,0,0,0,0,0,0,0,0,0,0,0,0,0,0,0,0,0,0,0,0,0,0,0,0,0,0,0,0,0,0,0,0,0,0,0,0,0,0,0,0,0,0,0,0,0,0,0,0,0,0,0,0,0,0,0,0,0,0,0,0,0,0,0,0,0,0,0,0,0,0,0,0,0,0,0,0,0,0,0,0,0,0,0,0,0,0,0,0,0,0,0,0,0,0,0,0,0,0,0,0,0,0,0,0,0,0,0,0,0,0,0,0,0,0,0,0,0,0,0,0,0,0,0,0,0,0,0,0,0,0,0,0,0,0,0,0,0,0,0,0,0,0,0,0,0,0,0,0,0,0,0,0,0,0,0,0,0,0,0,0,0,0,0,0,0,0,0,0,0,0,0,0,0,0,0,0,0,0,0,0,0,0,0,0,0,0,0,0,0,0,0,0,0,0,0,0,0,0,0,0,0,0,0,0,0,0,0,0,0,0,0,0,0,0,0,0,0,0,0,0,0,0,0,0,0,0,0,0,0,0,0,0,0,0,0,0,0,0,0,0,0,0,0,0,0,0,0,0,0,0,0,0,0,0,0,0,0,0,0,0,0,0,0,0,0,0,0,0,0,0,0,0,0,0,0,0,0,0,0,0,0,0,0,0,0,0,0,0,0,0,0,0,0,0,0,0,0,0,0,0,0,0,0,0,0,0,0,0,0,0,0,0,0,0,0,0,0,0,0,0,0,0,0,0,0,0,0,0,0,0,0,0,0,0,0,0,0,0,0,0,0,0,0,0,0,0,0,0,0,0,0,0,0,0,0,0,0,0,0,0,0,0,0,0,0,0,0,0,0,0,0,0,0,0,0,0,0,0,0,0,0,0,0,0,0,0,0,0,0,0,0,0,0,0,0,0,0,0,0,0,0,0,0,0,0,0,0,0,0,0,0,0,0,0,0,0,0,0,0,0,0,0,0,0,0,0,0,0,0,0,0,0,0,0,0,0,0,0,0,0,0,0,0,0,0,0,0,0,0,0,0,0,0,0,0,0,0,0,0,0,0,0,0,0,0,0,0,0,0,0,0,0,0,0,0,0,0,0,0,0,0,0,0,0,0,0,0,0,0,0,0,0,0,0,0,0,0,0,0,0,0,0,0,0,0,0,0,0,0,0,0,0,0,0,0,0,0,0,0,0,0,0,0,0,0,0,0,0,0,0,0,0,0,0,0,0,0,0,0,0,0,0,0,0,0,0,0,0,0,0,0,0,0,0,0,0,0,0,0,0,0,0,0,0,0,0,0,0,0,0,0,0,0,0,0,0,0,0,0,0,0,0,0,0,0,0,0,0,0,0,0,0,0,0,0,0,0,0,0,0,0,0,0,0,0,0,0,0,0,0,0,0,0,0,0,0,0,0,0,0,0,0,0,0,0,0,0,0,0,0,0,0,0,0,0,0,0,0,0,0,0,0,0,0,0,0,0,0,0,0,0,0,0,0,0,0,0,0,0,0,0,0,0,0,0,0,0,0,0,0,0,0,0,0,0,0,0,0,0,0,0,0,0,0,0,0,0,0,0,0,0,0,0,0,0,0,0,0,0,0,0,0,0,0,0,0,0,0,0,0,0,0,0,0,0,0,0,0,0,0,0,0,0,0,0,0,0,0,0,0,0,0,0,0,0,0,0,0,0,0,0,0,0,0,0,0,0,0,0,0,0,0,0,0,0,0,0,0,0,0,0,0,0,0,0,0,0,0,0,0,0,0,0,0,0,0,0,0,0,0,0,0,0,0,0,0,0,0,0,0,0,0,0,0,0,0,0,0,0,0,0,0,0,0,0,0,0,0,0,0,0,0,0,0,0,0,0,0,0,0,0,0,0,0,0,0,0,0,0,0,0,0,0,0,0,0,0,0,0,0,0,0,0,0,0,0,0,0,0,0,0,0,0,0,0,0,0,0,0,0,0,0,0,0,0,0,0,0,0,0,0,0,0,0,0,0,0,0,0,0,0,0,0,0,0,0,0,0,0,0,0,0,0,0,0,0,0,0,0,0,0,0,0,0,0,0,0,0,0,0,0,0,0,0,0,0,0,0,0,0,0,0,0,0,0,0,0,0,0,0,0,0,0,0,0,0,0,0,0,0,0,0,0,0,0,0,0,0,0,0,0,0,0,0,0,0,0,0,0,0,0,0,0,0,0,0,0,0,0,0,0,0,0,0,0,0,0,0,0,0,0,0,0,0,0,0,0,0,0,0,0,0,0,0,0,0,0,0,0,0,0,0,0,0,0,0,0,0,0,0,0,0,0,0,0,0,0,0,0,0,0,0,0,0,0,0,0,0,0,0,0,0,0,0,0,0,0,0,0,0,0,0,0,0,0,0,0,0,0,0,0,0,0,0,0,0,0,0,0,0,0,0,0,0,0,0,0,0,0,0,0,0,0,0,0,0,0,0,0,0,0,0,0,0,0,0,0,0,0,0,0,0,0,0,0,0,0,0,0,0,0,0,0,0,0,0,0,0,0,0,0,0,0,0,0,0,0,0,0,0,0,0,0,0,0,0,0,0,0,0,0,0,0,0,0,0,0,0,0,0,0,0,0,0,0,0,0,0,0,0,0,0,0,0,0,0,0,0,0,0,0,0,0,0,0,0,0,0,0,0,0,0,0,0,0,0,0,0,0,0,0,0,0,0,0,0,0,0,0,0,0,0,0,0,0,0,0,0,0,0,0,0,0,0,0,0,0,0,0,0,0,0,0,0,0,0,0,0,0,0,0,0,0,0,0,0,0,0,0,0,0,0,0,0,0,0,0,0,0,0,0,0,0,0,0,0,0,0,0,0,0,0,0,0,0,0,0,0,0,0,0,0,0,0,0,0,0,0,0,0,0,0,0,0,0,0,0,0,0,0,0,0,0,0,0,0,0,0,0,0,0,0,0,0,0,0,0,0,0,0,0,0,0,0,0,0,0,0,0,0,0,0,0,0,0,0,0,0,0,0,0,0,0,0,0,0,0,0,0,0,0,0,0,0,0,0,0,0,0,0,0,0,0,0,0,0,0,0,0,0,0,0,0,0,0,0,0,0,0,0,0,0,0,0,0,0,0,0,0,0,0,0,0,0,0,0,0,0,0,0,0,0,0,0,0,0,0,0,0,0,0,0,0,0,0,0,0,0,0,0,0,0,0,0,0,0,0,0,0,0,0,0,0,0,0,0,0,0,0,0,0,0,0,0,0,0,0,0,0,0,0,0,0,0,0,0,0,0,0,0,0,0,0,0,0,0,0,0,0,0,0,0,0,0,0,0,0,0,0,0,0,0,0,0,0,0,0,0,0,0,0,0,0,0,0,0,0,0,0,0,0,0,0,0,0,0,0,0,0,0,0,0,0,0,0,0,0,0,0,0,0,0,0,0,0,0,0,0,0,0,0,0,0,0,0,0,0,0,0,0,0,0,0,0,0,0,0,0,0,0,0,0,0,0,0,0,0,0,0,0,0,0,0,0,0,0,0,0,0,0,0,0,0,0,0,0,0,0,0,0,0,0,0,0,0,0,0,0,0,0,0,0,0,0,0,0,0,0,0,0,0,0,0,0,0,0,0,0,0,0,0,0,0,0,0,0,0,0,0,0,0,0,0,0,0,0,0,0,0,0,0,0,0,0,0,0,0,0,0,0,0,0,0,0,0,0,0,0,0,0,0,0,0,0,0,0,0,0,0,0,0,0,0,0,0,0,0,0,0,0,0,0,0,0,0,0,0,0,0,0,0,0,0,0,0,0,0,0,0,0,0,0,0,0,0,0,0,0,0,0,0,0,0,0,0,0,0,0,0,0,0,0,0,0,0,0,0,0,0,0,0,0,0,0,0,0,0,0,0,0,0,0,0,0,0,0,0,0,0,0,0,0,0,0,0,0,0,0,0,0,0,0,0,0,0,0,0,0,0,0,0,0,0,0,0,0,0,0,0,0,0,0,0,0,0,0,0,0,0,0,0,0,0,0,0,0,0,0,0,0,0,0,0,0,0,0,0,0,0,0,0,0,0,0,0,0,0,0,0,0,0,0,0,0,0,0,0,0,0,0,0,0,0,0,0,0,0,0,0,0,0,0,0,0,0,0,0,0,0,0,0,0,0,0,0,0,0,0,0,0,0,0,0,0,0,0,0,0,0,0,0,0,0,0,0,0,0,0,0,0,0,0,0,0,0,0,0,0,0,0,0,0,0,0,0,0,0,0,0,0,0,0,0,0,0,0,0,0,0,0,0,0,0,0,0,0,0,0,0,0,0,0,0,0,0,0,0,0,0,0,0,0,0,0,0,0,0,0,0,0,0,0,0,0,0,0,0,0,0,0,0,0,0,0,0,0,0,0,0,0,0,0,0,0,0,0,0,0,0,0,0,0,0,0,0,0,0,0,0,0,0,0,0,0,0,0,0,0,0,0,0,0,0,0,0,0,0,0,0,0,0,0,0,0,0,0,0,0,0,0,0,0,0,0,0,0,0,0,0,0,0,0,0,0,0,0,0,0,0,0,0,0,0,0,0,0,0,0,0,0,0,0,0,0,0,0,0,0,0,0,0,0,0,0,0,0,0,0,0,0,0,0,0,0,0,0,0,0,0,0,0,0,0,0,0,0,0,0,0,0,0,0,0,0,0,0,0,0,0,0,0,0,0,0,0,0,0,0,0,0,0,0,0,0,0,0,0,0,0,0,0,0,0,0,0,0,0,0,0,0,0,0,0,0,0,0,0,0,0,0,0,0,0,0,0,0,0,0,0,0,0,0,0,0,0,0,0,0,0,0,0,0,0,0,0,0,0,0,0,0,0,0,0,0,0,0,0,0,0,0,0,0,0,0,0,0,0,0,0,0,0,0,0,0,0,0,0,0,0,0,0,0,0,0,0,0,0,0,0,0,0,0,0,0,0,0,0,0,0,0,0,0,0,0,0,0,0,0,0,0,0,0,0,0,0,0,0,0,0,0,0,0,0,0,0,0,0,0,0,0,0,0,0,0,0,0,0,0,0,0,0,0,0,0,0,0,0,0,0,0,0,0,0,0,0,0,0,0,0,0,0,0,0,0,0,0,0,0,0,0,0,0,0,0,0,0,0,0,0,0,0,0,0,0,0,0,0,0,0,0,0,0,0,0,0,0,0,0,0,0,0,0,0,0,0,0,0,0,0,0,0,0,0,0,0,0,0,0,0,0,0,0,0,0,0,0,0,0,0,0,0,0,0,0,0,0,0,0,0,0,0,0,0,0,0,0,0,0,0,0,0,0,0,0,0,0,0,0,0,0,0,0,0,0,0,0,0,0,0,0,0,0,0,0,0,0,0,0,0,0,0,0,0,0,0,0,0,0,0,0,0,0,0,0,0,0,0,0,0,0,0,0,0,0,0,0,0,0,0,0,0,0,0,0,0,0,0,0,0,0,0,0,0,0,0,0,0,0,0,0,0,0,0,0,0,0,0,0,0,0,0,0,0,0,0,0,0,0,0,0,0,0,0,0,0,0,0,0,0,0,0,0,0,0,0,0,0,0,0,0,0,0,0,0,0,0,0,0,0,0,0,0,0,0,0,0,0,0,0,0,0,0,0,0,0,0,0,0,0,0,0,0,0,0,0,0,0,0,0,0,0,0,0,0,0,0,0,0,0,0,0,0,0,0,0,0,0,0,0,0,0,0,0,0,0,0,0,0,0,0,0,0,0,0,0,0,0,0,0,0,0,0,0,0,0,0,0,0,0,0,0,0,0,0,0,0,0,0,0,0,0,0,0,0,0,0,0,0,0,0,0,0,0,0,0,0,0,0,0,0,0,0,0,0,0,0,0,0,0,0,0,0,0,0,0,0,0,0,0,0,0,0,0,0,0,0,0,0,0,0,0,0,0,0,0,0,0,0,0,0,0,0,0,0,0,0,0,0,0,0,0,0,0,0,0,0,0,0,0,0,0,0,0,0,0,0,0,0,0,0,0,0,0,0,0,0,0,0,0,0,0,0,0,0,0,0,0,0,0,0,0,0,0,0,0,0,0,0,0,0,0,0,0,0,0,0,0,0,0,0,0,0,0,0,0,0,0,0,0,0,0,0,0,0,0,0,0,0,0,0,0,0,0,0,0,0,0,0,0,0,0,0,0,0,0,0,0,0,0,0,0,0,0,0,0,0,0,0,0,0,0,0,0,0,0,0,0,0,0,0,0,0,0,0,0,0,0,0,0,0,0,0,0,0,0,0,0,0,0,0,0,0,0,0,0,0,0,0,0,0,0,0,0,0,0,0,0,0,0,0,0,0,0,0,0,0,0,0,0,0,0,0,0,0,0,0,0,0,0,0,0,0,0,0,0,0,0,0,0,0,0,0,0,0,0,0,0,0,0,0,0,0,0,0,0,0,0,0,0,0,0,0,0,0,0,0,0,0,0,0,0,0,0,0,0,0,0,0,0,0,0,0,0,0,0,0,0,0,0,0,0,0,0,0,0,0,0,0,0,0,0,0,0,0,0,0,0,0,0,0,0,0,0,0,0,0,0,0,0,0,0,0,0,0,0,0,0,0,0,0,0,0,0,0,0,0,0,0,0,0,0,0,0,0,0,0,0,0,0,0,0,0,0,0,0,0,0,0,0,0,0,0,0,0,0,0,0,0,0,0,0,0,0,0,0,0,0,0,0,0,0,0,0,0,0,0,0,0,0,0,0,0,0,0,0,0,0,0,0,0,0,0,0,0,0,0,0,0,0,0,0,0,0,0,0,0,0,0,0,0,0,0,0,0,0,0,0,0,0,0,0,0,0,0,0,0,0,0,0,0,0,0,0,0,0,0,0,0,0,0,0,0,0,0,0,0,0,0,0,0,0,0,0,0,0,0,0,0,0,0,0,0,0,0,0,0,0,0,0,0,0,0,0,0,0,0,0,0,0,0,0,0,0,0,0,0,0,0,0,0,0,0,0,0,0,0,0,0,0,0,0,0,0,0,0,0,0,0,0,0,0,0,0,0,0,0,0,0,0,0,0,0,0,0,0,0,0,0,0,0,0,0,0,0,0,0,0,0,0,0,0,0,0,0,0,0,0,0,0,0,0,0,0,0,0,0,0,0,0,0,0,0,0,0,0,0,0,0,0,0,0,0,0,0,0,0,0,0,0,0,0,0,0,0,0,0,0,0,0,0,0,0,0,0,0,0,0,0,0,0,0,0,0,0,0,0,0,0,0,0,0,0,0,0,0,0,0,0,0,0,0,0,0,0,0,0,0,0,0,0,0,0,0,0,0,0,0,0,0,0,0,0,0,0,0,0,0,0,0,0,0,0,0,0,0,0,0,0,0,0,0,0,0,0,0,0,0,0,0,0,0,0,0,0,0,0,0,0,0,0,0,0,0,0,0,0,0,0,0,0,0,0,0,0,0,0,0,0,0,0,0,0,0,0,0,0,0,0,0,0,0,0,0,0,0,0,0,0,0,0,0,0,0,0,0,0,0,0,0,0,0,0,0,0,0,0,0,0,0,0,0,0,0,0,0,0,0,0,0,0,0,0,0,0,0,0,0,0,0,0,0,0,0,0,0,0,0,0,0,0,0,0,0,0,0,0,0,0,0,0,0,0,0,0,0,0,0,0,0,0,0,0,0,0,0,0,0,0,0,0,0,0,0,0,0,0,0,0,0,0,0,0,0,0,0,0,0,0,0,0,0,0,0,0,0,0,0,0,0,0,0,0,0,0,0,0,0,0,0,0,0,0,0,0,0,0,0,0,0,0,0,0,0,0,0,0,0,0,0,0,0,0,0,0,0,0,0,0,0,0,0,0,0,0,0,0,0,0,0,0,0,0,0,0,0,0,0,0,0,0,0,0,0,0,0,0,0,0,0,0,0,0,0,0,0,0,0,0,0,0,0,0,0,0,0,0,0,0,0,0,0,0,0,0,0,0,0,0,0,0,0,0,0,0,0,0,0,0,0,0,0,0,0,0,0,0,0,0,0,0,0,0,0,0,0,0,0,0,0,0,0,0,0,0,0,0,0,0,0,0,0,0,0,0,0,0,0,0,0,0,0,0,0,0,0,0,0,0,0,0,0,0,0,0,0,0,0,0,0,0,0,0,0,0,0,0,0,0,0,0,0,0,0,0,0,0,0,0,0,0,0,0,0,0,0,0,0,0,0,0,0,0,0,0,0,0,0,0,0,0,0,0,0,0,0,0,0,0,0,0,0,0,0,0,0,0,0,0,0,0,0,0,0,0,0,0,0,0,0,0,0,0,0,0,0,0,0,0,0,0,0,0,0,0,0,0,0,0,0,0,0,0,0,0,0,0,0,0,0,0,0,0,0,0,0,0,0,0,0,0,0,0,0,0,0,0,0,0,0,0,0,0,0,0,0,0,0,0,0,0,0,0,0,0,0,0,0,0,0,0,0,0,0,0,0,0,0,0,0,0,0,0,0,0,0,0,0,0,0,0,0,0,0,0,0,0,0,0,0,0,0,0,0,0,0,0,0,0,0,0,0,0,0,0,0,0,0,0,0,0,0,0,0,0,0,0,0,0,0,0,0,0,0,0,0,0,0,0,0,0,0,0,0,0,0,0,0,0,0,0,0,0,0,0,0,0,0,0,0,0,0,0,0,0,0,0,0,0,0,0,0,0,0,0,0,0,0,0,0,0,0,0,0,0,0,0,0,0,0,0,0,0,0,0,0,0,0,0,0,0,0,0,0,0,0,0,0,0,0,0,0,0,0,0,0,0,0,0,0,0,0,0,0,0,0,0,0,0,0,0,0,0,0,0,0,0,0,0,0,0,0,0,0,0,0,0,0,0,0,0,0,0,0,0,0,0,0,0,0,0,0,0,0,0,0,0,0,0,0,0,0,0,0,0,0,0,0,0,0,0,0,0,0,0,0,0,0,0,0,0,0,0,0,0,0,0,0,0,0,0,0,0,0,0,0,0,0,0,0,0,0,0,0,0,0,0,0,0,0,0,0,0,0,0,0,0,0,0,0,0,0,0,0,0,0,0,0,0,0,0,0,0,0,0,0,0,0,0,0,0,0,0,0,0,0,0,0,0,0,0,0,0,0,0,0,0,0,0,10337,10351,10365,10379,10393,10411,10429,10447,0,0,0,0,0,0,0,0,0,0,0,0,0,0,0,0,0,0,0,0,0,0,0,0,0,0,0,0,0,0,0,0,0,0,0,0,0,0,0,0,0,0,0,0,0,0,0,0,0,0,0,0,0,0,0,0,0,0,0,0,0,0,0,0,0,0,0,0,0,0,0,0,0,0,0,0,0,0,0,0,0,0,0,0,0,0,0,0,0,0,0,0,0,0,0,0,0,0,0,0,0,0,0,0,0,0,0,0,0,0,0,0,0,0,0,0,0,0,0,0,0,0,0,0,0,0,0,0,0,0,0,0,0,0,0,0,0,0,0,0,0,0,0,0,0,0,0,0,0,0,0,0,0,0,0,0,0,0,0,0,0,0,0,0,0,0,0,0,0,0,0,0,0,0,0,0,0,0,0,0,0,0,0,0,0,0,0,0,0,0,0,0,0,0,0,0,0,0,0,0,0,0,0,0,0,0,0,0,0,0,0,0,0,0,0,0,0,0,0,0,0,0,0,0,0,0,0,0,0,0,0,0,0,0,0,0,0,0,0,0,0,0,0,0,0,0,0,0,10338,10352,10366,10380,10394,10412,10430,10448,0,0,0,0,0,0,0,0,0,0,0,0,0,0,0,0,0,0,0,0,0,0,0,0,0,0,0,0,0,0,0,0,0,0,0,0,0,0,0,0,0,0,0,0,0,0,0,0,0,0,0,0,0,0,0,0,0,0,0,0,0,0,0,0,0,0,0,0,0,0,0,0,0,0,0,0,0,0,0,0,0,0,0,0,0,0,0,0,0,0,0,0,0,0,0,0,0,0,0,0,0,0,0,0,0,0,0,0,0,0,0,0,0,0,0,0,0,0,0,0,0,0,0,0,0,0,0,0,0,0,0,0,0,0,0,0,0,0,0,0,0,0,0,0,0,0,0,0,0,0,0,0,0,0,0,0,0,0,0,0,0,0,0,0,0,0,0,0,0,0,0,0,0,0,0,0,0,0,0,0,0,0,0,0,0,0,0,0,0,0,0,0,0,0,0,0,0,0,0,0,0,0,0,0,0,0,0,0,0,0,0,0,0,0,0,0,0,0,0,0,0,0,0,0,0,0,0,0,0,0,0,0,0,0,0,0,0,0,0,0,0,0,0,0,0,0,0,0,10339,10353,10367,10381,10395,10413,10431,10449,0,0,0,0,0,0,0,0,0,0,0,0,0,0,0,0,0,0,0,0,0,0,0,0,0,0,0,0,0,0,0,0,0,0,0,0,0,0,0,0,0,0,0,0,0,0,0,0,0,0,0,0,0,0,0,0,0,0,0,0,0,0,0,0,0,0,0,0,0,0,0,0,0,0,0,0,0,0,0,0,0,0,0,0,0,0,0,0,0,0,0,0,0,0,0,0,0,0,0,0,0,0,0,0,0,0,0,0,0,0,0,0,0,0,0,0,0,0,0,0,0,0,0,0,0,0,0,0,0,0,0,0,0,0,0,0,0,0,0,0,0,0,0,0,0,0,0,0,0,0,0,0,0,0,0,0,0,0,0,0,0,0,0,0,0,0,0,0,0,0,0,0,0,0,0,0,0,0,0,0,0,0,0,0,0,0,0,0,0,0,0,0,0,0,0,0,0,0,0,0,0,0,0,0,0,0,0,0,0,0,0,0,0,0,0,0,0,0,0,0,0,0,0,0,0,0,0,0,0,0,0,0,0,0,0,0,0,0,0,0,0,0,0,0,0,0,0,0,10340,10354,10368,10382,10396,10414,10432,10450,0,0,0,0,0,0,0,0,0,0,0,0,0,0,0,0,0,0,0,0,0,0,0,0,0,0,0,0,0,0,0,0,0,0,0,0,0,0,0,0,0,0,0,0,0,0,0,0,0,0,0,0,0,0,0,0,0,0,0,0,0,0,0,0,0,0,0,0,0,0,0,0,0,0,0,0,0,0,0,0,0,0,0,0,0,0,0,0,0,0,0,0,0,0,0,0,0,0,0,0,0,0,0,0,0,0,0,0,0,0,0,0,0,0,0,0,0,0,0,0,0,0,0,0,0,0,0,0,0,0,0,0,0,0,0,0,0,0,0,0,0,0,0,0,0,0,0,0,0,0,0,0,0,0,0,0,0,0,0,0,0,0,0,0,0,0,0,0,0,0,0,0,0,0,0,0,0,0,0,0,0,0,0,0,0,0,0,0,0,0,0,0,0,0,0,0,0,0,0,0,0,0,0,0,0,0,0,0,0,0,0,0,0,0,0,0,0,0,0,0,0,0,0,0,0,0,0,0,0,0,0,0,0,0,0,0,0,0,0,0,0,0,0,0,0,0,0,0,10341,10355,10369,10383,10397,10415,10433,10451,257,271,285,299,313,327,341,355,369,387,405,423,0,0,0,0,0,0,0,0,0,0,0,0,0,0,0,0,0,0,0,0,0,0,0,0,0,0,0,0,0,0,0,0,0,0,0,0,0,0,0,0,0,0,0,0,0,0,0,0,0,0,0,0,0,0,0,0,0,0,0,0,0,0,0,0,0,0,0,0,0,0,0,0,0,0,0,0,0,0,0,0,0,0,0,0,0,0,0,0,0,0,0,0,0,0,0,0,0,0,0,0,0,0,0,0,0,0,0,0,0,0,0,0,0,0,0,0,0,0,0,0,0,0,0,0,0,0,0,0,0,0,0,0,0,0,0,0,0,0,0,0,0,0,0,0,0,0,0,0,0,0,0,0,0,0,0,0,0,0,0,0,0,0,0,0,0,0,0,0,0,0,0,0,0,0,0,0,0,0,0,0,0,0,0,0,0,0,0,0,0,0,0,0,0,0,0,0,0,0,0,0,0,0,0,0,0,0,0,0,0,0,0,0,0,0,0,0,0,0,0,0,0,0,0,0,0,0,0,0,0,0,0,0,0,0,0,0,10342,10356,10370,10384,10398,10416,10434,10452,258,272,286,300,314,328,342,356,370,388,406,424,0,0,0,0,0,0,0,0,0,0,0,0,0,0,0,0,0,0,0,0,0,0,0,0,0,0,0,0,0,0,0,0,0,0,0,0,0,0,0,0,0,0,0,0,0,0,0,0,0,0,0,0,0,0,0,0,0,0,0,0,0,0,0,0,0,0,0,0,0,0,0,0,0,0,0,0,0,0,0,0,0,0,0,0,0,0,0,0,0,0,0,0,0,0,0,0,0,0,0,0,0,0,0,0,0,0,0,0,0,0,0,0,0,0,0,0,0,0,0,0,0,0,0,0,0,0,0,0,0,0,0,0,0,0,0,0,0,0,0,0,0,0,0,0,0,0,0,0,0,0,0,0,0,0,0,0,0,0,0,0,0,0,0,0,0,0,0,0,0,0,0,0,0,0,0,0,0,0,0,0,0,0,0,0,0,0,0,0,0,0,0,0,0,0,0,0,0,0,0,0,0,0,0,0,0,0,0,0,0,0,0,0,0,0,0,0,0,0,0,0,0,0,0,0,0,0,0,0,0,0,0,0,0,0,0,0,10343,10357,10371,10385,10399,10417,10435,10453,259,273,287,301,315,329,343,357,371,389,407,425,0,0,0,0,0,0,0,0,0,0,0,0,0,0,0,0,0,0,0,0,0,0,0,0,0,0,0,0,0,0,0,0,0,0,0,0,0,0,0,0,0,0,0,0,0,0,0,0,0,0,0,0,0,0,0,0,0,0,0,0,0,0,0,0,0,0,0,0,0,0,0,0,0,0,0,0,0,0,0,0,0,0,0,0,0,0,0,0,0,0,0,0,0,0,0,0,0,0,0,0,0,0,0,0,0,0,0,0,0,0,0,0,0,0,0,0,0,0,0,0,0,0,0,0,0,0,0,0,0,0,0,0,0,0,0,0,0,0,0,0,0,0,0,0,0,0,0,0,0,0,0,0,0,0,0,0,0,0,0,0,0,0,0,0,0,0,0,0,0,0,0,0,0,0,0,0,0,0,0,0,0,0,0,0,0,0,0,0,0,0,0,0,0,0,0,0,0,0,0,0,0,0,0,0,0,0,0,0,0,0,0,0,0,0,0,0,0,0,0,0,0,0,0,0,0,0,0,0,0,0,0,0,0,0,0,0,10344,10358,10372,10386,10400,10418,10436,10454,260,274,288,302,316,330,344,358,372,390,408,426,0,0,0,0,0,0,0,0,0,0,0,0,0,0,0,0,0,0,0,0,0,0,0,0,0,0,0,0,0,0,0,0,0,0,0,0,0,0,0,0,0,0,0,0,0,0,0,0,0,0,0,0,0,0,0,0,0,0,0,0,0,0,0,0,0,0,0,0,0,0,0,0,0,0,0,0,0,0,0,0,0,0,0,0,0,0,0,0,0,0,0,0,0,0,0,0,0,0,0,0,0,0,0,0,0,0,0,0,0,0,0,0,0,0,0,0,0,0,0,0,0,0,0,0,0,0,0,0,0,0,0,0,0,0,0,0,0,0,0,0,0,0,0,0,0,0,0,0,0,0,0,0,0,0,0,0,0,0,0,0,0,0,0,0,0,0,0,0,0,0,0,0,0,0,0,0,0,0,0,0,0,0,0,0,0,0,0,0,0,0,0,0,0,0,0,0,0,0,0,0,0,0,0,0,0,0,0,0,0,0,0,0,0,0,0,0,0,0,0,0,0,0,0,0,0,0,0,0,0,0,0,0,0,0,0,0,10345,10359,10373,10387,10401,10419,10437,10455,261,275,289,303,317,331,345,359,373,391,409,427,441,459,477,495,0,0,0,0,0,0,0,0,0,0,0,0,0,0,0,0,0,0,0,0,0,0,0,0,0,0,0,0,0,0,0,0,0,0,0,0,0,0,0,0,0,0,0,0,0,0,0,0,0,0,0,0,0,0,0,0,0,0,0,0,0,0,0,0,0,0,0,0,0,0,0,0,0,0,0,0,0,0,0,0,0,0,0,0,0,0,0,0,0,0,0,0,0,0,0,0,0,0,0,0,0,0,0,0,0,0,0,0,0,0,0,0,0,0,0,0,0,0,0,0,0,0,0,0,0,0,0,0,0,0,0,0,0,0,0,0,0,0,0,0,0,0,0,0,0,0,0,0,0,0,0,0,0,0,0,0,0,0,0,0,0,0,0,0,0,0,0,0,0,0,0,0,0,0,0,0,0,0,0,0,0,0,0,0,0,0,0,0,0,0,0,0,0,0,0,0,0,0,0,0,0,0,0,0,0,0,0,0,0,0,0,0,0,0,0,0,0,0,0,0,0,0,0,0,0,0,0,0,0,0,0,0,10342,10356,10370,10384,10402,10420,10438,10456,262,276,290,304,318,332,346,360,374,392,410,428,442,460,478,496,0,0,0,0,0,0,0,0,0,0,0,0,0,0,0,0,0,0,0,0,0,0,0,0,0,0,0,0,0,0,0,0,0,0,0,0,0,0,0,0,0,0,0,0,0,0,0,0,0,0,0,0,0,0,0,0,0,0,0,0,0,0,0,0,0,0,0,0,0,0,0,0,0,0,0,0,0,0,0,0,0,0,0,0,0,0,0,0,0,0,0,0,0,0,0,0,0,0,0,0,0,0,0,0,0,0,0,0,0,0,0,0,0,0,0,0,0,0,0,0,0,0,0,0,0,0,0,0,0,0,0,0,0,0,0,0,0,0,0,0,0,0,0,0,0,0,0,0,0,0,0,0,0,0,0,0,0,0,0,0,0,0,0,0,0,0,0,0,0,0,0,0,0,0,0,0,0,0,0,0,0,0,0,0,0,0,0,0,0,0,0,0,0,0,0,0,0,0,0,0,0,0,0,0,0,0,0,0,0,0,0,0,0,0,0,0,0,0,0,0,0,0,0,0,0,0,0,0,0,0,0,0,10343,10357,10371,10385,10403,10421,10439,10457,263,277,291,305,319,333,347,361,375,393,411,429,443,461,479,497,0,0,0,0,0,0,0,0,0,0,0,0,0,0,0,0,0,0,0,0,0,0,0,0,0,0,0,0,0,0,0,0,0,0,0,0,0,0,0,0,0,0,0,0,0,0,0,0,0,0,0,0,0,0,0,0,0,0,0,0,0,0,0,0,0,0,0,0,0,0,0,0,0,0,0,0,0,0,0,0,0,0,0,0,0,0,0,0,0,0,0,0,0,0,0,0,0,0,0,0,0,0,0,0,0,0,0,0,0,0,0,0,0,0,0,0,0,0,0,0,0,0,0,0,0,0,0,0,0,0,0,0,0,0,0,0,0,0,0,0,0,0,0,0,0,0,0,0,0,0,0,0,0,0,0,0,0,0,0,0,0,0,0,0,0,0,0,0,0,0,0,0,0,0,0,0,0,0,0,0,0,0,0,0,0,0,0,0,0,0,0,0,0,0,0,0,0,0,0,0,0,0,0,0,0,0,0,0,0,0,0,0,0,0,0,0,0,0,0,0,0,0,0,0,0,0,0,0,0,0,0,0,10344,10358,10372,10386,10404,10422,10440,10458,264,278,292,306,320,334,348,362,376,394,412,430,444,462,480,498,0,0,0,0,0,0,0,0,0,0,0,0,0,0,0,0,0,0,0,0,0,0,0,0,0,0,0,0,0,0,0,0,0,0,0,0,0,0,0,0,0,0,0,0,0,0,0,0,0,0,0,0,0,0,0,0,0,0,0,0,0,0,0,0,0,0,0,0,0,0,0,0,0,0,0,0,0,0,0,0,0,0,0,0,0,0,0,0,0,0,0,0,0,0,0,0,0,0,0,0,0,0,0,0,0,0,0,0,0,0,0,0,0,0,0,0,0,0,0,0,0,0,0,0,0,0,0,0,0,0,0,0,0,0,0,0,0,0,0,0,0,0,0,0,0,0,0,0,0,0,0,0,0,0,0,0,0,0,0,0,0,0,0,0,0,0,0,0,0,0,0,0,0,0,0,0,0,0,0,0,0,0,0,0,0,0,0,0,0,0,0,0,0,0,0,0,0,0,0,0,0,0,0,0,0,0,0,0,0,0,0,0,0,0,0,0,0,0,0,0,0,0,0,0,0,0,0,0,0,0,0,0,10345,10359,10373,10387,10405,10423,10441,10459,265,279,293,307,321,335,349,363,377,395,413,431,445,463,481,499,513,535,557,579,0,0,0,0,0,0,0,0,0,0,0,0,0,0,0,0,0,0,0,0,0,0,0,0,0,0,0,0,0,0,0,0,0,0,0,0,0,0,0,0,0,0,0,0,0,0,0,0,0,0,0,0,0,0,0,0,0,0,0,0,0,0,0,0,0,0,0,0,0,0,0,0,0,0,0,0,0,0,0,0,0,0,0,0,0,0,0,0,0,0,0,0,0,0,0,0,0,0,0,0,0,0,0,0,0,0,0,0,0,0,0,0,0,0,0,0,0,0,0,0,0,0,0,0,0,0,0,0,0,0,0,0,0,0,0,0,0,0,0,0,0,0,0,0,0,0,0,0,0,0,0,0,0,0,0,0,0,0,0,0,0,0,0,0,0,0,0,0,0,0,0,0,0,0,0,0,0,0,0,0,0,0,0,0,0,0,0,0,0,0,0,0,0,0,0,0,0,0,0,0,0,0,0,0,0,0,0,0,0,0,0,0,0,0,0,0,0,0,0,0,0,0,0,10623,10637,10651,10665,10665,10342,10356,10370,10384,10402,10420,10438,10456,262,276,290,304,318,332,346,360,378,396,414,432,446,464,482,500,514,536,558,580,0,0,0,0,0,0,0,0,0,0,0,0,0,0,0,0,0,0,0,0,0,0,0,0,0,0,0,0,0,0,0,0,0,0,0,0,0,0,0,0,0,0,0,0,0,0,0,0,0,0,0,0,0,0,0,0,0,0,0,0,0,0,0,0,0,0,0,0,0,0,0,0,0,0,0,0,0,0,0,0,0,0,0,0,0,0,0,0,0,0,0,0,0,0,0,0,0,0,0,0,0,0,0,0,0,0,0,0,0,0,0,0,0,0,0,0,0,0,0,0,0,0,0,0,0,0,0,0,0,0,0,0,0,0,0,0,0,0,0,0,0,0,0,0,0,0,0,0,0,0,0,0,0,0,0,0,0,0,0,0,0,0,0,0,0,0,0,0,0,0,0,0,0,0,0,0,0,0,0,0,0,0,0,0,0,0,0,0,0,0,0,0,0,0,0,0,0,0,0,0,0,0,0,0,0,0,0,0,0,0,0,0,0,0,0,0,0,0,0,0,0,0,0,10624,10638,10652,10666,10666,10343,10357,10371,10385,10403,10421,10439,10457,263,277,291,305,319,333,347,361,379,397,415,433,447,465,483,501,515,537,559,581,0,0,0,0,0,0,0,0,0,0,0,0,0,0,0,0,0,0,0,0,0,0,0,0,0,0,0,0,0,0,0,0,0,0,0,0,0,0,0,0,0,0,0,0,0,0,0,0,0,0,0,0,0,0,0,0,0,0,0,0,0,0,0,0,0,0,0,0,0,0,0,0,0,0,0,0,0,0,0,0,0,0,0,0,0,0,0,0,0,0,0,0,0,0,0,0,0,0,0,0,0,0,0,0,0,0,0,0,0,0,0,0,0,0,0,0,0,0,0,0,0,0,0,0,0,0,0,0,0,0,0,0,0,0,0,0,0,0,0,0,0,0,0,0,0,0,0,0,0,0,0,0,0,0,0,0,0,0,0,0,0,0,0,0,0,0,0,0,0,0,0,0,0,0,0,0,0,0,0,0,0,0,0,0,0,0,0,0,0,0,0,0,0,0,0,0,0,0,0,0,0,0,0,0,0,0,0,0,0,0,0,0,0,0,0,0,0,0,0,0,0,10591,10607,10625,10639,10653,10667,10667,10344,10358,10372,10386,10404,10422,10440,10458,264,278,292,306,320,334,348,362,380,398,416,434,448,466,484,502,516,538,560,582,0,0,0,0,0,0,0,0,0,0,0,0,0,0,0,0,0,0,0,0,0,0,0,0,0,0,0,0,0,0,0,0,0,0,0,0,0,0,0,0,0,0,0,0,0,0,0,0,0,0,0,0,0,0,0,0,0,0,0,0,0,0,0,0,0,0,0,0,0,0,0,0,0,0,0,0,0,0,0,0,0,0,0,0,0,0,0,0,0,0,0,0,0,0,0,0,0,0,0,0,0,0,0,0,0,0,0,0,0,0,0,0,0,0,0,0,0,0,0,0,0,0,0,0,0,0,0,0,0,0,0,0,0,0,0,0,0,0,0,0,0,0,0,0,0,0,0,0,0,0,0,0,0,0,0,0,0,0,0,0,0,0,0,0,0,0,0,0,0,0,0,0,0,0,0,0,0,0,0,0,0,0,0,0,0,0,0,0,0,0,0,0,0,0,0,0,0,0,0,0,0,0,0,0,0,0,0,0,0,0,0,0,0,0,0,0,0,0,0,0,0,10592,10608,10626,10640,10654,10668,10668,10345,10359,10373,10387,10405,10423,10441,10459,265,279,293,307,321,335,349,363,381,399,417,435,449,467,485,503,517,539,561,583,0,0,0,0,0,0,0,0,0,0,0,0,0,0,0,0,0,0,0,0,0,0,0,0,0,0,0,0,0,0,0,0,0,0,0,0,0,0,0,0,0,0,0,0,0,0,0,0,0,0,0,0,0,0,0,0,0,0,0,0,0,0,0,0,0,0,0,0,0,0,0,0,0,0,0,0,0,0,0,0,0,0,0,0,0,0,0,0,0,0,0,0,0,0,0,0,0,0,0,0,0,0,0,0,0,0,0,0,0,0,0,0,0,0,0,0,0,0,0,0,0,0,0,0,0,0,0,0,0,0,0,0,0,0,0,0,0,0,0,0,0,0,0,0,0,0,0,0,0,0,0,0,0,0,0,0,0,0,0,0,0,0,0,0,0,0,0,0,0,0,0,0,0,0,0,0,0,0,0,0,0,0,0,0,0,0,0,0,0,0,0,0,0,0,0,0,0,0,0,0,0,0,0,0,0,0,0,0,0,0,0,1044,10465,10479,10493,10507,10521,10535,10549,10563,10577,10593,10609,10627,10641,10655,10669,10669,10342,10356,10370,10384,10402,10420,10438,10456,262,276,290,304,318,332,346,360,378,396,414,432,450,468,486,504,518,540,562,584,0,0,0,0,0,0,0,0,0,0,0,0,0,0,0,0,0,0,0,0,0,0,0,0,0,0,0,0,0,0,0,0,0,0,0,0,0,0,0,0,0,0,0,0,0,0,0,0,0,0,0,0,0,0,0,0,0,0,0,0,0,0,0,0,0,0,0,0,0,0,0,0,0,0,0,0,0,0,0,0,0,0,0,0,0,0,0,0,0,0,0,0,0,0,0,0,0,0,0,0,0,0,0,0,0,0,0,0,0,0,0,0,0,0,0,0,0,0,0,0,0,0,0,0,0,0,0,0,0,0,0,0,0,0,0,0,0,0,0,0,0,0,0,0,0,0,0,0,0,0,0,0,0,0,0,0,0,0,0,0,0,0,0,0,0,0,0,0,0,0,0,0,0,0,0,0,0,0,0,0,0,0,0,0,0,0,0,0,0,0,0,0,0,0,0,0,0,0,0,0,0,0,0,0,0,0,0,0,0,0,0,1045,10466,10480,10494,10508,10522,10536,10550,10564,10578,10594,10610,10628,10642,10656,10670,10670,10343,10357,10371,10385,10403,10421,10439,10457,263,277,291,305,319,333,347,361,379,397,415,433,451,469,487,505,519,541,563,585,0,0,0,0,0,0,0,0,0,0,0,0,0,0,0,0,0,0,0,0,0,0,0,0,0,0,0,0,0,0,0,0,0,0,0,0,0,0,0,0,0,0,0,0,0,0,0,0,0,0,0,0,0,0,0,0,0,0,0,0,0,0,0,0,0,0,0,0,0,0,0,0,0,0,0,0,0,0,0,0,0,0,0,0,0,0,0,0,0,0,0,0,0,0,0,0,0,0,0,0,0,0,0,0,0,0,0,0,0,0,0,0,0,0,0,0,0,0,0,0,0,0,0,0,0,0,0,0,0,0,0,0,0,0,0,0,0,0,0,0,0,0,0,0,0,0,0,0,0,0,0,0,0,0,0,0,0,0,0,0,0,0,0,0,0,0,0,0,0,0,0,0,0,0,0,0,0,0,0,0,0,0,0,0,0,0,0,0,0,0,0,0,0,0,0,0,0,0,0,0,0,0,0,0,0,0,0,0,0,1012,1028,1046,10467,10481,10495,10509,10523,10537,10551,10565,10579,10595,10611,10629,10643,10657,10671,10671,10344,10358,10372,10386,10404,10422,10440,10458,264,278,292,306,320,334,348,362,380,398,416,434,452,470,488,506,520,542,564,586,0,0,0,0,0,0,0,0,0,0,0,0,0,0,0,0,0,0,0,0,0,0,0,0,0,0,0,0,0,0,0,0,0,0,0,0,0,0,0,0,0,0,0,0,0,0,0,0,0,0,0,0,0,0,0,0,0,0,0,0,0,0,0,0,0,0,0,0,0,0,0,0,0,0,0,0,0,0,0,0,0,0,0,0,0,0,0,0,0,0,0,0,0,0,0,0,0,0,0,0,0,0,0,0,0,0,0,0,0,0,0,0,0,0,0,0,0,0,0,0,0,0,0,0,0,0,0,0,0,0,0,0,0,0,0,0,0,0,0,0,0,0,0,0,0,0,0,0,0,0,0,0,0,0,0,0,0,0,0,0,0,0,0,0,0,0,0,0,0,0,0,0,0,0,0,0,0,0,0,0,0,0,0,0,0,0,0,0,0,0,0,0,0,0,0,0,0,0,0,0,0,0,0,0,0,0,0,0,0,1013,1029,1047,10468,10482,10496,10510,10524,10538,10552,10566,10580,10596,10612,10630,10644,10658,10672,10672,10345,10359,10373,10387,10405,10423,10441,10459,265,279,293,307,321,335,349,363,381,399,417,435,453,471,489,507,521,543,565,587,601,623,645,667,0,0,0,0,0,0,0,0,0,0,0,0,0,0,0,0,0,0,0,0,0,0,0,0,0,0,0,0,0,0,0,0,0,0,0,0,0,0,0,0,0,0,0,0,0,0,0,0,0,0,0,0,0,0,0,0,0,0,0,0,0,0,0,0,0,0,0,0,0,0,0,0,0,0,0,0,0,0,0,0,0,0,0,0,0,0,0,0,0,0,0,0,0,0,0,0,0,0,0,0,0,0,0,0,0,0,0,0,0,0,0,0,0,0,0,0,0,0,0,0,0,0,0,0,0,0,0,0,0,0,0,0,0,0,0,0,0,0,0,0,0,0,0,0,0,0,0,0,0,0,0,0,0,0,0,0,0,0,0,0,0,0,0,0,0,0,0,0,0,0,0,0,0,0,0,0,0,0,0,0,0,0,0,0,0,0,0,0,0,0,0,0,0,0,0,0,0,0,0,0,0,940,962,984,998,1014,1030,1048,10469,10483,10497,10511,10525,10539,10553,10567,10581,10597,10613,10631,10645,10659,10673,10673,10342,10356,10370,10384,10402,10420,10438,10456,262,276,290,304,318,332,346,360,378,396,414,432,450,468,486,504,522,544,566,588,602,624,646,668,0,0,0,0,0,0,0,0,0,0,0,0,0,0,0,0,0,0,0,0,0,0,0,0,0,0,0,0,0,0,0,0,0,0,0,0,0,0,0,0,0,0,0,0,0,0,0,0,0,0,0,0,0,0,0,0,0,0,0,0,0,0,0,0,0,0,0,0,0,0,0,0,0,0,0,0,0,0,0,0,0,0,0,0,0,0,0,0,0,0,0,0,0,0,0,0,0,0,0,0,0,0,0,0,0,0,0,0,0,0,0,0,0,0,0,0,0,0,0,0,0,0,0,0,0,0,0,0,0,0,0,0,0,0,0,0,0,0,0,0,0,0,0,0,0,0,0,0,0,0,0,0,0,0,0,0,0,0,0,0,0,0,0,0,0,0,0,0,0,0,0,0,0,0,0,0,0,0,0,0,0,0,0,0,0,0,0,0,0,0,0,0,0,0,0,0,0,0,0,0,0,941,963,985,999,1015,1031,1049,10470,10484,10498,10512,10526,10540,10554,10568,10582,10598,10614,10628,10642,10656,10670,10670,10343,10357,10371,10385,10403,10421,10439,10457,263,277,291,305,319,333,347,361,379,397,415,433,451,469,487,505,523,545,567,589,603,625,647,669,0,0,0,0,0,0,0,0,0,0,0,0,0,0,0,0,0,0,0,0,0,0,0,0,0,0,0,0,0,0,0,0,0,0,0,0,0,0,0,0,0,0,0,0,0,0,0,0,0,0,0,0,0,0,0,0,0,0,0,0,0,0,0,0,0,0,0,0,0,0,0,0,0,0,0,0,0,0,0,0,0,0,0,0,0,0,0,0,0,0,0,0,0,0,0,0,0,0,0,0,0,0,0,0,0,0,0,0,0,0,0,0,0,0,0,0,0,0,0,0,0,0,0,0,0,0,0,0,0,0,0,0,0,0,0,0,0,0,0,0,0,0,0,0,0,0,0,0,0,0,0,0,0,0,0,0,0,0,0,0,0,0,0,0,0,0,0,0,0,0,0,0,0,0,0,0,0,0,0,0,0,0,0,0,0,0,0,0,0,0,0,0,0,0,0,0,0,0,0,900,920,942,964,986,1000,1016,1032,1050,10471,10485,10499,10513,10527,10541,10555,10569,10583,10599,10615,10629,10643,10657,10671,10671,10344,10358,10372,10386,10404,10422,10440,10458,264,278,292,306,320,334,348,362,380,398,416,434,452,470,488,506,524,546,568,590,604,626,648,670,0,0,0,0,0,0,0,0,0,0,0,0,0,0,0,0,0,0,0,0,0,0,0,0,0,0,0,0,0,0,0,0,0,0,0,0,0,0,0,0,0,0,0,0,0,0,0,0,0,0,0,0,0,0,0,0,0,0,0,0,0,0,0,0,0,0,0,0,0,0,0,0,0,0,0,0,0,0,0,0,0,0,0,0,0,0,0,0,0,0,0,0,0,0,0,0,0,0,0,0,0,0,0,0,0,0,0,0,0,0,0,0,0,0,0,0,0,0,0,0,0,0,0,0,0,0,0,0,0,0,0,0,0,0,0,0,0,0,0,0,0,0,0,0,0,0,0,0,0,0,0,0,0,0,0,0,0,0,0,0,0,0,0,0,0,0,0,0,0,0,0,0,0,0,0,0,0,0,0,0,0,0,0,0,0,0,0,0,0,0,0,0,0,0,0,0,0,0,0,901,921,943,965,987,1001,1017,1033,1051,10472,10486,10500,10514,10528,10542,10556,10570,10584,10600,10616,10630,10644,10658,10672,10672,10345,10359,10373,10387,10405,10423,10441,10459,265,279,293,307,321,335,349,363,381,399,417,435,453,471,489,507,525,547,569,591,605,627,649,671,0,0,0,0,0,0,0,0,0,0,0,0,0,0,0,0,0,0,0,0,0,0,0,0,0,0,0,0,0,0,0,0,0,0,0,0,0,0,0,0,0,0,0,0,0,0,0,0,0,0,0,0,0,0,0,0,0,0,0,0,0,0,0,0,0,0,0,0,0,0,0,0,0,0,0,0,0,0,0,0,0,0,0,0,0,0,0,0,0,0,0,0,0,0,0,0,0,0,0,0,0,0,0,0,0,0,0,0,0,0,0,0,0,0,0,0,0,0,0,0,0,0,0,0,0,0,0,0,0,0,0,0,0,0,0,0,0,0,0,0,0,0,0,0,0,0,0,0,0,0,0,0,0,0,0,0,0,0,0,0,0,0,0,0,0,0,0,0,0,0,0,0,0,0,0,0,0,0,0,0,0,0,0,0,0,0,0,0,0,0,0,0,0,0,0,0,0,0,0,902,922,944,966,988,1002,1018,1034,1052,10473,10487,10501,10515,10529,10543,10557,10571,10585,10601,10617,10631,10645,10659,10673,10673,10346,10360,10374,10388,10402,10420,10438,10456,262,276,290,304,318,332,346,360,378,396,414,432,450,468,486,504,526,548,570,592,606,628,650,672,0,0,0,0,0,0,0,0,0,0,0,0,0,0,0,0,0,0,0,0,0,0,0,0,0,0,0,0,0,0,0,0,0,0,0,0,0,0,0,0,0,0,0,0,0,0,0,0,0,0,0,0,0,0,0,0,0,0,0,0,0,0,0,0,0,0,0,0,0,0,0,0,0,0,0,0,0,0,0,0,0,0,0,0,0,0,0,0,0,0,0,0,0,0,0,0,0,0,0,0,0,0,0,0,0,0,0,0,0,0,0,0,0,0,0,0,0,0,0,0,0,0,0,0,0,0,0,0,0,0,0,0,0,0,0,0,0,0,0,0,0,0,0,0,0,0,0,0,0,0,0,0,0,0,0,0,0,0,0,0,0,0,0,0,0,0,0,0,0,0,0,0,0,0,0,0,0,0,0,0,0,0,0,0,0,0,0,0,0,0,0,0,0,0,0,0,0,0,0,903,923,945,967,989,1003,1019,1035,1049,10470,10484,10498,10512,10526,10540,10554,10568,10582,10598,10614,10628,10642,10656,10670,10670,10347,10361,10375,10389,10403,10421,10439,10457,263,277,291,305,319,333,347,361,379,397,415,433,451,469,487,505,527,549,571,593,607,629,651,673,0,0,0,0,0,0,0,0,0,0,0,0,0,0,0,0,0,0,0,0,0,0,0,0,0,0,0,0,0,0,0,0,0,0,0,0,0,0,0,0,0,0,0,0,0,0,0,0,0,0,0,0,0,0,0,0,0,0,0,0,0,0,0,0,0,0,0,0,0,0,0,0,0,0,0,0,0,0,0,0,0,0,0,0,0,0,0,0,0,0,0,0,0,0,0,0,0,0,0,0,0,0,0,0,0,0,0,0,0,0,0,0,0,0,0,0,0,0,0,0,0,0,0,0,0,0,0,0,0,0,0,0,0,0,0,0,0,0,0,0,0,0,0,0,0,0,0,0,0,0,0,0,0,0,0,0,0,0,0,0,0,0,0,0,0,0,0,0,0,0,0,0,0,0,0,0,0,0,0,0,0,0,0,0,0,0,0,0,0,0,0,0,0,0,0,0,0,0,0,904,924,946,968,990,1004,1020,1036,1050,10471,10485,10499,10513,10527,10541,10555,10569,10583,10599,10615,10629,10643,10657,10671,10671,10348,10362,10376,10390,10404,10422,10440,10458,264,278,292,306,320,334,348,362,380,398,416,434,452,470,488,506,528,550,572,594,608,630,652,674,0,0,0,731,0,0,0,0,0,0,0,0,0,0,0,0,0,0,0,0,0,0,0,0,0,0,0,0,0,0,0,0,0,0,0,0,0,0,0,0,0,0,0,0,0,0,0,0,0,0,0,0,0,0,0,0,0,0,0,0,0,0,0,0,0,0,0,0,0,0,0,0,0,0,0,0,0,0,0,0,0,0,0,0,0,0,0,0,0,0,0,0,0,0,0,0,0,0,0,0,0,0,0,0,0,0,0,0,0,0,0,0,0,0,0,0,0,0,0,0,0,0,0,0,0,0,0,0,0,0,0,0,0,0,0,0,0,0,0,0,0,0,0,0,0,0,0,0,0,0,0,0,0,0,0,0,0,0,0,0,0,0,0,0,0,0,0,0,0,0,0,0,0,0,0,0,0,0,0,0,0,0,0,0,0,0,0,0,0,0,0,0,0,0,0,0,0,0,0,905,925,947,969,991,1005,1021,1037,1051,10472,10486,10500,10514,10528,10542,10556,10570,10584,10600,10616,10630,10644,10658,10672,10672,10349,10363,10377,10391,10405,10423,10441,10459,265,279,293,307,321,335,349,363,381,399,417,435,453,471,489,507,529,551,573,595,609,631,653,675,689,703,717,732,746,760,774,788,802,816,830,844,746,760,774,788,802,816,830,844,746,760,774,788,802,816,830,844,746,760,774,788,802,816,830,844,746,760,774,788,802,816,830,844,0,0,0,0,0,0,0,0,746,760,774,788,802,816,830,844,746,760,774,788,802,816,830,844,746,760,774,788,802,816,830,844,0,0,0,0,0,0,0,0,746,760,774,788,802,816,830,844,746,760,774,788,802,816,830,844,746,760,774,788,802,816,830,844,746,760,774,788,802,816,830,844,746,760,774,788,802,816,830,844,746,760,774,788,802,816,830,844,0,0,0,0,0,0,0,0,746,760,774,788,802,816,830,844,746,760,774,788,802,816,830,844,746,760,774,788,802,816,830,844,746,760,774,788,802,816,830,844,0,0,0,0,0,0,0,0,746,760,774,788,802,816,830,844,746,760,774,788,802,816,830,844,858,872,886,906,926,948,970,992,1006,1022,1038,1052,10473,10487,10501,10515,10529,10543,10557,10571,10585,10601,10617,10631,10645,10659,10673,10673,10350,10364,10378,10392,10406,10424,10442,10460,266,280,294,308,322,336,350,364,378,396,414,432,450,468,486,504,526,548,570,592,610,632,654,676,690,704,718,733,747,761,775,789,803,817,831,845,747,761,775,789,803,817,831,845,747,761,775,789,803,817,831,845,747,761,775,789,803,817,831,845,747,761,775,789,803,817,831,845,0,0,0,0,0,0,0,0,747,761,775,789,803,817,831,845,747,761,775,789,803,817,831,845,747,761,775,789,803,817,831,845,0,0,0,0,0,0,0,0,747,761,775,789,803,817,831,845,747,761,775,789,803,817,831,845,747,761,775,789,803,817,831,845,747,761,775,789,803,817,831,845,747,761,775,789,803,817,831,845,747,761,775,789,803,817,831,845,0,0,0,0,0,0,0,0,747,761,775,789,803,817,831,845,747,761,775,789,803,817,831,845,747,761,775,789,803,817,831,845,747,761,775,789,803,817,831,845,0,0,0,0,0,0,0,0,747,761,775,789,803,817,831,845,747,761,775,789,803,817,831,845,859,873,887,907,927,949,971,989,1003,1019,1035,1049,10470,10484,10498,10512,10526,10540,10554,10568,10582,10598,10614,10628,10642,10656,10670,10670,0,0,0,0,10407,10425,10443,10461,267,281,295,309,323,337,351,365,379,397,415,433,451,469,487,505,527,549,571,593,611,633,655,677,691,705,719,734,748,762,776,790,804,818,832,846,748,762,776,790,804,818,832,846,748,762,776,790,804,818,832,846,748,762,776,790,804,818,832,846,748,762,776,790,804,818,832,846,611,633,655,677,691,705,719,734,748,762,776,790,804,818,832,846,748,762,776,790,804,818,832,846,748,762,776,790,804,818,832,846,611,633,655,677,691,705,719,734,748,762,776,790,804,818,832,846,748,762,776,790,804,818,832,846,748,762,776,790,804,818,832,846,748,762,776,790,804,818,832,846,748,762,776,790,804,818,832,846,748,762,776,790,804,818,832,846,611,633,655,677,691,705,719,734,748,762,776,790,804,818,832,846,748,762,776,790,804,818,832,846,748,762,776,790,804,818,832,846,748,762,776,790,804,818,832,846,611,633,655,677,691,705,719,734,748,762,776,790,804,818,832,846,748,762,776,790,804,818,832,846,860,874,888,908,928,950,972,990,1004,1020,1036,1050,10471,10485,10499,10513,10527,10541,10555,10569,10583,10599,10615,10629,10643,10657,10671,10671,0,0,0,0,10408,10426,10444,10462,268,282,296,310,324,338,352,366,380,398,416,434,452,470,488,506,528,550,572,594,612,634,656,678,692,706,720,735,749,763,777,791,805,819,833,847,749,763,777,791,805,819,833,847,749,763,777,791,805,819,833,847,749,763,777,791,805,819,833,847,749,763,777,791,805,819,833,847,612,634,656,678,692,706,720,735,749,763,777,791,805,819,833,847,749,763,777,791,805,819,833,847,749,763,777,791,805,819,833,847,612,634,656,678,692,706,720,735,749,763,777,791,805,819,833,847,749,763,777,791,805,819,833,847,749,763,777,791,805,819,833,847,749,763,777,791,805,819,833,847,749,763,777,791,805,819,833,847,749,763,777,791,805,819,833,847,612,634,656,678,692,706,720,735,749,763,777,791,805,819,833,847,749,763,777,791,805,819,833,847,749,763,777,791,805,819,833,847,749,763,777,791,805,819,833,847,612,634,656,678,692,706,720,735,749,763,777,791,805,819,833,847,749,763,777,791,805,819,833,847,861,875,889,909,929,951,973,991,1005,1021,1037,1051,10472,10486,10500,10514,10528,10542,10556,10570,10584,10600,10616,10630,10644,10658,10672,10672,0,0,0,0,10409,10427,10445,10463,269,283,297,311,325,339,353,367,381,399,417,435,453,471,489,507,529,551,573,595,613,635,657,679,693,707,721,736,750,764,778,792,806,820,834,848,750,764,778,792,806,820,834,848,750,764,778,792,806,820,834,848,750,764,778,792,806,820,834,848,750,764,778,792,806,820,834,848,613,635,657,679,693,707,721,736,750,764,778,792,806,820,834,848,750,764,778,792,806,820,834,848,750,764,778,792,806,820,834,848,613,635,657,679,693,707,721,736,750,764,778,792,806,820,834,848,750,764,778,792,806,820,834,848,750,764,778,792,806,820,834,848,750,764,778,792,806,820,834,848,750,764,778,792,806,820,834,848,750,764,778,792,806,820,834,848,613,635,657,679,693,707,721,736,750,764,778,792,806,820,834,848,750,764,778,792,806,820,834,848,750,764,778,792,806,820,834,848,750,764,778,792,806,820,834,848,613,635,657,679,693,707,721,736,750,764,778,792,806,820,834,848,750,764,778,792,806,820,834,848,862,876,890,910,930,952,974,992,1006,1022,1038,1052,10473,10487,10501,10515,10529,10543,10557,10571,10585,10601,10617,10631,10645,10659,10673,10673,0,0,0,0,10410,10428,10446,10464,270,284,298,312,326,340,354,368,382,400,418,436,450,468,486,504,526,548,570,592,614,636,658,680,694,708,722,737,751,765,779,793,807,821,835,849,751,765,779,793,807,821,835,849,751,765,779,793,807,821,835,849,751,765,779,793,807,821,835,849,751,765,779,793,807,821,835,849,614,636,658,680,694,708,722,737,751,765,779,793,807,821,835,849,751,765,779,793,807,821,835,849,751,765,779,793,807,821,835,849,614,636,658,680,694,708,722,737,751,765,779,793,807,821,835,849,751,765,779,793,807,821,835,849,751,765,779,793,807,821,835,849,751,765,779,793,807,821,835,849,751,765,779,793,807,821,835,849,751,765,779,793,807,821,835,849,614,636,658,680,694,708,722,737,751,765,779,793,807,821,835,849,751,765,779,793,807,821,835,849,751,765,779,793,807,821,835,849,751,765,779,793,807,821,835,849,614,636,658,680,694,708,722,737,751,765,779,793,807,821,835,849,751,765,779,793,807,821,835,849,863,877,891,911,931,953,975,989,1003,1019,1035,1049,10470,10484,10498,10512,10526,10540,10554,10568,10582,10598,10614,10628,10642,10656,10670,10670,0,0,0,0,0,0,0,0,0,0,0,0,0,0,0,0,383,401,419,437,451,469,487,505,527,549,571,593,615,637,659,681,695,709,723,738,752,766,780,794,808,822,836,850,752,766,780,794,808,822,836,850,752,766,780,794,808,822,836,850,752,766,780,794,808,822,836,850,752,766,780,794,808,822,836,850,615,637,659,681,695,709,723,738,752,766,780,794,808,822,836,850,752,766,780,794,808,822,836,850,752,766,780,794,808,822,836,850,615,637,659,681,695,709,723,738,752,766,780,794,808,822,836,850,752,766,780,794,808,822,836,850,752,766,780,794,808,822,836,850,752,766,780,794,808,822,836,850,752,766,780,794,808,822,836,850,752,766,780,794,808,822,836,850,615,637,659,681,695,709,723,738,752,766,780,794,808,822,836,850,752,766,780,794,808,822,836,850,752,766,780,794,808,822,836,850,752,766,780,794,808,822,836,850,615,637,659,681,695,709,723,738,752,766,780,794,808,822,836,850,752,766,780,794,808,822,836,850,864,878,892,912,932,954,976,990,1004,1020,1036,1050,10471,10485,10499,10513,10527,10541,10555,10569,10583,10599,10615,10629,10643,10657,10671,10671,0,0,0,0,0,0,0,0,0,0,0,0,0,0,0,0,384,402,420,438,452,470,488,506,528,550,572,594,616,638,660,682,696,710,724,739,753,767,781,795,809,823,837,851,753,767,781,795,809,823,837,851,753,767,781,795,809,823,837,851,753,767,781,795,809,823,837,851,753,767,781,795,809,823,837,851,616,638,660,682,696,710,724,739,753,767,781,795,809,823,837,851,753,767,781,795,809,823,837,851,753,767,781,795,809,823,837,851,616,638,660,682,696,710,724,739,753,767,781,795,809,823,837,851,753,767,781,795,809,823,837,851,753,767,781,795,809,823,837,851,753,767,781,795,809,823,837,851,753,767,781,795,809,823,837,851,753,767,781,795,809,823,837,851,616,638,660,682,696,710,724,739,753,767,781,795,809,823,837,851,753,767,781,795,809,823,837,851,753,767,781,795,809,823,837,851,753,767,781,795,809,823,837,851,616,638,660,682,696,710,724,739,753,767,781,795,809,823,837,851,753,767,781,795,809,823,837,851,865,879,893,913,933,955,977,991,1005,1021,1037,1051,10472,10486,10500,10514,10528,10542,10556,10570,10584,10600,10616,10630,10644,10658,10672,10672,0,0,0,0,0,0,0,0,0,0,0,0,0,0,0,0,385,403,421,439,453,471,489,507,529,551,573,595,617,639,661,683,697,711,725,740,754,768,782,796,810,824,838,852,754,768,782,796,810,824,838,852,754,768,782,796,810,824,838,852,754,768,782,796,810,824,838,852,754,768,782,796,810,824,838,852,617,639,661,683,697,711,725,740,754,768,782,796,810,824,838,852,754,768,782,796,810,824,838,852,754,768,782,796,810,824,838,852,617,639,661,683,697,711,725,740,754,768,782,796,810,824,838,852,754,768,782,796,810,824,838,852,754,768,782,796,810,824,838,852,754,768,782,796,810,824,838,852,754,768,782,796,810,824,838,852,754,768,782,796,810,824,838,852,617,639,661,683,697,711,725,740,754,768,782,796,810,824,838,852,754,768,782,796,810,824,838,852,754,768,782,796,810,824,838,852,754,768,782,796,810,824,838,852,617,639,661,683,697,711,725,740,754,768,782,796,810,824,838,852,754,768,782,796,810,824,838,852,866,880,894,914,934,956,978,992,1006,1022,1038,1052,10473,10487,10501,10515,10529,10543,10557,10571,10585,10601,10617,10631,10645,10659,10673,10673,0,0,0,0,0,0,0,0,0,0,0,0,0,0,0,0,386,404,422,440,454,472,490,508,526,548,570,592,614,636,658,680,694,708,722,737,751,765,779,793,807,821,835,849,751,765,779,793,807,821,835,849,751,765,779,793,807,821,835,849,751,765,779,793,807,821,835,849,751,765,779,793,807,821,835,849,614,636,658,680,694,708,722,737,751,765,779,793,807,821,835,849,751,765,779,793,807,821,835,849,751,765,779,793,807,821,835,849,614,636,658,680,694,708,722,737,751,765,779,793,807,821,835,849,751,765,779,793,807,821,835,849,751,765,779,793,807,821,835,849,751,765,779,793,807,821,835,849,751,765,779,793,807,821,835,849,751,765,779,793,807,821,835,849,614,636,658,680,694,708,722,737,751,765,779,793,807,821,835,849,751,765,779,793,807,821,835,849,751,765,779,793,807,821,835,849,751,765,779,793,807,821,835,849,614,636,658,680,694,708,722,737,751,765,779,793,807,821,835,849,751,765,779,793,807,821,835,849,863,877,891,911,931,953,975,989,1003,1019,1035,1049,10470,10484,10498,10512,10526,10540,10554,10568,10582,10598,10614,10632,10646,10660,10674,10674,0,0,0,0,0,0,0,0,0,0,0,0,0,0,0,0,0,0,0,0,455,473,491,509,527,549,571,593,615,637,659,681,695,709,723,738,752,766,780,794,808,822,836,850,752,766,780,794,808,822,836,850,752,766,780,794,808,822,836,850,752,766,780,794,808,822,836,850,752,766,780,794,808,822,836,850,615,637,659,681,695,709,723,738,752,766,780,794,808,822,836,850,752,766,780,794,808,822,836,850,752,766,780,794,808,822,836,850,615,637,659,681,695,709,723,738,752,766,780,794,808,822,836,850,752,766,780,794,808,822,836,850,752,766,780,794,808,822,836,850,752,766,780,794,808,822,836,850,752,766,780,794,808,822,836,850,752,766,780,794,808,822,836,850,615,637,659,681,695,709,723,738,752,766,780,794,808,822,836,850,752,766,780,794,808,822,836,850,752,766,780,794,808,822,836,850,752,766,780,794,808,822,836,850,615,637,659,681,695,709,723,738,752,766,780,794,808,822,836,850,752,766,780,794,808,822,836,850,864,878,892,912,932,954,976,990,1004,1020,1036,1050,10471,10485,10499,10513,10527,10541,10555,10569,10583,10599,10615,10633,10647,10661,10675,10675,0,0,0,0,0,0,0,0,0,0,0,0,0,0,0,0,0,0,0,0,456,474,492,510,528,550,572,594,616,638,660,682,696,710,724,739,753,767,781,795,809,823,837,851,753,767,781,795,809,823,837,851,753,767,781,795,809,823,837,851,753,767,781,795,809,823,837,851,753,767,781,795,809,823,837,851,616,638,660,682,696,710,724,739,753,767,781,795,809,823,837,851,753,767,781,795,809,823,837,851,753,767,781,795,809,823,837,851,616,638,660,682,696,710,724,739,753,767,781,795,809,823,837,851,753,767,781,795,809,823,837,851,753,767,781,795,809,823,837,851,753,767,781,795,809,823,837,851,753,767,781,795,809,823,837,851,753,767,781,795,809,823,837,851,616,638,660,682,696,710,724,739,753,767,781,795,809,823,837,851,753,767,781,795,809,823,837,851,753,767,781,795,809,823,837,851,753,767,781,795,809,823,837,851,616,638,660,682,696,710,724,739,753,767,781,795,809,823,837,851,753,767,781,795,809,823,837,851,865,879,893,913,933,955,977,991,1005,1021,1037,1051,10472,10486,10500,10514,10528,10542,10556,10570,10584,10600,10616,10634,10648,10662,10676,10676,0,0,0,0,0,0,0,0,0,0,0,0,0,0,0,0,0,0,0,0,457,475,493,511,529,551,573,595,617,639,661,683,697,711,725,740,754,768,782,796,810,824,838,852,754,768,782,796,810,824,838,852,754,768,782,796,810,824,838,852,754,768,782,796,810,824,838,852,754,768,782,796,810,824,838,852,617,639,661,683,697,711,725,740,754,768,782,796,810,824,838,852,754,768,782,796,810,824,838,852,754,768,782,796,810,824,838,852,617,639,661,683,697,711,725,740,754,768,782,796,810,824,838,852,754,768,782,796,810,824,838,852,754,768,782,796,810,824,838,852,754,768,782,796,810,824,838,852,754,768,782,796,810,824,838,852,754,768,782,796,810,824,838,852,617,639,661,683,697,711,725,740,754,768,782,796,810,824,838,852,754,768,782,796,810,824,838,852,754,768,782,796,810,824,838,852,754,768,782,796,810,824,838,852,617,639,661,683,697,711,725,740,754,768,782,796,810,824,838,852,754,768,782,796,810,824,838,852,866,880,894,914,934,956,978,992,1006,1022,1038,1052,10473,10487,10501,10515,10529,10543,10557,10571,10585,10601,10617,10635,10649,10663,10677,10677,0,0,0,0,0,0,0,0,0,0,0,0,0,0,0,0,0,0,0,0,458,476,494,512,526,548,570,592,614,636,658,680,694,708,722,737,751,765,779,793,807,821,835,849,751,765,779,793,807,821,835,849,751,765,779,793,807,821,835,849,751,765,779,793,807,821,835,849,751,765,779,793,807,821,835,849,614,636,658,680,694,708,722,737,751,765,779,793,807,821,835,849,751,765,779,793,807,821,835,849,751,765,779,793,807,821,835,849,614,636,658,680,694,708,722,737,751,765,779,793,807,821,835,849,751,765,779,793,807,821,835,849,751,765,779,793,807,821,835,849,751,765,779,793,807,821,835,849,751,765,779,793,807,821,835,849,751,765,779,793,807,821,835,849,614,636,658,680,694,708,722,737,751,765,779,793,807,821,835,849,751,765,779,793,807,821,835,849,751,765,779,793,807,821,835,849,751,765,779,793,807,821,835,849,614,636,658,680,694,708,722,737,751,765,779,793,807,821,835,849,751,765,779,793,807,821,835,849,863,877,891,911,931,953,975,989,1003,1019,1035,1053,10474,10488,10502,10516,10530,10544,10558,10572,10586,10602,10618,10636,10650,10664,10678,10678,0,0,0,0,0,0,0,0,0,0,0,0,0,0,0,0,0,0,0,0,0,0,0,0,527,549,571,593,615,637,659,681,695,709,723,738,752,766,780,794,808,822,836,850,752,766,780,794,808,822,836,850,752,766,780,794,808,822,836,850,752,766,780,794,808,822,836,850,752,766,780,794,808,822,836,850,615,637,659,681,695,709,723,738,752,766,780,794,808,822,836,850,752,766,780,794,808,822,836,850,752,766,780,794,808,822,836,850,615,637,659,681,695,709,723,738,752,766,780,794,808,822,836,850,752,766,780,794,808,822,836,850,752,766,780,794,808,822,836,850,752,766,780,794,808,822,836,850,752,766,780,794,808,822,836,850,752,766,780,794,808,822,836,850,615,637,659,681,695,709,723,738,752,766,780,794,808,822,836,850,752,766,780,794,808,822,836,850,752,766,780,794,808,822,836,850,752,766,780,794,808,822,836,850,615,637,659,681,695,709,723,738,752,766,780,794,808,822,836,850,752,766,780,794,808,822,836,850,864,878,892,912,932,954,976,990,1004,1020,1036,1054,10475,10489,10503,10517,10531,10545,10559,10573,10587,10603,10619,0,0,0,0,0,0,0,0,0,0,0,0,0,0,0,0,0,0,0,0,0,0,0,0,0,0,0,0,0,528,550,572,594,616,638,660,682,696,710,724,739,753,767,781,795,809,823,837,851,753,767,781,795,809,823,837,851,753,767,781,795,809,823,837,851,753,767,781,795,809,823,837,851,753,767,781,795,809,823,837,851,616,638,660,682,696,710,724,739,753,767,781,795,809,823,837,851,753,767,781,795,809,823,837,851,753,767,781,795,809,823,837,851,616,638,660,682,696,710,724,739,753,767,781,795,809,823,837,851,753,767,781,795,809,823,837,851,753,767,781,795,809,823,837,851,753,767,781,795,809,823,837,851,753,767,781,795,809,823,837,851,753,767,781,795,809,823,837,851,616,638,660,682,696,710,724,739,753,767,781,795,809,823,837,851,753,767,781,795,809,823,837,851,753,767,781,795,809,823,837,851,753,767,781,795,809,823,837,851,616,638,660,682,696,710,724,739,753,767,781,795,809,823,837,851,753,767,781,795,809,823,837,851,865,879,893,913,933,955,977,991,1005,1021,1037,1055,10476,10490,10504,10518,10532,10546,10560,10574,10588,10604,10620,0,0,0,0,0,0,0,0,0,0,0,0,0,0,0,0,0,0,0,0,0,0,0,0,0,0,0,0,0,529,551,573,595,617,639,661,683,697,711,725,740,754,768,782,796,810,824,838,852,754,768,782,796,810,824,838,852,754,768,782,796,810,824,838,852,754,768,782,796,810,824,838,852,754,768,782,796,810,824,838,852,617,639,661,683,697,711,725,740,754,768,782,796,810,824,838,852,754,768,782,796,810,824,838,852,754,768,782,796,810,824,838,852,617,639,661,683,697,711,725,740,754,768,782,796,810,824,838,852,754,768,782,796,810,824,838,852,754,768,782,796,810,824,838,852,754,768,782,796,810,824,838,852,754,768,782,796,810,824,838,852,754,768,782,796,810,824,838,852,617,639,661,683,697,711,725,740,754,768,782,796,810,824,838,852,754,768,782,796,810,824,838,852,754,768,782,796,810,824,838,852,754,768,782,796,810,824,838,852,617,639,661,683,697,711,725,740,754,768,782,796,810,824,838,852,754,768,782,796,810,824,838,852,866,880,894,914,934,956,978,992,1006,1022,1038,1056,10477,10491,10505,10519,10533,10547,10561,10575,10589,10605,10621,0,0,0,0,0,0,0,0,0,0,0,0,0,0,0,0,0,0,0,0,0,0,0,0,0,0,0,0,0,530,552,574,596,614,636,658,680,694,708,722,737,751,765,779,793,807,821,835,849,751,765,779,793,807,821,835,849,751,765,779,793,807,821,835,849,751,765,779,793,807,821,835,849,751,765,779,793,807,821,835,849,614,636,658,680,694,708,722,737,751,765,779,793,807,821,835,849,751,765,779,793,807,821,835,849,751,765,779,793,807,821,835,849,614,636,658,680,694,708,722,737,751,765,779,793,807,821,835,849,751,765,779,793,807,821,835,849,751,765,779,793,807,821,835,849,751,765,779,793,807,821,835,849,751,765,779,793,807,821,835,849,751,765,779,793,807,821,835,849,614,636,658,680,694,708,722,737,751,765,779,793,807,821,835,849,751,765,779,793,807,821,835,849,751,765,779,793,807,821,835,849,751,765,779,793,807,821,835,849,614,636,658,680,694,708,722,737,751,765,779,793,807,821,835,849,751,765,779,793,807,821,835,849,863,877,891,911,931,953,975,993,1007,1023,1039,1057,10478,10492,10506,10520,10534,10548,10562,10576,10590,10606,10622,0,0,0,0,0,0,0,0,0,0,0,0,0,0,0,0,0,0,0,0,0,0,0,0,0,0,0,0,0,531,553,575,597,615,637,659,681,695,709,723,738,752,766,780,794,808,822,836,850,752,766,780,794,808,822,836,850,752,766,780,794,808,822,836,850,752,766,780,794,808,822,836,850,752,766,780,794,808,822,836,850,615,637,659,681,695,709,723,738,752,766,780,794,808,822,836,850,752,766,780,794,808,822,836,850,752,766,780,794,808,822,836,850,615,637,659,681,695,709,723,738,752,766,780,794,808,822,836,850,752,766,780,794,808,822,836,850,752,766,780,794,808,822,836,850,752,766,780,794,808,822,836,850,752,766,780,794,808,822,836,850,752,766,780,794,808,822,836,850,615,637,659,681,695,709,723,738,752,766,780,794,808,822,836,850,752,766,780,794,808,822,836,850,752,766,780,794,808,822,836,850,752,766,780,794,808,822,836,850,615,637,659,681,695,709,723,738,752,766,780,794,808,822,836,850,752,766,780,794,808,822,836,850,864,878,892,912,932,954,976,994,1008,1024,1040,0,0,0,0,0,0,0,0,0,0,0,0,0,0,0,0,0,0,0,0,0,0,0,0,0,0,0,0,0,0,0,0,0,0,0,0,0,0,0,0,0,532,554,576,598,616,638,660,682,696,710,724,739,753,767,781,795,809,823,837,851,753,767,781,795,809,823,837,851,753,767,781,795,809,823,837,851,753,767,781,795,809,823,837,851,753,767,781,795,809,823,837,851,616,638,660,682,696,710,724,739,753,767,781,795,809,823,837,851,753,767,781,795,809,823,837,851,753,767,781,795,809,823,837,851,616,638,660,682,696,710,724,739,753,767,781,795,809,823,837,851,753,767,781,795,809,823,837,851,753,767,781,795,809,823,837,851,753,767,781,795,809,823,837,851,753,767,781,795,809,823,837,851,753,767,781,795,809,823,837,851,616,638,660,682,696,710,724,739,753,767,781,795,809,823,837,851,753,767,781,795,809,823,837,851,753,767,781,795,809,823,837,851,753,767,781,795,809,823,837,851,616,638,660,682,696,710,724,739,753,767,781,795,809,823,837,851,753,767,781,795,809,823,837,851,865,879,893,913,933,955,977,995,1009,1025,1041,0,0,0,0,0,0,0,0,0,0,0,0,0,0,0,0,0,0,0,0,0,0,0,0,0,0,0,0,0,0,0,0,0,0,0,0,0,0,0,0,0,533,555,577,599,617,639,661,683,697,711,725,740,754,768,782,796,810,824,838,852,754,768,782,796,810,824,838,852,754,768,782,796,810,824,838,852,754,768,782,796,810,824,838,852,754,768,782,796,810,824,838,852,617,639,661,683,697,711,725,740,754,768,782,796,810,824,838,852,754,768,782,796,810,824,838,852,754,768,782,796,810,824,838,852,617,639,661,683,697,711,725,740,754,768,782,796,810,824,838,852,754,768,782,796,810,824,838,852,754,768,782,796,810,824,838,852,754,768,782,796,810,824,838,852,754,768,782,796,810,824,838,852,754,768,782,796,810,824,838,852,617,639,661,683,697,711,725,740,754,768,782,796,810,824,838,852,754,768,782,796,810,824,838,852,754,768,782,796,810,824,838,852,754,768,782,796,810,824,838,852,617,639,661,683,697,711,725,740,754,768,782,796,810,824,838,852,754,768,782,796,810,824,838,852,866,880,894,914,934,956,978,996,1010,1026,1042,0,0,0,0,0,0,0,0,0,0,0,0,0,0,0,0,0,0,0,0,0,0,0,0,0,0,0,0,0,0,0,0,0,0,0,0,0,0,0,0,0,534,556,578,600,614,636,658,680,694,708,722,737,751,765,779,793,807,821,835,849,751,765,779,793,807,821,835,849,751,765,779,793,807,821,835,849,751,765,779,793,807,821,835,849,751,765,779,793,807,821,835,849,614,636,658,680,694,708,722,737,751,765,779,793,807,821,835,849,751,765,779,793,807,821,835,849,751,765,779,793,807,821,835,849,614,636,658,680,694,708,722,737,751,765,779,793,807,821,835,849,751,765,779,793,807,821,835,849,751,765,779,793,807,821,835,849,751,765,779,793,807,821,835,849,751,765,779,793,807,821,835,849,751,765,779,793,807,821,835,849,614,636,658,680,694,708,722,737,751,765,779,793,807,821,835,849,751,765,779,793,807,821,835,849,751,765,779,793,807,821,835,849,751,765,779,793,807,821,835,849,614,636,658,680,694,708,722,737,751,765,779,793,807,821,835,849,751,765,779,793,807,821,835,849,863,877,891,911,931,953,975,997,1011,1027,1043,0,0,0,0,0,0,0,0,0,0,0,0,0,0,0,0,0,0,0,0,0,0,0,0,0,0,0,0,0,0,0,0,0,0,0,0,0,0,0,0,0,0,0,0,0,615,637,659,681,695,709,723,738,752,766,780,794,808,822,836,850,752,766,780,794,808,822,836,850,752,766,780,794,808,822,836,850,752,766,780,794,808,822,836,850,752,766,780,794,808,822,836,850,615,637,659,681,695,709,723,738,752,766,780,794,808,822,836,850,752,766,780,794,808,822,836,850,752,766,780,794,808,822,836,850,615,637,659,681,695,709,723,738,752,766,780,794,808,822,836,850,752,766,780,794,808,822,836,850,752,766,780,794,808,822,836,850,752,766,780,794,808,822,836,850,752,766,780,794,808,822,836,850,752,766,780,794,808,822,836,850,615,637,659,681,695,709,723,738,752,766,780,794,808,822,836,850,752,766,780,794,808,822,836,850,752,766,780,794,808,822,836,850,752,766,780,794,808,822,836,850,615,637,659,681,695,709,723,738,752,766,780,794,808,822,836,850,752,766,780,794,808,822,836,850,864,878,892,912,932,954,976,0,0,0,0,0,0,0,0,0,0,0,0,0,0,0,0,0,0,0,0,0,0,0,0,0,0,0,0,0,0,0,0,0,0,0,0,0,0,0,0,0,0,0,0,0,0,0,0,0,616,638,660,682,696,710,724,739,753,767,781,795,809,823,837,851,753,767,781,795,809,823,837,851,753,767,781,795,809,823,837,851,753,767,781,795,809,823,837,851,753,767,781,795,809,823,837,851,616,638,660,682,696,710,724,739,753,767,781,795,809,823,837,851,753,767,781,795,809,823,837,851,753,767,781,795,809,823,837,851,616,638,660,682,696,710,724,739,753,767,781,795,809,823,837,851,753,767,781,795,809,823,837,851,753,767,781,795,809,823,837,851,753,767,781,795,809,823,837,851,753,767,781,795,809,823,837,851,753,767,781,795,809,823,837,851,616,638,660,682,696,710,724,739,753,767,781,795,809,823,837,851,753,767,781,795,809,823,837,851,753,767,781,795,809,823,837,851,753,767,781,795,809,823,837,851,616,638,660,682,696,710,724,739,753,767,781,795,809,823,837,851,753,767,781,795,809,823,837,851,865,879,893,913,933,955,977,0,0,0,0,0,0,0,0,0,0,0,0,0,0,0,0,0,0,0,0,0,0,0,0,0,0,0,0,0,0,0,0,0,0,0,0,0,0,0,0,0,0,0,0,0,0,0,0,0,617,639,661,683,697,711,725,740,754,768,782,796,810,824,838,852,754,768,782,796,810,824,838,852,754,768,782,796,810,824,838,852,754,768,782,796,810,824,838,852,754,768,782,796,810,824,838,852,617,639,661,683,697,711,725,740,754,768,782,796,810,824,838,852,754,768,782,796,810,824,838,852,754,768,782,796,810,824,838,852,617,639,661,683,697,711,725,740,754,768,782,796,810,824,838,852,754,768,782,796,810,824,838,852,754,768,782,796,810,824,838,852,754,768,782,796,810,824,838,852,754,768,782,796,810,824,838,852,754,768,782,796,810,824,838,852,617,639,661,683,697,711,725,740,754,768,782,796,810,824,838,852,754,768,782,796,810,824,838,852,754,768,782,796,810,824,838,852,754,768,782,796,810,824,838,852,617,639,661,683,697,711,725,740,754,768,782,796,810,824,838,852,754,768,782,796,810,824,838,852,866,880,894,914,934,956,978,0,0,0,0,0,0,0,0,0,0,0,0,0,0,0,0,0,0,0,0,0,0,0,0,0,0,0,0,0,0,0,0,0,0,0,0,0,0,0,0,0,0,0,0,0,0,0,0,0,618,640,662,684,698,712,726,741,755,769,783,797,811,825,839,853,755,769,783,797,811,825,839,853,755,769,783,797,811,825,839,853,755,769,783,797,811,825,839,853,755,769,783,797,811,825,839,853,618,640,662,684,698,712,726,741,755,769,783,797,811,825,839,853,755,769,783,797,811,825,839,853,755,769,783,797,811,825,839,853,618,640,662,684,698,712,726,741,755,769,783,797,811,825,839,853,755,769,783,797,811,825,839,853,755,769,783,797,811,825,839,853,755,769,783,797,811,825,839,853,755,769,783,797,811,825,839,853,755,769,783,797,811,825,839,853,618,640,662,684,698,712,726,741,755,769,783,797,811,825,839,853,755,769,783,797,811,825,839,853,755,769,783,797,811,825,839,853,755,769,783,797,811,825,839,853,618,640,662,684,698,712,726,741,755,769,783,797,811,825,839,853,755,769,783,797,811,825,839,853,867,881,895,915,935,957,979,0,0,0,0,0,0,0,0,0,0,0,0,0,0,0,0,0,0,0,0,0,0,0,0,0,0,0,0,0,0,0,0,0,0,0,0,0,0,0,0,0,0,0,0,0,0,0,0,0,619,641,663,685,699,713,727,742,756,770,784,798,812,826,840,854,756,770,784,798,812,826,840,854,756,770,784,798,812,826,840,854,756,770,784,798,812,826,840,854,756,770,784,798,812,826,840,854,619,641,663,685,699,713,727,742,756,770,784,798,812,826,840,854,756,770,784,798,812,826,840,854,756,770,784,798,812,826,840,854,619,641,663,685,699,713,727,742,756,770,784,798,812,826,840,854,756,770,784,798,812,826,840,854,756,770,784,798,812,826,840,854,756,770,784,798,812,826,840,854,756,770,784,798,812,826,840,854,756,770,784,798,812,826,840,854,619,641,663,685,699,713,727,742,756,770,784,798,812,826,840,854,756,770,784,798,812,826,840,854,756,770,784,798,812,826,840,854,756,770,784,798,812,826,840,854,619,641,663,685,699,713,727,742,756,770,784,798,812,826,840,854,756,770,784,798,812,826,840,854,868,882,896,916,936,958,980,0,0,0,0,0,0,0,0,0,0,0,0,0,0,0,0,0,0,0,0,0,0,0,0,0,0,0,0,0,0,0,0,0,0,0,0,0,0,0,0,0,0,0,0,0,0,0,0,0,620,642,664,686,700,714,728,743,757,771,785,799,813,827,841,855,757,771,785,799,813,827,841,855,757,771,785,799,813,827,841,855,757,771,785,799,813,827,841,855,757,771,785,799,813,827,841,855,620,642,664,686,700,714,728,743,757,771,785,799,813,827,841,855,757,771,785,799,813,827,841,855,757,771,785,799,813,827,841,855,620,642,664,686,700,714,728,743,757,771,785,799,813,827,841,855,757,771,785,799,813,827,841,855,757,771,785,799,813,827,841,855,757,771,785,799,813,827,841,855,757,771,785,799,813,827,841,855,757,771,785,799,813,827,841,855,620,642,664,686,700,714,728,743,757,771,785,799,813,827,841,855,757,771,785,799,813,827,841,855,757,771,785,799,813,827,841,855,757,771,785,799,813,827,841,855,620,642,664,686,700,714,728,743,757,771,785,799,813,827,841,855,757,771,785,799,813,827,841,855,869,883,897,917,937,959,981,0,0,0,0,0,0,0,0,0,0,0,0,0,0,0,0,0,0,0,0,0,0,0,0,0,0,0,0,0,0,0,0,0,0,0,0,0,0,0,0,0,0,0,0,0,0,0,0,0,621,643,665,687,701,715,729,744,758,772,786,800,814,828,842,856,758,772,786,800,814,828,842,856,758,772,786,800,814,828,842,856,758,772,786,800,814,828,842,856,758,772,786,800,814,828,842,856,621,643,665,687,701,715,729,744,758,772,786,800,814,828,842,856,758,772,786,800,814,828,842,856,758,772,786,800,814,828,842,856,621,643,665,687,701,715,729,744,758,772,786,800,814,828,842,856,758,772,786,800,814,828,842,856,758,772,786,800,814,828,842,856,758,772,786,800,814,828,842,856,758,772,786,800,814,828,842,856,758,772,786,800,814,828,842,856,621,643,665,687,701,715,729,744,758,772,786,800,814,828,842,856,758,772,786,800,814,828,842,856,758,772,786,800,814,828,842,856,758,772,786,800,814,828,842,856,621,643,665,687,701,715,729,744,758,772,786,800,814,828,842,856,758,772,786,800,814,828,842,856,870,884,898,918,938,960,982,0,0,0,0,0,0,0,0,0,0,0,0,0,0,0,0,0,0,0,0,0,0,0,0,0,0,0,0,0,0,0,0,0,0,0,0,0,0,0,0,0,0,0,0,0,0,0,0,0,622,644,666,688,702,716,730,745,759,773,787,801,815,829,843,857,759,773,787,801,815,829,843,857,759,773,787,801,815,829,843,857,759,773,787,801,815,829,843,857,759,773,787,801,815,829,843,857,622,644,666,688,702,716,730,745,759,773,787,801,815,829,843,857,759,773,787,801,815,829,843,857,759,773,787,801,815,829,843,857,622,644,666,688,702,716,730,745,759,773,787,801,815,829,843,857,759,773,787,801,815,829,843,857,759,773,787,801,815,829,843,857,759,773,787,801,815,829,843,857,759,773,787,801,815,829,843,857,759,773,787,801,815,829,843,857,622,644,666,688,702,716,730,745,759,773,787,801,815,829,843,857,759,773,787,801,815,829,843,857,759,773,787,801,815,829,843,857,759,773,787,801,815,829,843,857,622,644,666,688,702,716,730,745,759,773,787,801,815,829,843,857,759,773,787,801,815,829,843,857,871,885,899,919,939,961,983,0,0,0,0,0,0,0,0,0,0,0,0,0,0,0,0,0,0,0,0,0,0,0,0,0,0,0,0,0,0,0,0,0,0,0,0,0,0,0,0,0,0,0,0,0,0,0,0,0,0,0,0,0,0,0,0,0,0,0,0,0,0,0,0,0,0,0,0,0,0,0,0,0,0,0,0,0,0,0,0,0,0,0,0,0,0,0,0,0,0,0,0,0,0,0,0,0,0,0,0,0,0,0,0,0,0,0,0,0,0,0,0,0,0,0,0,0,0,0,0,0,0,0,0,0,0,0,0,0,0,0,0,0,0,0,0,0,0,0,0,0,0,0,0,0,0,0,0,0,0,0,0,0,0,0,0,0,0,0,0,0,0,0,0,0,0,0,0,0,0,0,0,0,0,0,0,0,0,0,0,0,0,0,0,0,0,0,0,0,0,0,0,0,0,0,0,0,0,0,0,0,0,0,0,0,0,0,0,0,0,0,0,0,0,0,0,0,0,0,0,0,0,0,0,0,0,0,0,0,0,0,0,0,0,0,0,0,0,0,0,0,0,0,0,0,0,0,0,0,0,0,0,0,0,0,0,0,0,0,0,0,0,0,0,0,0,0,0,0,0,0,0,0,0,0,0,0,0,0,0,0,0,0,0,0,0,0,0,0,0,0,0,0,0,0,0,0,0,0,0,0,0,0,0,0,0,0,0,0,0,0,0,0,0,0,0,0,0,0,0,0,0,0,0,0,0,0,0,0,0,0,0,0,0,0,0,0,0,0,0,0,0,0,0,0,0,0,0,0,0,0,0,0,0,0,0,0,0,0,0,0,0,0,0,0,0,0,0,0,0,0,0,0,0,0,0,0,0,0,0,0,0,0,0,0,0,0,0,0,0,0,0,0,0,0,0,0,0,0,0,0,0,0,0,0,0,0,0,0,0,0,0,0,0,0,0,0,0,0,0,0,0,0,0,0,0,0,0,0,0,0,0,0,0,0,0,0,0,0,0,0,0,0,0,0,0,0,0,0,0,0,0,0,0,0,0,0,0,0,0,0,0,0,0,0,0,0,0,0,0,0,0,0,0,0,0,0,0,0,0,0,0,0,0,0,0,0,0,0,0,0,0,0,0,0,0,0,0,0,0,0,0,0,0,0,0,0,0,0,0,0,0,0,0,0,0,0,0,0,0,0,0,0,0,0,0,0,0,0,0,0,0,0,0,0,0,0,0,0,0,0,0,0,0,0,0,0,0,0,0,0,0,0,0,0,0,0,0,0,0,0,0,0,0,0,0,0,0,0,0,0,0,0,0,0,0,0,0,0,0,0,0,0,0,0,0,0,0,0,0,0,0,0,0,0,0,0,0,0,0,0,0,0,0,0,0,0,0,0,0,0,0,0,0,0,0,0,0,0,0,0,0,0,0,0,0,0,0,0,0,0,0,0,0,0,0,0,0,0,0,0,0,0,0,0,0,0,0,0,0,0,0,0,0,0,0,0,0,0,0,0,0,0,0,0,0,0,0,0,0,0,0,0,0,0,0,0,0,0,0,0,0,0,0,0,0,0,0,0,0,0,0,0,0,0,0,0,0,0,0,0,0,0,0,0,0,0,0,0,0,0,0,0,0,0,0,0,0,0,0,0,0,0,0,0,0,0,0,0,0,0,0,0,0,0,0,0,0,0,0,0,0,0,0,0,0,0,0,0,0,0,0,0,0,0,0,0,0,0,0,0,0,0,0,0,0,0,0,0,0,0,0,0,0,0,0,0,0,0,0,0,0,0,0,0,0,0,0,0,0,0,0,0,0,0,0,0,0,0,0,0,0,0,0,0,0,0,0,0,0,0,0,0,0,0,0,0,0,0,0,0,0,0,0,0,0,0,0,0,0,0,0,0,0,0,0,0,0,0,0,0,0,0,0,0,0,0,0,0,0,0,0,0,0,0,0,0,0,0,0,0,0,0,0,0,0,0,0,0,0,0,0,0,0,0,0,0,0,0,0,0,0,0,0,0,0,0,0,0,0,0,0,0,0,0,0,0,0,0,0,0,0,0,0,0,0,0,0,0,0,0,0,0,0,0,0,0,0,0,0,0,0,0,0,0,0,0,0,0,0,0,0,0,0,0,0,0,0,0,0,0,0,0,0,0,0,0,0,0,0,0,0,0,0,0,0,0,0,0,0,0,0,0,0,0,0,0,0,0,0,0,0,0,0,0,0,0,0,0,0,0,0,0,0,0,0,0,0,0,0,0,0,0,0,0,0,0,0,0,0,0,0,0,0,0,0,0,0,0,0,0,0,0,0,0,0,0,0,0,0,0,0,0,0,0,0,0,0,0,0,0,0,0,0,0,0,0,0,0,0,0,0,0,0,0,0,0,0,0,0,0,0,0,0,0,0,0,0,0,0,0,0,0,0,0,0,0,0,0,0,0,0,0,0,0,0,0,0,0,0,0,0,0,0,0,0,0,0,0,0,0,0,0,0,0,0,0,0,0,0,0,0,0,0,0,0,0,0,0,0,0,0,0,0,0,0,0,0,0,0,0,0,0,0,0,0,0,0,0,0,0,0,0,0,0,0,0,0,0,0,0,0,0,0,0,0,0,0,0,0,0,0,0,0,0,0,0,0,0,0,0,0,0,0,0,0,0,0,0,0,0,0,0,0,0,0,0,0,0,0,0,0,0,0,0,0,0,0,0,0,0,0,0,0,0,0,0,0,0,0,0,0,0,0,0,0,0,0,0,0,0,0,0,0,0,0,0,0,0,0,0,0,0,0,0,0,0,0,0,0,0,0,0,0,0,0,0,0,0,0,0,0,0,0,0,0,0,0,0,0,0,0,0,0,0,0,0,0,0,0,0,0,0,0,0,0,0,0,0,0,0,0,0,0,0,0,0,0,0,0,0,0,0,0,0,0,0,0,0,0,0,0,0,0,0,0,0,0,0,0,0,0,0,0,0,0,0,0,0,0,0,0,0,0,0,0,0,0,0,0,0,0,0,0,0,0,0,0,0,0,0,0,0,0,0,0,0,0,0,0,0,0,0,0,0,0,0,0,0,0,0,0,0,0,0,0,0,0,0,0,0,0,0,0,0,0,0,0,0,0,0,0,0,0,0,0,0,0,0,0,0,0,0,0,0,0,0,0,0,0,0,0,0,0,0,0,0,0,0,0,0,0,0,0,0,0,0,0,0,0,0,0,0,0,0,0,0,0,0,0,0,0,0,0,0,0,0,0,0,0,0,0,0,0,0,0,0,0,0,0,0,0,0,0,0,0,0,0,0,0,0,0,0,0,0,0,0,0,0,0,0,0,0,0,0,0,0,0,0,0,0,0,0,0,0,0,0,0,0,0,0,0,0,0,0,0,0,0,0,0,0,0,0,0,0,0,0,0,0,0,0,0,0,0,0,0,0,0,0,0,0,0,0,0,0,0,0,0,0,0,0,0,0,0,0,0,0,0,0,0,0,0,0,0,0,0,0,0,0,0,0,0,0,0,0,0,0,0,0,0,0,0,0,0,0,0,0,0,0,0,0,0,0,0,0,0,0,0,0,0,0,0,0,0,0,0,0,0,0,0,0,0,0,0,0,0,0,0,0,0,0,0,0,0,0,0,0,0,0,0,0,0,0,0,0,0,0,0,0,0,0,0,0,0,0,0,0,0,0,0,0,0,0,0,0,0,0,0,0,0,0,0,0,0,0,0,0,0,0,0,0,0,0,0,0,0,0,0,0,0,0,0,0,0,0,0,0,0,0,0,0,0,0,0,0,0,0,0,0,0,0,0,0,0,0,0,0,0,0,0,0,0,0,0,0,0,0,0,0,0,0,0,0,0,0,0,0,0,0,0,0,0,0,0,0,0,0,0,0,0,0,0,0,0,0,0,0,0,0,0,0,0,0,0,0,0,0,0,0,0,0,0,0,0,0,0,0,0,0,0,0,0,0,0,0,0,0,0,0,0,0,0,0,0,0,0,0,0,0,0,0,0,0,0,0,0,0,0,0,0,0,0,0,0,0,0,0,0,0,0,0,0,0,0,0,0,0,0,0,0,0,0,0,0,0,0,0,0,0,0,0,0,0,0,0,0,0,0,0,0,0,0,0,0,0,0,0,0,0,0,0,0,0,0,0,0,0,0,0,0,0,0,0,0,0,0,0,0,0,0,0,0,0,0,0,0,0,0,0,0,0,0,0,0,0,0,0,0,0,0,0,0,0,0,0,0,0,0,0,0,0,0,0,0,0,0,0,0,0,0,0,0,0,0,0,0,0,0,0,0,0,0,0,0,0,0,0,0,0,0,0,0,0,0,0,0,0,0,0,0,0,0,0,0,0,0,0,0,0,0,0,0,0,0,0,0,0,0,0,0,0,0,0,0,0,0,0,0,0,0,0,0,0,0,0,0,0,0,0,0,0,0,0,0,0,0,0,0,0,0,0,0,0,0,0,0,0,0,0,0,0,0,0,0,0,0,0,0,0,0,0,0,0,0,0,0,0,0,0,0,0,0,0,0,0,0,0,0,0,0,0,0,0,0,0,0,0,0,0,0,0,0,0,0,0,0,0,0,0,0,0,0,0,0,0,0,0,0,0,0,0,0,0,0,0,0,0,0,0,0,0,0,0,0,0,0,0,0,0,0,0,0,0,0,0,0,0,0,0,0,0,0,0,0,0,0,0,0,0,0,0,0,0,0,0,0,0,0,0,0,0,0,0,0,0,0,0,0,0,0,0,0,0,0,0,0,0,0,0,0,0,0,0,0,0,0,0,0,0,0,0,0,0,0,0,0,0,0,0,0,0,0,0,0,0,0,0,0,0,0,0,0,0,0,0,0,0,0,0,0,0,0,0,0,0,0,0,0,0,0,0,0,0,0,0,0,0,0,0,0,0,0,0,0,0,0,0,0,0,0,0,0,0,0,0,0,0,0,0,0,0,0,0,0,0,0,0,0,0,0,0,0,0,0,0,0,0,0,0,0,0,0,0,0,0,0,0,0,0,0,0,0,0,0,0,0,0,0,0,0,0,0,0,0,0,0,0,0,0,0,0,0,0,0,0,0,0,0,0,0,0,0,0,0,0,0,0,0,0,0,0,0,0,0,0,0,0,0,0,0,0,0,0,0,0,0,0,0,0,0,0,0,0,0,0,0,0,0,0,0,0,0,0,0,0,0,0,0,0,0,0,0,0,0,0,0,0,0,0,0,0,0,0,0,0,0,0,0,0,0,0,0,0,0,0,0,0,0,0,0,0,0,0,0,0,0,0,0,0,0,0,0,0,0,0,0,0,0,0,0,0,0,0,0,0,0,0,0,0,0,0,0,0,0,0,0,0,0,0,0,0,0,0,0,0,0,0,0,0,0,0,0,0,0,0,0,0,0,0,0,0,0,0,0,0,0,0,0,0,0,0,0,0,0,0,0,0,0,0,0,0,0,0,0,0,0,0,0,0,0,0,0,0,0,0,0,0,0,0,0,0,0,0,0,0,0,0,0,0,0,0,0,0,0,0,0,0,0,0,0,0,0,0,0,0,0,0,0,0,0,0,0,0,0,0,0,0,0,0,0,0,0,0,0,0,0,0,0,0,0,0,0,0,0,0,0,0,0,0,0,0,0,0,0,0,0,0,0,0,0,0,0,0,0,0,0,0,0,0,0,0,0,0,0,0,0,0,0,0,0,0,0,0,0,0,0,0,0,0,0,0,0,0,0,0,0,0,0,0,0,0,0,0,0,0,0,0,0,0,0,0,0,0,0,0,0,0,0,0,0,0,0,0,0,0,0,0,0,0,0,0,0,0,0,0,0,0,0,0,0,0,0,0,0,0,0,0,0,0,0,0,0,0,0,0,0,0,0,0,0,0,0,0,0,0,0,0,0,0,0,0,0,0,0,0,0,0,0,0,0,0,0,0,0,0,0,0,0,0,0,0,0,0,0,0,0,0,0,0,0,0,0,0,0,0,0,0,0,0,0,0,0,0,0,0,0,0,0,0,0,0,0,0,0,0,0,0,0,0,0,0,0,0,0,0,0,0,0,0,0,0,0,0,0,0,0,0,0,0,0,0,0,0,0,0,0,0,0,0,0,0,0,0,0,0,0,0,0,0,0,0,0,0,0,0,0,0,0,0,0,0,0,0,0,0,0,0,0,0,0,0,0,0,0,0,0,0,0,0,0,0,0,0,0,0,0,0,0,0,0,0,0,0,0,0,0,0,0,0,0,0,0,0,0,0,0,0,0,0,0,0,0,0,0,0,0,0,0,0,0,0,0,0,0,0,0,0,0,0,0,0,0,0,0,0,0,0,0,0,0,0,0,0,0,0,0,0,0,0,0,0,0,0,0,0,0,0,0,0,0,0,0,0,0,0,0,0,0,0,0,0,0,0,0,0,0,0,0,0,0,0,0,0,0,0,0,0,0,0,0,0,0,0,0,0,0,0,0,0,0,0,0,0,0,0,0,0,0,0,0,0,0,0,0,0,0,0,0,0,0,0,0,0,0,0,0,0,0,0,0,0,0,0,0,0,0,0,0,0,0,0,0,0,0,0,0,0,0,0,0,0,0,0,0,0,0,0,0,0,0,0,0,0,0,0,0,0,0,0,0,0,0,0,0,0,0,0,0,0,0,0,0,0,0,0,0,0,0,0,0,0,0,0,0,0,0,0,0,0,0,0,0,0,0,0,0,0,0,0,0,0,0,0,0,0,0,0,0,0,0,0,0,0,0,0,0,0,0,0,0,0,0,0,0,0,0,0,0,0,0,0,0,0,0,0,0,0,0,0,0,0,0,0,0,0,0,0,0,0,0,0,0,0,0,0,0,0,0,0,0,0,0,0,0,0,0,0,0,0,0,0,0,0,0,0,0,0,0,0,0,0,0,0,0,0,0,0,0,0,0,0,0,0,0,0,0,0,0,0,0,0,0,0,0,0,0,0,0,0,0,0,0,0,0,0,0,0,0,0,0,0,0,0,0,0,0,0,0,0,0,0,0,0,0,0,0,0,0,0,0,0,0,0,0,0,0,0,0,0,0,0,0,0,0,0,0,0,0,0,0,0,0,0,0,0,0,0,0,0,0,0,0,0,0,0,0,0,0,0,0,0,0,0,0,0,0,0,0,0,0,0,0,0,0,0,0,0,0,0,0,0,0,0,0,0,0,0,0,0,0,0,0,0,0,0,0,0,0,0,0,0,0,0,0,0,0,0,0,0,0,0,0,0,0,0,0,0,0,0,0,0,0,0,0,0,0,0,0,0,0,0,0,0,0,0,0,0,0,0,0,0,0,0,0,0,0,0,0,0,0,0,0,0,0,0,0,0,0,0,0,0,0,0,0,0,0,0,0,0,0,0,0,0,0,0,0,0,0,0,0,0,0,0,0,0,0,0,0,0,0,0,0,0,0,0,0,0,0,0,0,0,0,0,0,0,0,0,0,0,0,0,0,0,0,0,0,0,0,0,0,0,0,0,0,0,0,0,0,0,0,0,0,0,0,0,0,0,0,0,0,0,0,0,0,0,0,0,0,0,0,0,0,0,0,0,0,0,0,0,0,0,0,0,0,0,0,0,0,0,0,0,0,0,0,0,0,0,0,0,0,0,0,0,0,0,0,0,0,0,0,0,0,0,0,0,0,0,0,0,0,0,0,0,0,0,0,0,0,0,0,0,0,0,0,0,0,0,0,0,0,0,0,0,0,0,0,0,0,0,0,0,0,0,0,0,0,0,0,0,0,0,0,0,0,0,0,0,0,0,0,0,0,0,0,0,0,0,0,0,0,0,0,0,0,0,0,0,0,0,0,0,0,0,0,0,0,0,0,0,0,0,0,0,0,0,0,0,0,0,0,0,0,0,0,0,0,0,0,0,0,0,0,0,0,0,0,0,0,0,0,0,0,0,0,0,0,0,0,0,0,0,0,0,0,0,0,0,0,0,0,0,0,0,0,0,0,0,0,0,0,0,0,0,0,0,0,0,0,0,0,0,0,0,0,0,0,0,0,0,0,0,0,0,0,0,0,0,0,0,0,0,0,0,0,0,0,0,0,0,0,0,0,0,0,0,0,0,0,0,0,0,0,0,0,0,0,0,0,0,0,0,0,0,0,0,0,0,0,0,0,0,0,0,0,0,0,0,0,0,0,0,0,0,0,0,0,0,0,0,0,0,0,0,0,0,0,0,0,0,0,0,0,0,0,0,0,0,0,0,0,0,0,0,0,0,0,0,0,0,0,0,0,0,0,0,0,0,0,0,0,0,0,0,0,0,0,0,0,0,0,0,0,0,0,0,0,0,0,0,0,0,0,0,0,0,0,0,0,0,0,0,0,0,0,0,0,0,0,0,0,0,0,0,0,0,0,0,0,0,0,0,0,0,0,0,0,0,0,0,0,0,0,0,0,0,0,0,0,0,0,0,0,0,0,0,0,0,0,0,0,0,0,0,0,0,0,0,0,0,0,0,0,0,0,0,0,0,0,0,0,0,0,0,0,0,0,0,0,0,0,0,0,0,0,0,0,0,0,0,0,0,0,0,0,0,0,0,0,0,0,0,0,0,0,0,0,0,0,0,0,0,0,0,0,0,0,0,0,0,0,0,0,0,0,0,0,0,0,0,0,0,0,0,0,0,0,0,0,0,0,0,0,0,0,0,0,0,0,0,0,0,0,0,0,0,0,0,0,0,0,0,0,0,0,0,0,0,0,0,0,0,0,0,0,0,0,0,0,0,0,0,0,0,0,0,0,0,0,0,0,0,0,0,0,0,0,0,0,0,0,0,0,0,0,0,0,0,0,0,0,0,0,0,0,0,0,0,0,0,0,0,0,0,0,0,0,0,0,0,0,0,0,0,0,0,0,0,0,0,0,0,0,0,0,0,0,0,0,0,0,0,0,0,0,0,0,0,0,0,0,0,0,0,0,0,0,0,0,0,0,0,0,0,0,0,0,0,0,0,0,0,0,0,0,0,0,0,0,0,0,0,0,0,0,0,0,0,0,0,0,0,0,0,0,0,0,0,0,0,0,0,0,0,0,0,0,0,0,0,0,0,0,0,0,0,0,0,0,0,0,0,0,0,0,0,0,0,0,0,0,0,0,0,0,0,0,0,0,0,0,0,0,0,0,0,0,0,0,0,0,0,0,0,0,0,0,0,0,0,0,0,0,0,0,0,0,0,0,0,0,0,0,0,0,0,0,0,0,0,0,0,0,0,0,0,0,0,0,0,0,0,0,0,0,0,0,0,0,0,0,0,0,0,0,0,0,0,0,0,0,0,0,0,0,0,0,0,0,0,0,0,0,0,0,0,0,0,0,0,0,0,0,0,0,0,0,0,0,0,0,0,0,0,0,0,0,0,0,0,0,0,0,0,0,0,0,0,0,0,0,0,0,0,0,0,0,0,0,0,0,0,0,0,0,0,0,0,0,0,0,0,0,0,0,0,0,0,0,0,0,0,0,0,0,0,0,0,0,0,0,0,0,0,0,0,0,0,0,0,0,0,0,0,0,0,0,0,0,0,0,0,0,0,0,0,0,0,0,0,0,0,0,0,0,0,0,0,0,0,0,0,0,0,0,0,0,0,0,0,0,0,0,0,0,0,0,0,0,0,0,0,0,0,0,0,0,0,0,0,0,0,0,0,0,0,0,0,0,0,0,0,0,0,0,0,0,0,0,0,0,0,0,0,0,0,0,0,0,0,0,0,0,0,0,0,0,0,0,0,0,0,0,0,0,0,0,0,0,0,0,0,0,0,0,0,0,0,0,0,0,0,0,0,0,0,0,0,0,0,0,0,0,0,0,0,0,0,0,0,0,0,0,0,0,0,0,0,0,0,0,0,0,0,0,0,0,0,0,0,0,0,0,0,0,0,0,0,0,0,0,0,0,0,0,0,0,0,0,0,0,0,0,0,0,0,0,0,0,0,0,0,0,0,0,0,0,0,0,0,0,0,0,0,0,0,0,0,0,0,0,0,0,0,0,0,0,0,0,0,0,0,0,0,0,0,0,0,0,0,0,0,0,0,0,0,0,0,0,0,0,0,0,0,0,0,0,0,0,0,0,0,0,0,0,0,0,0,0,0,0,0,0,0,0,0,0,0,0,0,0,0,0,0,0,0,0,0,0,0,0,0,0,0,0,0,0,0,0,0,0,0,0,0,0,0,0,0,0,0,0,0,0,0,0,0,0,0,0,0,0,0,0,0,0,0,0,0,0,0,0,0,0,0,0,0,0,0,0,0,0,0,0,0,0,0,0,0,0,0,0,0,0,0,0,0,0,0,0,0,0,0,0,0,0,0,0,0,0,0,0,0,0,0,0,0,0,0,0,0,0,0,0,0,0,0,0,0,0,0,0,0,0,0,0,0,0,0,0,0,0,0,0,0,0,0,0,0,0,0,0,0,0,0,0,0,0,0,0,0,0,0,0,0,0,0,0,0,0,0,0,0,0,0,0,0,0,0,0,0,0,0,0,0,0,0,0,0,0,0,0,0,0,0,0,0,0,0,0,0,0,0,0,0,0,0,0,0,0,0,0,0,0,0,0,0,0,0,0,0,0,0,0,0,0,0,0,0,0,0,0,0,0,0,0,0,0,0,0,0,0,0,0,0,0,0,0,0,0,0,0,0,0,0,0,0,0,0,0,0,0,0,0,0,0,0,0,0,0,0,0,0,0,0,0,0,0,0,0,0,0,0,0,0,0,0,0,0,0,0,0,0,0,0,0,0,0,0,0,0,0,0,0,0,0,0,0,0,0,0,0,0,0,0,0,0,0,0,0,0,0,0,0,0,0,0,0,0,0,0,0,0,0,0,0,0,0,0,0,0,0,0,0,0,0,0,0,0,0,0,0,0,0,0,0,0,0,0,0,0,0,0,0,0,0,0,0,0,0,0,0,0,0,0,0,0,0,0,0,0,0,0,0,0,0,0,0,0,0,0,0,0,0,0,0,0,0,0,0,0,0,0,0,0,0,0,0,0,0,0,0,0,0,0,0,0,0,0,0,0,0,0,0,0,0,0,0,0,0,0,0,0,0,0,0,0,513,535,557,579,0,0,0,0,0,0,0,0,0,0,0,0,0,0,0,0,0,0,0,0,0,0,0,0,0,0,0,0,0,0,0,0,0,0,0,0,0,0,0,0,0,0,0,0,0,0,0,0,0,0,0,0,0,0,0,0,0,0,0,0,0,0,0,0,0,0,0,0,0,0,0,0,0,0,0,0,0,0,0,0,0,0,0,0,0,0,0,0,0,0,0,0,0,0,0,0,0,0,0,0,0,0,0,0,0,0,0,0,0,0,0,0,0,0,0,0,0,0,0,0,0,0,0,0,0,0,0,0,0,0,0,0,0,0,0,0,0,0,0,0,0,0,0,0,0,0,0,0,0,0,0,0,0,0,0,0,0,0,0,0,0,0,0,0,0,0,0,0,0,0,0,0,0,0,0,0,0,0,0,0,0,0,0,0,0,0,0,0,0,0,0,0,0,0,0,0,0,0,0,0,0,0,0,0,0,0,0,0,0,0,0,0,0,0,0,0,0,0,0,0,0,0,0,0,0,0,0,0,0,0,0,0,0,0,0,0,0,0,0,0,0,0,0,0,0,0,0,0,0,0,0,0,514,536,558,580,0,0,0,0,0,0,0,0,0,0,0,0,0,0,0,0,0,0,0,0,0,0,0,0,0,0,0,0,0,0,0,0,0,0,0,0,0,0,0,0,0,0,0,0,0,0,0,0,0,0,0,0,0,0,0,0,0,0,0,0,0,0,0,0,0,0,0,0,0,0,0,0,0,0,0,0,0,0,0,0,0,0,0,0,0,0,0,0,0,0,0,0,0,0,0,0,0,0,0,0,0,0,0,0,0,0,0,0,0,0,0,0,0,0,0,0,0,0,0,0,0,0,0,0,0,0,0,0,0,0,0,0,0,0,0,0,0,0,0,0,0,0,0,0,0,0,0,0,0,0,0,0,0,0,0,0,0,0,0,0,0,0,0,0,0,0,0,0,0,0,0,0,0,0,0,0,0,0,0,0,0,0,0,0,0,0,0,0,0,0,0,0,0,0,0,0,0,0,0,0,0,0,0,0,0,0,0,0,0,0,0,0,0,0,0,0,0,0,0,0,0,0,0,0,0,0,0,0,0,0,0,0,0,0,0,0,0,0,0,0,0,0,0,0,0,0,0,0,0,0,0,0,515,537,559,581,0,0,0,0,0,0,0,0,0,0,0,0,0,0,0,0,0,0,0,0,0,0,0,0,0,0,0,0,0,0,0,0,0,0,0,0,0,0,0,0,0,0,0,0,0,0,0,0,0,0,0,0,0,0,0,0,0,0,0,0,0,0,0,0,0,0,0,0,0,0,0,0,0,0,0,0,0,0,0,0,0,0,0,0,0,0,0,0,0,0,0,0,0,0,0,0,0,0,0,0,0,0,0,0,0,0,0,0,0,0,0,0,0,0,0,0,0,0,0,0,0,0,0,0,0,0,0,0,0,0,0,0,0,0,0,0,0,0,0,0,0,0,0,0,0,0,0,0,0,0,0,0,0,0,0,0,0,0,0,0,0,0,0,0,0,0,0,0,0,0,0,0,0,0,0,0,0,0,0,0,0,0,0,0,0,0,0,0,0,0,0,0,0,0,0,0,0,0,0,0,0,0,0,0,0,0,0,0,0,0,0,0,0,0,0,0,0,0,0,0,0,0,0,0,0,0,0,0,0,0,0,0,0,0,0,0,0,0,0,0,0,0,0,0,0,0,0,0,0,0,0,0,516,538,560,582,0,0,0,0,0,0,0,0,0,0,0,0,0,0,0,0,0,0,0,0,0,0,0,0,0,0,0,0,0,0,0,0,0,0,0,0,0,0,0,0,0,0,0,0,0,0,0,0,0,0,0,0,0,0,0,0,0,0,0,0,0,0,0,0,0,0,0,0,0,0,0,0,0,0,0,0,0,0,0,0,0,0,0,0,0,0,0,0,0,0,0,0,0,0,0,0,0,0,0,0,0,0,0,0,0,0,0,0,0,0,0,0,0,0,0,0,0,0,0,0,0,0,0,0,0,0,0,0,0,0,0,0,0,0,0,0,0,0,0,0,0,0,0,0,0,0,0,0,0,0,0,0,0,0,0,0,0,0,0,0,0,0,0,0,0,0,0,0,0,0,0,0,0,0,0,0,0,0,0,0,0,0,0,0,0,0,0,0,0,0,0,0,0,0,0,0,0,0,0,0,0,0,0,0,0,0,0,0,0,0,0,0,0,0,0,0,0,0,0,0,0,0,0,0,0,0,0,0,0,0,0,0,0,0,0,0,0,0,0,0,0,0,0,0,0,0,0,0,0,0,0,0,517,539,561,583,0,0,0,0,0,0,0,0,0,0,0,0,0,0,0,0,0,0,0,0,0,0,0,0,0,0,0,0,0,0,0,0,0,0,0,0,0,0,0,0,0,0,0,0,0,0,0,0,0,0,0,0,0,0,0,0,0,0,0,0,0,0,0,0,0,0,0,0,0,0,0,0,0,0,0,0,0,0,0,0,0,0,0,0,0,0,0,0,0,0,0,0,0,0,0,0,0,0,0,0,0,0,0,0,0,0,0,0,0,0,0,0,0,0,0,0,0,0,0,0,0,0,0,0,0,0,0,0,0,0,0,0,0,0,0,0,0,0,0,0,0,0,0,0,0,0,0,0,0,0,0,0,0,0,0,0,0,0,0,0,0,0,0,0,0,0,0,0,0,0,0,0,0,0,0,0,0,0,0,0,0,0,0,0,0,0,0,0,0,0,0,0,0,0,0,0,0,0,0,0,0,0,0,0,0,0,0,0,0,0,0,0,0,0,0,0,0,0,0,0,0,0,0,0,0,0,0,0,0,0,0,0,0,0,0,0,0,0,0,0,0,0,0,1044,10465,10479,10493,10507,10521,10535,10549,10563,518,540,562,584,0,0,0,0,0,0,0,0,0,0,0,0,0,0,0,0,0,0,0,0,0,0,0,0,0,0,0,0,0,0,0,0,0,0,0,0,0,0,0,0,0,0,0,0,0,0,0,0,0,0,0,0,0,0,0,0,0,0,0,0,0,0,0,0,0,0,0,0,0,0,0,0,0,0,0,0,0,0,0,0,0,0,0,0,0,0,0,0,0,0,0,0,0,0,0,0,0,0,0,0,0,0,0,0,0,0,0,0,0,0,0,0,0,0,0,0,0,0,0,0,0,0,0,0,0,0,0,0,0,0,0,0,0,0,0,0,0,0,0,0,0,0,0,0,0,0,0,0,0,0,0,0,0,0,0,0,0,0,0,0,0,0,0,0,0,0,0,0,0,0,0,0,0,0,0,0,0,0,0,0,0,0,0,0,0,0,0,0,0,0,0,0,0,0,0,0,0,0,0,0,0,0,0,0,0,0,0,0,0,0,0,0,0,0,0,0,0,0,0,0,0,0,0,0,0,0,0,0,0,0,0,0,0,0,0,0,0,0,0,0,0,0,0,1045,10466,10480,10494,10508,10522,10536,10550,10564,519,541,563,585,0,0,0,0,0,0,0,0,0,0,0,0,0,0,0,0,0,0,0,0,0,0,0,0,0,0,0,0,0,0,0,0,0,0,0,0,0,0,0,0,0,0,0,0,0,0,0,0,0,0,0,0,0,0,0,0,0,0,0,0,0,0,0,0,0,0,0,0,0,0,0,0,0,0,0,0,0,0,0,0,0,0,0,0,0,0,0,0,0,0,0,0,0,0,0,0,0,0,0,0,0,0,0,0,0,0,0,0,0,0,0,0,0,0,0,0,0,0,0,0,0,0,0,0,0,0,0,0,0,0,0,0,0,0,0,0,0,0,0,0,0,0,0,0,0,0,0,0,0,0,0,0,0,0,0,0,0,0,0,0,0,0,0,0,0,0,0,0,0,0,0,0,0,0,0,0,0,0,0,0,0,0,0,0,0,0,0,0,0,0,0,0,0,0,0,0,0,0,0,0,0,0,0,0,0,0,0,0,0,0,0,0,0,0,0,0,0,0,0,0,0,0,0,0,0,0,0,0,0,0,0,0,0,0,0,0,0,0,0,0,0,1012,1028,1046,10467,10481,10495,10509,10523,10537,10551,10565,520,542,564,586,0,0,0,0,0,0,0,0,0,0,0,0,0,0,0,0,0,0,0,0,0,0,0,0,0,0,0,0,0,0,0,0,0,0,0,0,0,0,0,0,0,0,0,0,0,0,0,0,0,0,0,0,0,0,0,0,0,0,0,0,0,0,0,0,0,0,0,0,0,0,0,0,0,0,0,0,0,0,0,0,0,0,0,0,0,0,0,0,0,0,0,0,0,0,0,0,0,0,0,0,0,0,0,0,0,0,0,0,0,0,0,0,0,0,0,0,0,0,0,0,0,0,0,0,0,0,0,0,0,0,0,0,0,0,0,0,0,0,0,0,0,0,0,0,0,0,0,0,0,0,0,0,0,0,0,0,0,0,0,0,0,0,0,0,0,0,0,0,0,0,0,0,0,0,0,0,0,0,0,0,0,0,0,0,0,0,0,0,0,0,0,0,0,0,0,0,0,0,0,0,0,0,0,0,0,0,0,0,0,0,0,0,0,0,0,0,0,0,0,0,0,0,0,0,0,0,0,0,0,0,0,0,0,0,0,0,0,0,0,0,0,1013,1029,1047,10468,10482,10496,10510,10524,10538,10552,10566,521,543,565,587,601,623,645,667,0,0,0,0,0,0,0,0,0,0,0,0,0,0,0,0,0,0,0,0,0,0,0,0,0,0,0,0,0,0,0,0,0,0,0,0,0,0,0,0,0,0,0,0,0,0,0,0,0,0,0,0,0,0,0,0,0,0,0,0,0,0,0,0,0,0,0,0,0,0,0,0,0,0,0,0,0,0,0,0,0,0,0,0,0,0,0,0,0,0,0,0,0,0,0,0,0,0,0,0,0,0,0,0,0,0,0,0,0,0,0,0,0,0,0,0,0,0,0,0,0,0,0,0,0,0,0,0,0,0,0,0,0,0,0,0,0,0,0,0,0,0,0,0,0,0,0,0,0,0,0,0,0,0,0,0,0,0,0,0,0,0,0,0,0,0,0,0,0,0,0,0,0,0,0,0,0,0,0,0,0,0,0,0,0,0,0,0,0,0,0,0,0,0,0,0,0,0,0,0,0,0,0,0,0,0,0,0,0,0,0,0,0,0,0,0,0,0,0,0,0,0,0,0,0,0,0,0,0,0,0,0,0,940,962,984,998,1014,1030,1048,10469,10483,10497,10511,10525,10539,10553,10567,522,544,566,588,602,624,646,668,0,0,0,0,0,0,0,0,0,0,0,0,0,0,0,0,0,0,0,0,0,0,0,0,0,0,0,0,0,0,0,0,0,0,0,0,0,0,0,0,0,0,0,0,0,0,0,0,0,0,0,0,0,0,0,0,0,0,0,0,0,0,0,0,0,0,0,0,0,0,0,0,0,0,0,0,0,0,0,0,0,0,0,0,0,0,0,0,0,0,0,0,0,0,0,0,0,0,0,0,0,0,0,0,0,0,0,0,0,0,0,0,0,0,0,0,0,0,0,0,0,0,0,0,0,0,0,0,0,0,0,0,0,0,0,0,0,0,0,0,0,0,0,0,0,0,0,0,0,0,0,0,0,0,0,0,0,0,0,0,0,0,0,0,0,0,0,0,0,0,0,0,0,0,0,0,0,0,0,0,0,0,0,0,0,0,0,0,0,0,0,0,0,0,0,0,0,0,0,0,0,0,0,0,0,0,0,0,0,0,0,0,0,0,0,0,0,0,0,0,0,0,0,0,0,0,0,0,0,0,0,0,0,941,963,985,999,1015,1031,1049,10470,10484,10498,10512,10526,10540,10554,10568,523,545,567,589,603,625,647,669,0,0,0,0,0,0,0,0,0,0,0,0,0,0,0,0,0,0,0,0,0,0,0,0,0,0,0,0,0,0,0,0,0,0,0,0,0,0,0,0,0,0,0,0,0,0,0,0,0,0,0,0,0,0,0,0,0,0,0,0,0,0,0,0,0,0,0,0,0,0,0,0,0,0,0,0,0,0,0,0,0,0,0,0,0,0,0,0,0,0,0,0,0,0,0,0,0,0,0,0,0,0,0,0,0,0,0,0,0,0,0,0,0,0,0,0,0,0,0,0,0,0,0,0,0,0,0,0,0,0,0,0,0,0,0,0,0,0,0,0,0,0,0,0,0,0,0,0,0,0,0,0,0,0,0,0,0,0,0,0,0,0,0,0,0,0,0,0,0,0,0,0,0,0,0,0,0,0,0,0,0,0,0,0,0,0,0,0,0,0,0,0,0,0,0,0,0,0,0,0,0,0,0,0,0,0,0,0,0,0,0,0,0,0,0,0,0,0,0,0,0,0,0,0,0,0,0,0,0,0,0,900,920,942,964,986,1000,1016,1032,1050,10471,10485,10499,10513,10527,10541,10555,10569,524,546,568,590,604,626,648,670,0,0,0,0,0,0,0,0,0,0,0,0,0,0,0,0,0,0,0,0,0,0,0,0,0,0,0,0,0,0,0,0,0,0,0,0,0,0,0,0,0,0,0,0,0,0,0,0,0,0,0,0,0,0,0,0,0,0,0,0,0,0,0,0,0,0,0,0,0,0,0,0,0,0,0,0,0,0,0,0,0,0,0,0,0,0,0,0,0,0,0,0,0,0,0,0,0,0,0,0,0,0,0,0,0,0,0,0,0,0,0,0,0,0,0,0,0,0,0,0,0,0,0,0,0,0,0,0,0,0,0,0,0,0,0,0,0,0,0,0,0,0,0,0,0,0,0,0,0,0,0,0,0,0,0,0,0,0,0,0,0,0,0,0,0,0,0,0,0,0,0,0,0,0,0,0,0,0,0,0,0,0,0,0,0,0,0,0,0,0,0,0,0,0,0,0,0,0,0,0,0,0,0,0,0,0,0,0,0,0,0,0,0,0,0,0,0,0,0,0,0,0,0,0,0,0,0,0,0,0,0,901,921,943,965,987,1001,1017,1033,1051,10472,10486,10500,10514,10528,10542,10556,10570,525,547,569,591,605,627,649,671,0,0,0,0,0,0,0,0,0,0,0,0,0,0,0,0,0,0,0,0,0,0,0,0,0,0,0,0,0,0,0,0,0,0,0,0,0,0,0,0,0,0,0,0,0,0,0,0,0,0,0,0,0,0,0,0,0,0,0,0,0,0,0,0,0,0,0,0,0,0,0,0,0,0,0,0,0,0,0,0,0,0,0,0,0,0,0,0,0,0,0,0,0,0,0,0,0,0,0,0,0,0,0,0,0,0,0,0,0,0,0,0,0,0,0,0,0,0,0,0,0,0,0,0,0,0,0,0,0,0,0,0,0,0,0,0,0,0,0,0,0,0,0,0,0,0,0,0,0,0,0,0,0,0,0,0,0,0,0,0,0,0,0,0,0,0,0,0,0,0,0,0,0,0,0,0,0,0,0,0,0,0,0,0,0,0,0,0,0,0,0,0,0,0,0,0,0,0,0,0,0,0,0,0,0,0,0,0,0,0,0,0,0,0,0,0,0,0,0,0,0,0,0,0,0,0,0,0,0,0,0,902,922,944,966,988,1002,1018,1034,1052,10473,10487,10501,10515,10529,10543,10557,10571,526,548,570,592,606,628,650,672,0,0,0,0,0,0,0,0,0,0,0,0,0,0,0,0,0,0,0,0,0,0,0,0,0,0,0,0,0,0,0,0,0,0,0,0,0,0,0,0,0,0,0,0,0,0,0,0,0,0,0,0,0,0,0,0,0,0,0,0,0,0,0,0,0,0,0,0,0,0,0,0,0,0,0,0,0,0,0,0,0,0,0,0,0,0,0,0,0,0,0,0,0,0,0,0,0,0,0,0,0,0,0,0,0,0,0,0,0,0,0,0,0,0,0,0,0,0,0,0,0,0,0,0,0,0,0,0,0,0,0,0,0,0,0,0,0,0,0,0,0,0,0,0,0,0,0,0,0,0,0,0,0,0,0,0,0,0,0,0,0,0,0,0,0,0,0,0,0,0,0,0,0,0,0,0,0,0,0,0,0,0,0,0,0,0,0,0,0,0,0,0,0,0,0,0,0,0,0,0,0,0,0,0,0,0,0,0,0,0,0,0,0,0,0,0,0,0,0,0,0,0,0,0,0,0,0,0,0,0,0,903,923,945,967,989,1003,1019,1035,1049,10470,10484,10498,10512,10526,10540,10554,10568,527,549,571,593,607,629,651,673,0,0,0,0,0,0,0,0,0,0,0,0,0,0,0,0,0,0,0,0,0,0,0,0,0,0,0,0,0,0,0,0,0,0,0,0,0,0,0,0,0,0,0,0,0,0,0,0,0,0,0,0,0,0,0,0,0,0,0,0,0,0,0,0,0,0,0,0,0,0,0,0,0,0,0,0,0,0,0,0,0,0,0,0,0,0,0,0,0,0,0,0,0,0,0,0,0,0,0,0,0,0,0,0,0,0,0,0,0,0,0,0,0,0,0,0,0,0,0,0,0,0,0,0,0,0,0,0,0,0,0,0,0,0,0,0,0,0,0,0,0,0,0,0,0,0,0,0,0,0,0,0,0,0,0,0,0,0,0,0,0,0,0,0,0,0,0,0,0,0,0,0,0,0,0,0,0,0,0,0,0,0,0,0,0,0,0,0,0,0,0,0,0,0,0,0,0,0,0,0,0,0,0,0,0,0,0,0,0,0,0,0,0,0,0,0,0,0,0,0,0,0,0,0,0,0,0,0,0,0,0,904,924,946,968,990,1004,1020,1036,1050,10471,10485,10499,10513,10527,10541,10555,10569,528,550,572,594,608,630,652,674,0,0,0,731,0,0,0,0,0,0,0,0,0,0,0,0,0,0,0,0,0,0,0,0,0,0,0,0,0,0,0,0,0,0,0,0,0,0,0,0,0,0,0,0,0,0,0,0,0,0,0,0,0,0,0,0,0,0,0,0,0,0,0,0,0,0,0,0,0,0,0,0,0,0,0,0,0,0,0,0,0,0,0,0,0,0,0,0,0,0,0,0,0,0,0,0,0,0,0,0,0,0,0,0,0,0,0,0,0,0,0,0,0,0,0,0,0,0,0,0,0,0,0,0,0,0,0,0,0,0,0,0,0,0,0,0,0,0,0,0,0,0,0,0,0,0,0,0,0,0,0,0,0,0,0,0,0,0,0,0,0,0,0,0,0,0,0,0,0,0,0,0,0,0,0,0,0,0,0,0,0,0,0,0,0,0,0,0,0,0,0,0,0,0,0,0,0,0,0,0,0,0,0,0,0,0,0,0,0,0,0,0,0,0,0,0,0,0,0,0,0,0,0,0,0,0,0,0,0,0,0,905,925,947,969,991,1005,1021,1037,1051,10472,10486,10500,10514,10528,10542,10556,10570,529,551,573,595,609,631,653,675,689,703,717,732,746,760,774,788,802,816,830,844,746,760,774,788,802,816,830,844,746,760,774,788,802,816,830,844,746,760,774,788,802,816,830,844,746,760,774,788,802,816,830,844,0,0,0,0,0,0,0,0,746,760,774,788,802,816,830,844,746,760,774,788,802,816,830,844,746,760,774,788,802,816,830,844,0,0,0,0,0,0,0,0,746,760,774,788,802,816,830,844,746,760,774,788,802,816,830,844,746,760,774,788,802,816,830,844,746,760,774,788,802,816,830,844,746,760,774,788,802,816,830,844,746,760,774,788,802,816,830,844,0,0,0,0,0,0,0,0,746,760,774,788,802,816,830,844,746,760,774,788,802,816,830,844,746,760,774,788,802,816,830,844,746,760,774,788,802,816,830,844,0,0,0,0,0,0,0,0,746,760,774,788,802,816,830,844,746,760,774,788,802,816,830,844,746,760,774,788,802,816,830,844,746,760,774,788,802,816,830,844,746,760,774,788,802,816,830,844,746,760,774,788,802,816,830,844,858,872,886,906,926,948,970,992,1006,1022,1038,1052,10473,10487,10501,10515,10529,10543,10557,10571,526,548,570,592,610,632,654,676,690,704,718,733,747,761,775,789,803,817,831,845,747,761,775,789,803,817,831,845,747,761,775,789,803,817,831,845,747,761,775,789,803,817,831,845,747,761,775,789,803,817,831,845,0,0,0,0,0,0,0,0,747,761,775,789,803,817,831,845,747,761,775,789,803,817,831,845,747,761,775,789,803,817,831,845,0,0,0,0,0,0,0,0,747,761,775,789,803,817,831,845,747,761,775,789,803,817,831,845,747,761,775,789,803,817,831,845,747,761,775,789,803,817,831,845,747,761,775,789,803,817,831,845,747,761,775,789,803,817,831,845,0,0,0,0,0,0,0,0,747,761,775,789,803,817,831,845,747,761,775,789,803,817,831,845,747,761,775,789,803,817,831,845,747,761,775,789,803,817,831,845,0,0,0,0,0,0,0,0,747,761,775,789,803,817,831,845,747,761,775,789,803,817,831,845,747,761,775,789,803,817,831,845,747,761,775,789,803,817,831,845,747,761,775,789,803,817,831,845,747,761,775,789,803,817,831,845,859,873,887,907,927,949,971,989,1003,1019,1035,1049,10470,10484,10498,10512,10526,10540,10554,10568,527,549,571,593,611,633,655,677,691,705,719,734,748,762,776,790,804,818,832,846,748,762,776,790,804,818,832,846,748,762,776,790,804,818,832,846,748,762,776,790,804,818,832,846,748,762,776,790,804,818,832,846,611,633,655,677,691,705,719,734,748,762,776,790,804,818,832,846,748,762,776,790,804,818,832,846,748,762,776,790,804,818,832,846,611,633,655,677,691,705,719,734,748,762,776,790,804,818,832,846,748,762,776,790,804,818,832,846,748,762,776,790,804,818,832,846,748,762,776,790,804,818,832,846,748,762,776,790,804,818,832,846,748,762,776,790,804,818,832,846,611,633,655,677,691,705,719,734,748,762,776,790,804,818,832,846,748,762,776,790,804,818,832,846,748,762,776,790,804,818,832,846,748,762,776,790,804,818,832,846,611,633,655,677,691,705,719,734,748,762,776,790,804,818,832,846,748,762,776,790,804,818,832,846,748,762,776,790,804,818,832,846,748,762,776,790,804,818,832,846,748,762,776,790,804,818,832,846,748,762,776,790,804,818,832,846,860,874,888,908,928,950,972,990,1004,1020,1036,1050,10471,10485,10499,10513,10527,10541,10555,10569,528,550,572,594,612,634,656,678,692,706,720,735,749,763,777,791,805,819,833,847,749,763,777,791,805,819,833,847,749,763,777,791,805,819,833,847,749,763,777,791,805,819,833,847,749,763,777,791,805,819,833,847,612,634,656,678,692,706,720,735,749,763,777,791,805,819,833,847,749,763,777,791,805,819,833,847,749,763,777,791,805,819,833,847,612,634,656,678,692,706,720,735,749,763,777,791,805,819,833,847,749,763,777,791,805,819,833,847,749,763,777,791,805,819,833,847,749,763,777,791,805,819,833,847,749,763,777,791,805,819,833,847,749,763,777,791,805,819,833,847,612,634,656,678,692,706,720,735,749,763,777,791,805,819,833,847,749,763,777,791,805,819,833,847,749,763,777,791,805,819,833,847,749,763,777,791,805,819,833,847,612,634,656,678,692,706,720,735,749,763,777,791,805,819,833,847,749,763,777,791,805,819,833,847,749,763,777,791,805,819,833,847,749,763,777,791,805,819,833,847,749,763,777,791,805,819,833,847,749,763,777,791,805,819,833,847,861,875,889,909,929,951,973,991,1005,1021,1037,1051,10472,10486,10500,10514,10528,10542,10556,10570,529,551,573,595,613,635,657,679,693,707,721,736,750,764,778,792,806,820,834,848,750,764,778,792,806,820,834,848,750,764,778,792,806,820,834,848,750,764,778,792,806,820,834,848,750,764,778,792,806,820,834,848,613,635,657,679,693,707,721,736,750,764,778,792,806,820,834,848,750,764,778,792,806,820,834,848,750,764,778,792,806,820,834,848,613,635,657,679,693,707,721,736,750,764,778,792,806,820,834,848,750,764,778,792,806,820,834,848,750,764,778,792,806,820,834,848,750,764,778,792,806,820,834,848,750,764,778,792,806,820,834,848,750,764,778,792,806,820,834,848,613,635,657,679,693,707,721,736,750,764,778,792,806,820,834,848,750,764,778,792,806,820,834,848,750,764,778,792,806,820,834,848,750,764,778,792,806,820,834,848,613,635,657,679,693,707,721,736,750,764,778,792,806,820,834,848,750,764,778,792,806,820,834,848,750,764,778,792,806,820,834,848,750,764,778,792,806,820,834,848,750,764,778,792,806,820,834,848,750,764,778,792,806,820,834,848,862,876,890,910,930,952,974,992,1006,1022,1038,1052,10473,10487,10501,10515,10529,10543,10557,10571,526,548,570,592,614,636,658,680,694,708,722,737,751,765,779,793,807,821,835,849,751,765,779,793,807,821,835,849,751,765,779,793,807,821,835,849,751,765,779,793,807,821,835,849,751,765,779,793,807,821,835,849,614,636,658,680,694,708,722,737,751,765,779,793,807,821,835,849,751,765,779,793,807,821,835,849,751,765,779,793,807,821,835,849,614,636,658,680,694,708,722,737,751,765,779,793,807,821,835,849,751,765,779,793,807,821,835,849,751,765,779,793,807,821,835,849,751,765,779,793,807,821,835,849,751,765,779,793,807,821,835,849,751,765,779,793,807,821,835,849,614,636,658,680,694,708,722,737,751,765,779,793,807,821,835,849,751,765,779,793,807,821,835,849,751,765,779,793,807,821,835,849,751,765,779,793,807,821,835,849,614,636,658,680,694,708,722,737,751,765,779,793,807,821,835,849,751,765,779,793,807,821,835,849,751,765,779,793,807,821,835,849,751,765,779,793,807,821,835,849,751,765,779,793,807,821,835,849,751,765,779,793,807,821,835,849,863,877,891,911,931,953,975,989,1003,1019,1035,1049,10470,10484,10498,10512,10526,10540,10554,10568,527,549,571,593,615,637,659,681,695,709,723,738,752,766,780,794,808,822,836,850,752,766,780,794,808,822,836,850,752,766,780,794,808,822,836,850,752,766,780,794,808,822,836,850,752,766,780,794,808,822,836,850,615,637,659,681,695,709,723,738,752,766,780,794,808,822,836,850,752,766,780,794,808,822,836,850,752,766,780,794,808,822,836,850,615,637,659,681,695,709,723,738,752,766,780,794,808,822,836,850,752,766,780,794,808,822,836,850,752,766,780,794,808,822,836,850,752,766,780,794,808,822,836,850,752,766,780,794,808,822,836,850,752,766,780,794,808,822,836,850,615,637,659,681,695,709,723,738,752,766,780,794,808,822,836,850,752,766,780,794,808,822,836,850,752,766,780,794,808,822,836,850,752,766,780,794,808,822,836,850,615,637,659,681,695,709,723,738,752,766,780,794,808,822,836,850,752,766,780,794,808,822,836,850,752,766,780,794,808,822,836,850,752,766,780,794,808,822,836,850,752,766,780,794,808,822,836,850,752,766,780,794,808,822,836,850,864,878,892,912,932,954,976,990,1004,1020,1036,1050,10471,10485,10499,10513,10527,10541,10555,10569,528,550,572,594,616,638,660,682,696,710,724,739,753,767,781,795,809,823,837,851,753,767,781,795,809,823,837,851,753,767,781,795,809,823,837,851,753,767,781,795,809,823,837,851,753,767,781,795,809,823,837,851,616,638,660,682,696,710,724,739,753,767,781,795,809,823,837,851,753,767,781,795,809,823,837,851,753,767,781,795,809,823,837,851,616,638,660,682,696,710,724,739,753,767,781,795,809,823,837,851,753,767,781,795,809,823,837,851,753,767,781,795,809,823,837,851,753,767,781,795,809,823,837,851,753,767,781,795,809,823,837,851,753,767,781,795,809,823,837,851,616,638,660,682,696,710,724,739,753,767,781,795,809,823,837,851,753,767,781,795,809,823,837,851,753,767,781,795,809,823,837,851,753,767,781,795,809,823,837,851,616,638,660,682,696,710,724,739,753,767,781,795,809,823,837,851,753,767,781,795,809,823,837,851,753,767,781,795,809,823,837,851,753,767,781,795,809,823,837,851,753,767,781,795,809,823,837,851,753,767,781,795,809,823,837,851,865,879,893,913,933,955,977,991,1005,1021,1037,1051,10472,10486,10500,10514,10528,10542,10556,10570,529,551,573,595,617,639,661,683,697,711,725,740,754,768,782,796,810,824,838,852,754,768,782,796,810,824,838,852,754,768,782,796,810,824,838,852,754,768,782,796,810,824,838,852,754,768,782,796,810,824,838,852,617,639,661,683,697,711,725,740,754,768,782,796,810,824,838,852,754,768,782,796,810,824,838,852,754,768,782,796,810,824,838,852,617,639,661,683,697,711,725,740,754,768,782,796,810,824,838,852,754,768,782,796,810,824,838,852,754,768,782,796,810,824,838,852,754,768,782,796,810,824,838,852,754,768,782,796,810,824,838,852,754,768,782,796,810,824,838,852,617,639,661,683,697,711,725,740,754,768,782,796,810,824,838,852,754,768,782,796,810,824,838,852,754,768,782,796,810,824,838,852,754,768,782,796,810,824,838,852,617,639,661,683,697,711,725,740,754,768,782,796,810,824,838,852,754,768,782,796,810,824,838,852,754,768,782,796,810,824,838,852,754,768,782,796,810,824,838,852,754,768,782,796,810,824,838,852,754,768,782,796,810,824,838,852,866,880,894,914,934,956,978,992,1006,1022,1038,1052,10473,10487,10501,10515,10529,10543,10557,10571,526,548,570,592,614,636,658,680,694,708,722,737,751,765,779,793,807,821,835,849,751,765,779,793,807,821,835,849,751,765,779,793,807,821,835,849,751,765,779,793,807,821,835,849,751,765,779,793,807,821,835,849,614,636,658,680,694,708,722,737,751,765,779,793,807,821,835,849,751,765,779,793,807,821,835,849,751,765,779,793,807,821,835,849,614,636,658,680,694,708,722,737,751,765,779,793,807,821,835,849,751,765,779,793,807,821,835,849,751,765,779,793,807,821,835,849,751,765,779,793,807,821,835,849,751,765,779,793,807,821,835,849,751,765,779,793,807,821,835,849,614,636,658,680,694,708,722,737,751,765,779,793,807,821,835,849,751,765,779,793,807,821,835,849,751,765,779,793,807,821,835,849,751,765,779,793,807,821,835,849,614,636,658,680,694,708,722,737,751,765,779,793,807,821,835,849,751,765,779,793,807,821,835,849,751,765,779,793,807,821,835,849,751,765,779,793,807,821,835,849,751,765,779,793,807,821,835,849,751,765,779,793,807,821,835,849,863,877,891,911,931,953,975,989,1003,1019,1035,1049,10470,10484,10498,10512,10526,10540,10554,10568,527,549,571,593,615,637,659,681,695,709,723,738,752,766,780,794,808,822,836,850,752,766,780,794,808,822,836,850,752,766,780,794,808,822,836,850,752,766,780,794,808,822,836,850,752,766,780,794,808,822,836,850,615,637,659,681,695,709,723,738,752,766,780,794,808,822,836,850,752,766,780,794,808,822,836,850,752,766,780,794,808,822,836,850,615,637,659,681,695,709,723,738,752,766,780,794,808,822,836,850,752,766,780,794,808,822,836,850,752,766,780,794,808,822,836,850,752,766,780,794,808,822,836,850,752,766,780,794,808,822,836,850,752,766,780,794,808,822,836,850,615,637,659,681,695,709,723,738,752,766,780,794,808,822,836,850,752,766,780,794,808,822,836,850,752,766,780,794,808,822,836,850,752,766,780,794,808,822,836,850,615,637,659,681,695,709,723,738,752,766,780,794,808,822,836,850,752,766,780,794,808,822,836,850,752,766,780,794,808,822,836,850,752,766,780,794,808,822,836,850,752,766,780,794,808,822,836,850,752,766,780,794,808,822,836,850,864,878,892,912,932,954,976,990,1004,1020,1036,1050,10471,10485,10499,10513,10527,10541,10555,10569,528,550,572,594,616,638,660,682,696,710,724,739,753,767,781,795,809,823,837,851,753,767,781,795,809,823,837,851,753,767,781,795,809,823,837,851,753,767,781,795,809,823,837,851,753,767,781,795,809,823,837,851,616,638,660,682,696,710,724,739,753,767,781,795,809,823,837,851,753,767,781,795,809,823,837,851,753,767,781,795,809,823,837,851,616,638,660,682,696,710,724,739,753,767,781,795,809,823,837,851,753,767,781,795,809,823,837,851,753,767,781,795,809,823,837,851,753,767,781,795,809,823,837,851,753,767,781,795,809,823,837,851,753,767,781,795,809,823,837,851,616,638,660,682,696,710,724,739,753,767,781,795,809,823,837,851,753,767,781,795,809,823,837,851,753,767,781,795,809,823,837,851,753,767,781,795,809,823,837,851,616,638,660,682,696,710,724,739,753,767,781,795,809,823,837,851,753,767,781,795,809,823,837,851,753,767,781,795,809,823,837,851,753,767,781,795,809,823,837,851,753,767,781,795,809,823,837,851,753,767,781,795,809,823,837,851,865,879,893,913,933,955,977,991,1005,1021,1037,1051,10472,10486,10500,10514,10528,10542,10556,10570,529,551,573,595,617,639,661,683,697,711,725,740,754,768,782,796,810,824,838,852,754,768,782,796,810,824,838,852,754,768,782,796,810,824,838,852,754,768,782,796,810,824,838,852,754,768,782,796,810,824,838,852,617,639,661,683,697,711,725,740,754,768,782,796,810,824,838,852,754,768,782,796,810,824,838,852,754,768,782,796,810,824,838,852,617,639,661,683,697,711,725,740,754,768,782,796,810,824,838,852,754,768,782,796,810,824,838,852,754,768,782,796,810,824,838,852,754,768,782,796,810,824,838,852,754,768,782,796,810,824,838,852,754,768,782,796,810,824,838,852,617,639,661,683,697,711,725,740,754,768,782,796,810,824,838,852,754,768,782,796,810,824,838,852,754,768,782,796,810,824,838,852,754,768,782,796,810,824,838,852,617,639,661,683,697,711,725,740,754,768,782,796,810,824,838,852,754,768,782,796,810,824,838,852,754,768,782,796,810,824,838,852,754,768,782,796,810,824,838,852,754,768,782,796,810,824,838,852,754,768,782,796,810,824,838,852,866,880,894,914,934,956,978,992,1006,1022,1038,1052,10473,10487,10501,10515,10529,10543,10557,10571,526,548,570,592,614,636,658,680,694,708,722,737,751,765,779,793,807,821,835,849,751,765,779,793,807,821,835,849,751,765,779,793,807,821,835,849,751,765,779,793,807,821,835,849,751,765,779,793,807,821,835,849,614,636,658,680,694,708,722,737,751,765,779,793,807,821,835,849,751,765,779,793,807,821,835,849,751,765,779,793,807,821,835,849,614,636,658,680,694,708,722,737,751,765,779,793,807,821,835,849,751,765,779,793,807,821,835,849,751,765,779,793,807,821,835,849,751,765,779,793,807,821,835,849,751,765,779,793,807,821,835,849,751,765,779,793,807,821,835,849,614,636,658,680,694,708,722,737,751,765,779,793,807,821,835,849,751,765,779,793,807,821,835,849,751,765,779,793,807,821,835,849,751,765,779,793,807,821,835,849,614,636,658,680,694,708,722,737,751,765,779,793,807,821,835,849,751,765,779,793,807,821,835,849,751,765,779,793,807,821,835,849,751,765,779,793,807,821,835,849,751,765,779,793,807,821,835,849,751,765,779,793,807,821,835,849,863,877,891,911,931,953,975,989,1003,1019,1035,1053,10474,10488,10502,10516,10530,10544,10558,10572,527,549,571,593,615,637,659,681,695,709,723,738,752,766,780,794,808,822,836,850,752,766,780,794,808,822,836,850,752,766,780,794,808,822,836,850,752,766,780,794,808,822,836,850,752,766,780,794,808,822,836,850,615,637,659,681,695,709,723,738,752,766,780,794,808,822,836,850,752,766,780,794,808,822,836,850,752,766,780,794,808,822,836,850,615,637,659,681,695,709,723,738,752,766,780,794,808,822,836,850,752,766,780,794,808,822,836,850,752,766,780,794,808,822,836,850,752,766,780,794,808,822,836,850,752,766,780,794,808,822,836,850,752,766,780,794,808,822,836,850,615,637,659,681,695,709,723,738,752,766,780,794,808,822,836,850,752,766,780,794,808,822,836,850,752,766,780,794,808,822,836,850,752,766,780,794,808,822,836,850,615,637,659,681,695,709,723,738,752,766,780,794,808,822,836,850,752,766,780,794,808,822,836,850,752,766,780,794,808,822,836,850,752,766,780,794,808,822,836,850,752,766,780,794,808,822,836,850,752,766,780,794,808,822,836,850,864,878,892,912,932,954,976,990,1004,1020,1036,1054,10475,10489,10503,10517,10531,10545,10559,10573,528,550,572,594,616,638,660,682,696,710,724,739,753,767,781,795,809,823,837,851,753,767,781,795,809,823,837,851,753,767,781,795,809,823,837,851,753,767,781,795,809,823,837,851,753,767,781,795,809,823,837,851,616,638,660,682,696,710,724,739,753,767,781,795,809,823,837,851,753,767,781,795,809,823,837,851,753,767,781,795,809,823,837,851,616,638,660,682,696,710,724,739,753,767,781,795,809,823,837,851,753,767,781,795,809,823,837,851,753,767,781,795,809,823,837,851,753,767,781,795,809,823,837,851,753,767,781,795,809,823,837,851,753,767,781,795,809,823,837,851,616,638,660,682,696,710,724,739,753,767,781,795,809,823,837,851,753,767,781,795,809,823,837,851,753,767,781,795,809,823,837,851,753,767,781,795,809,823,837,851,616,638,660,682,696,710,724,739,753,767,781,795,809,823,837,851,753,767,781,795,809,823,837,851,753,767,781,795,809,823,837,851,753,767,781,795,809,823,837,851,753,767,781,795,809,823,837,851,753,767,781,795,809,823,837,851,865,879,893,913,933,955,977,991,1005,1021,1037,1055,10476,10490,10504,10518,10532,10546,10560,10574,529,551,573,595,617,639,661,683,697,711,725,740,754,768,782,796,810,824,838,852,754,768,782,796,810,824,838,852,754,768,782,796,810,824,838,852,754,768,782,796,810,824,838,852,754,768,782,796,810,824,838,852,617,639,661,683,697,711,725,740,754,768,782,796,810,824,838,852,754,768,782,796,810,824,838,852,754,768,782,796,810,824,838,852,617,639,661,683,697,711,725,740,754,768,782,796,810,824,838,852,754,768,782,796,810,824,838,852,754,768,782,796,810,824,838,852,754,768,782,796,810,824,838,852,754,768,782,796,810,824,838,852,754,768,782,796,810,824,838,852,617,639,661,683,697,711,725,740,754,768,782,796,810,824,838,852,754,768,782,796,810,824,838,852,754,768,782,796,810,824,838,852,754,768,782,796,810,824,838,852,617,639,661,683,697,711,725,740,754,768,782,796,810,824,838,852,754,768,782,796,810,824,838,852,754,768,782,796,810,824,838,852,754,768,782,796,810,824,838,852,754,768,782,796,810,824,838,852,754,768,782,796,810,824,838,852,866,880,894,914,934,956,978,992,1006,1022,1038,1056,10477,10491,10505,10519,10533,10547,10561,10575,530,552,574,596,614,636,658,680,694,708,722,737,751,765,779,793,807,821,835,849,751,765,779,793,807,821,835,849,751,765,779,793,807,821,835,849,751,765,779,793,807,821,835,849,751,765,779,793,807,821,835,849,614,636,658,680,694,708,722,737,751,765,779,793,807,821,835,849,751,765,779,793,807,821,835,849,751,765,779,793,807,821,835,849,614,636,658,680,694,708,722,737,751,765,779,793,807,821,835,849,751,765,779,793,807,821,835,849,751,765,779,793,807,821,835,849,751,765,779,793,807,821,835,849,751,765,779,793,807,821,835,849,751,765,779,793,807,821,835,849,614,636,658,680,694,708,722,737,751,765,779,793,807,821,835,849,751,765,779,793,807,821,835,849,751,765,779,793,807,821,835,849,751,765,779,793,807,821,835,849,614,636,658,680,694,708,722,737,751,765,779,793,807,821,835,849,751,765,779,793,807,821,835,849,751,765,779,793,807,821,835,849,751,765,779,793,807,821,835,849,751,765,779,793,807,821,835,849,751,765,779,793,807,821,835,849,863,877,891,911,931,953,975,993,1007,1023,1039,1057,10478,10492,10506,10520,10534,10548,10562,10576,531,553,575,597,615,637,659,681,695,709,723,738,752,766,780,794,808,822,836,850,752,766,780,794,808,822,836,850,752,766,780,794,808,822,836,850,752,766,780,794,808,822,836,850,752,766,780,794,808,822,836,850,615,637,659,681,695,709,723,738,752,766,780,794,808,822,836,850,752,766,780,794,808,822,836,850,752,766,780,794,808,822,836,850,615,637,659,681,695,709,723,738,752,766,780,794,808,822,836,850,752,766,780,794,808,822,836,850,752,766,780,794,808,822,836,850,752,766,780,794,808,822,836,850,752,766,780,794,808,822,836,850,752,766,780,794,808,822,836,850,615,637,659,681,695,709,723,738,752,766,780,794,808,822,836,850,752,766,780,794,808,822,836,850,752,766,780,794,808,822,836,850,752,766,780,794,808,822,836,850,615,637,659,681,695,709,723,738,752,766,780,794,808,822,836,850,752,766,780,794,808,822,836,850,752,766,780,794,808,822,836,850,752,766,780,794,808,822,836,850,752,766,780,794,808,822,836,850,752,766,780,794,808,822,836,850,864,878,892,912,932,954,976,994,1008,1024,1040,0,0,0,0,0,0,0,0,0,532,554,576,598,616,638,660,682,696,710,724,739,753,767,781,795,809,823,837,851,753,767,781,795,809,823,837,851,753,767,781,795,809,823,837,851,753,767,781,795,809,823,837,851,753,767,781,795,809,823,837,851,616,638,660,682,696,710,724,739,753,767,781,795,809,823,837,851,753,767,781,795,809,823,837,851,753,767,781,795,809,823,837,851,616,638,660,682,696,710,724,739,753,767,781,795,809,823,837,851,753,767,781,795,809,823,837,851,753,767,781,795,809,823,837,851,753,767,781,795,809,823,837,851,753,767,781,795,809,823,837,851,753,767,781,795,809,823,837,851,616,638,660,682,696,710,724,739,753,767,781,795,809,823,837,851,753,767,781,795,809,823,837,851,753,767,781,795,809,823,837,851,753,767,781,795,809,823,837,851,616,638,660,682,696,710,724,739,753,767,781,795,809,823,837,851,753,767,781,795,809,823,837,851,753,767,781,795,809,823,837,851,753,767,781,795,809,823,837,851,753,767,781,795,809,823,837,851,753,767,781,795,809,823,837,851,865,879,893,913,933,955,977,995,1009,1025,1041,0,0,0,0,0,0,0,0,0,533,555,577,599,617,639,661,683,697,711,725,740,754,768,782,796,810,824,838,852,754,768,782,796,810,824,838,852,754,768,782,796,810,824,838,852,754,768,782,796,810,824,838,852,754,768,782,796,810,824,838,852,617,639,661,683,697,711,725,740,754,768,782,796,810,824,838,852,754,768,782,796,810,824,838,852,754,768,782,796,810,824,838,852,617,639,661,683,697,711,725,740,754,768,782,796,810,824,838,852,754,768,782,796,810,824,838,852,754,768,782,796,810,824,838,852,754,768,782,796,810,824,838,852,754,768,782,796,810,824,838,852,754,768,782,796,810,824,838,852,617,639,661,683,697,711,725,740,754,768,782,796,810,824,838,852,754,768,782,796,810,824,838,852,754,768,782,796,810,824,838,852,754,768,782,796,810,824,838,852,617,639,661,683,697,711,725,740,754,768,782,796,810,824,838,852,754,768,782,796,810,824,838,852,754,768,782,796,810,824,838,852,754,768,782,796,810,824,838,852,754,768,782,796,810,824,838,852,754,768,782,796,810,824,838,852,866,880,894,914,934,956,978,996,1010,1026,1042,0,0,0,0,0,0,0,0,0,534,556,578,600,614,636,658,680,694,708,722,737,751,765,779,793,807,821,835,849,751,765,779,793,807,821,835,849,751,765,779,793,807,821,835,849,751,765,779,793,807,821,835,849,751,765,779,793,807,821,835,849,614,636,658,680,694,708,722,737,751,765,779,793,807,821,835,849,751,765,779,793,807,821,835,849,751,765,779,793,807,821,835,849,614,636,658,680,694,708,722,737,751,765,779,793,807,821,835,849,751,765,779,793,807,821,835,849,751,765,779,793,807,821,835,849,751,765,779,793,807,821,835,849,751,765,779,793,807,821,835,849,751,765,779,793,807,821,835,849,614,636,658,680,694,708,722,737,751,765,779,793,807,821,835,849,751,765,779,793,807,821,835,849,751,765,779,793,807,821,835,849,751,765,779,793,807,821,835,849,614,636,658,680,694,708,722,737,751,765,779,793,807,821,835,849,751,765,779,793,807,821,835,849,751,765,779,793,807,821,835,849,751,765,779,793,807,821,835,849,751,765,779,793,807,821,835,849,751,765,779,793,807,821,835,849,863,877,891,911,931,953,975,997,1011,1027,1043,0,0,0,0,0,0,0,0,0,0,0,0,0,615,637,659,681,695,709,723,738,752,766,780,794,808,822,836,850,752,766,780,794,808,822,836,850,752,766,780,794,808,822,836,850,752,766,780,794,808,822,836,850,752,766,780,794,808,822,836,850,615,637,659,681,695,709,723,738,752,766,780,794,808,822,836,850,752,766,780,794,808,822,836,850,752,766,780,794,808,822,836,850,615,637,659,681,695,709,723,738,752,766,780,794,808,822,836,850,752,766,780,794,808,822,836,850,752,766,780,794,808,822,836,850,752,766,780,794,808,822,836,850,752,766,780,794,808,822,836,850,752,766,780,794,808,822,836,850,615,637,659,681,695,709,723,738,752,766,780,794,808,822,836,850,752,766,780,794,808,822,836,850,752,766,780,794,808,822,836,850,752,766,780,794,808,822,836,850,615,637,659,681,695,709,723,738,752,766,780,794,808,822,836,850,752,766,780,794,808,822,836,850,752,766,780,794,808,822,836,850,752,766,780,794,808,822,836,850,752,766,780,794,808,822,836,850,752,766,780,794,808,822,836,850,864,878,892,912,932,954,976,0,0,0,0,0,0,0,0,0,0,0,0,0,0,0,0,0,616,638,660,682,696,710,724,739,753,767,781,795,809,823,837,851,753,767,781,795,809,823,837,851,753,767,781,795,809,823,837,851,753,767,781,795,809,823,837,851,753,767,781,795,809,823,837,851,616,638,660,682,696,710,724,739,753,767,781,795,809,823,837,851,753,767,781,795,809,823,837,851,753,767,781,795,809,823,837,851,616,638,660,682,696,710,724,739,753,767,781,795,809,823,837,851,753,767,781,795,809,823,837,851,753,767,781,795,809,823,837,851,753,767,781,795,809,823,837,851,753,767,781,795,809,823,837,851,753,767,781,795,809,823,837,851,616,638,660,682,696,710,724,739,753,767,781,795,809,823,837,851,753,767,781,795,809,823,837,851,753,767,781,795,809,823,837,851,753,767,781,795,809,823,837,851,616,638,660,682,696,710,724,739,753,767,781,795,809,823,837,851,753,767,781,795,809,823,837,851,753,767,781,795,809,823,837,851,753,767,781,795,809,823,837,851,753,767,781,795,809,823,837,851,753,767,781,795,809,823,837,851,865,879,893,913,933,955,977,0,0,0,0,0,0,0,0,0,0,0,0,0,0,0,0,0,617,639,661,683,697,711,725,740,754,768,782,796,810,824,838,852,754,768,782,796,810,824,838,852,754,768,782,796,810,824,838,852,754,768,782,796,810,824,838,852,754,768,782,796,810,824,838,852,617,639,661,683,697,711,725,740,754,768,782,796,810,824,838,852,754,768,782,796,810,824,838,852,754,768,782,796,810,824,838,852,617,639,661,683,697,711,725,740,754,768,782,796,810,824,838,852,754,768,782,796,810,824,838,852,754,768,782,796,810,824,838,852,754,768,782,796,810,824,838,852,754,768,782,796,810,824,838,852,754,768,782,796,810,824,838,852,617,639,661,683,697,711,725,740,754,768,782,796,810,824,838,852,754,768,782,796,810,824,838,852,754,768,782,796,810,824,838,852,754,768,782,796,810,824,838,852,617,639,661,683,697,711,725,740,754,768,782,796,810,824,838,852,754,768,782,796,810,824,838,852,754,768,782,796,810,824,838,852,754,768,782,796,810,824,838,852,754,768,782,796,810,824,838,852,754,768,782,796,810,824,838,852,866,880,894,914,934,956,978,0,0,0,0,0,0,0,0,0,0,0,0,0,0,0,0,0,618,640,662,684,698,712,726,741,755,769,783,797,811,825,839,853,755,769,783,797,811,825,839,853,755,769,783,797,811,825,839,853,755,769,783,797,811,825,839,853,755,769,783,797,811,825,839,853,618,640,662,684,698,712,726,741,755,769,783,797,811,825,839,853,755,769,783,797,811,825,839,853,755,769,783,797,811,825,839,853,618,640,662,684,698,712,726,741,755,769,783,797,811,825,839,853,755,769,783,797,811,825,839,853,755,769,783,797,811,825,839,853,755,769,783,797,811,825,839,853,755,769,783,797,811,825,839,853,755,769,783,797,811,825,839,853,618,640,662,684,698,712,726,741,755,769,783,797,811,825,839,853,755,769,783,797,811,825,839,853,755,769,783,797,811,825,839,853,755,769,783,797,811,825,839,853,618,640,662,684,698,712,726,741,755,769,783,797,811,825,839,853,755,769,783,797,811,825,839,853,755,769,783,797,811,825,839,853,755,769,783,797,811,825,839,853,755,769,783,797,811,825,839,853,755,769,783,797,811,825,839,853,867,881,895,915,935,957,979,0,0,0,0,0,0,0,0,0,0,0,0,0,0,0,0,0,619,641,663,685,699,713,727,742,756,770,784,798,812,826,840,854,756,770,784,798,812,826,840,854,756,770,784,798,812,826,840,854,756,770,784,798,812,826,840,854,756,770,784,798,812,826,840,854,619,641,663,685,699,713,727,742,756,770,784,798,812,826,840,854,756,770,784,798,812,826,840,854,756,770,784,798,812,826,840,854,619,641,663,685,699,713,727,742,756,770,784,798,812,826,840,854,756,770,784,798,812,826,840,854,756,770,784,798,812,826,840,854,756,770,784,798,812,826,840,854,756,770,784,798,812,826,840,854,756,770,784,798,812,826,840,854,619,641,663,685,699,713,727,742,756,770,784,798,812,826,840,854,756,770,784,798,812,826,840,854,756,770,784,798,812,826,840,854,756,770,784,798,812,826,840,854,619,641,663,685,699,713,727,742,756,770,784,798,812,826,840,854,756,770,784,798,812,826,840,854,756,770,784,798,812,826,840,854,756,770,784,798,812,826,840,854,756,770,784,798,812,826,840,854,756,770,784,798,812,826,840,854,868,882,896,916,936,958,980,0,0,0,0,0,0,0,0,0,0,0,0,0,0,0,0,0,620,642,664,686,700,714,728,743,757,771,785,799,813,827,841,855,757,771,785,799,813,827,841,855,757,771,785,799,813,827,841,855,757,771,785,799,813,827,841,855,757,771,785,799,813,827,841,855,620,642,664,686,700,714,728,743,757,771,785,799,813,827,841,855,757,771,785,799,813,827,841,855,757,771,785,799,813,827,841,855,620,642,664,686,700,714,728,743,757,771,785,799,813,827,841,855,757,771,785,799,813,827,841,855,757,771,785,799,813,827,841,855,757,771,785,799,813,827,841,855,757,771,785,799,813,827,841,855,757,771,785,799,813,827,841,855,620,642,664,686,700,714,728,743,757,771,785,799,813,827,841,855,757,771,785,799,813,827,841,855,757,771,785,799,813,827,841,855,757,771,785,799,813,827,841,855,620,642,664,686,700,714,728,743,757,771,785,799,813,827,841,855,757,771,785,799,813,827,841,855,757,771,785,799,813,827,841,855,757,771,785,799,813,827,841,855,757,771,785,799,813,827,841,855,757,771,785,799,813,827,841,855,869,883,897,917,937,959,981,0,0,0,0,0,0,0,0,0,0,0,0,0,0,0,0,0,621,643,665,687,701,715,729,744,758,772,786,800,814,828,842,856,758,772,786,800,814,828,842,856,758,772,786,800,814,828,842,856,758,772,786,800,814,828,842,856,758,772,786,800,814,828,842,856,621,643,665,687,701,715,729,744,758,772,786,800,814,828,842,856,758,772,786,800,814,828,842,856,758,772,786,800,814,828,842,856,621,643,665,687,701,715,729,744,758,772,786,800,814,828,842,856,758,772,786,800,814,828,842,856,758,772,786,800,814,828,842,856,758,772,786,800,814,828,842,856,758,772,786,800,814,828,842,856,758,772,786,800,814,828,842,856,621,643,665,687,701,715,729,744,758,772,786,800,814,828,842,856,758,772,786,800,814,828,842,856,758,772,786,800,814,828,842,856,758,772,786,800,814,828,842,856,621,643,665,687,701,715,729,744,758,772,786,800,814,828,842,856,758,772,786,800,814,828,842,856,758,772,786,800,814,828,842,856,758,772,786,800,814,828,842,856,758,772,786,800,814,828,842,856,758,772,786,800,814,828,842,856,870,884,898,918,938,960,982,0,0,0,0,0,0,0,0,0,0,0,0,0,0,0,0,0,622,644,666,688,702,716,730,745,759,773,787,801,815,829,843,857,759,773,787,801,815,829,843,857,759,773,787,801,815,829,843,857,759,773,787,801,815,829,843,857,759,773,787,801,815,829,843,857,622,644,666,688,702,716,730,745,759,773,787,801,815,829,843,857,759,773,787,801,815,829,843,857,759,773,787,801,815,829,843,857,622,644,666,688,702,716,730,745,759,773,787,801,815,829,843,857,759,773,787,801,815,829,843,857,759,773,787,801,815,829,843,857,759,773,787,801,815,829,843,857,759,773,787,801,815,829,843,857,759,773,787,801,815,829,843,857,622,644,666,688,702,716,730,745,759,773,787,801,815,829,843,857,759,773,787,801,815,829,843,857,759,773,787,801,815,829,843,857,759,773,787,801,815,829,843,857,622,644,666,688,702,716,730,745,759,773,787,801,815,829,843,857,759,773,787,801,815,829,843,857,759,773,787,801,815,829,843,857,759,773,787,801,815,829,843,857,759,773,787,801,815,829,843,857,759,773,787,801,815,829,843,857,871,885,899,919,939,961,983,0,0,0,0,0,0,0,0,0,0,0,0,0,0,0,0,0,0,0,0,0,0,0,0,0,0,0,0,0,0,0,0,0,0,0,0,0,0,0,0,0,0,0,0,0,0,0,0,0,0,0,0,0,0,0,0,0,0,0,0,0,0,0,0,0,0,0,0,0,0,0,0,0,0,0,0,0,0,0,0,0,0,0,0,0,0,0,0,0,0,0,0,0,0,0,0,0,0,0,0,0,0,0,0,0,0,0,0,0,0,0,0,0,0,0,0,0,0,0,0,0,0,0,0,0,0,0,0,0,0,0,0,0,0,0,0,0,0,0,0,0,0,0,0,0,0,0,0,0,0,0,0,0,0,0,0,0,0,0,0,0,0,0,0,0,0,0,0,0,0,0,0,0,0,0,0,0,0,0,0,0,0,0,0,0,0,0,0,0,0,0,0,0,0,0,0,0,0,0,0,0,0,0,0,0,0,0,0,0,0,0,0,0,0,0,0,0,0,0,0,0,0,0,0,0,0,0,0,0,0,0,0,0,0,0,0,0,0,0,0,0,0,0,0,0,0,0,0,0,0,0,0,0,0,0,0,0,0,0,0,0,0,0,0,0,0,0,0,0,0,0,0,0,0,0,0,0,0,0,0,0,0,0,0,0,0,0,0,0,0,0,0,0,0,0,0,0,0,0,0,0,0,0,0,0,0,0,0,0,0,0,0,0,0,0,0,0,0,0,0,0,0,0,0,0,0,0,0,0,0,0,0,0,0,0,0,0,0,0,0,0,0,0,0,0,0,0,0,0,0,0,0,0,0,0,0,0,0,0,0,0,0,0,0,0,0,0,0,0,0,0,0,0,0,0,0,0,0,0,0,0,0,0,0,0,0,0,0,0,0,0,0,0,0,0,0,0,0,0,0,0,0,0,0,0,0,0,0,0,0,0,0,0,0,0,0,0,0,0,0,0,0,0,0,0,0,0,0,0,0,0,0,0,0,0,0,0,0,0,0,0,0,0,0,0,0,0,0,0,0,0,0,0,0,0,0,0,0,0,0,0,0,0,0,0,0,0,0,0,0,0,0,0,0,0,0,0,0,0,0,0,0,0,0,0,0,0,0,0,0,0,0,0,0,0,0,0,0,0,0,0,0,0,0,0,0,0,0,0,0,0,0,0,0,0,0,0,0,0,0,0,0,0,0,0,0,0,0,0,0,0,0,0,0,0,0,0,0,0,0,0,0,0,0,0,0,0,0,0,0,0,0,0,0,0,0,0,0,0,0,0,0,0,0,0,0,0,0,0,0,0,0,0,0,0,0,0,0,0,0,0,0,0,0,0,0,0,0,0,0,0,0,0,0,0,0,0,0,0,0,0,0,0,0,0,0,0,0,0,0,0,0,0,0,0,0,0,0,0,0,0,0,0,0,0,0,0,0,0,0,0,0,0,0,0,0,0,0,0,0,0,0,0,0,0,0,0,0,0,0,0,0,0,0,0,0,0,0,0,0,0,0,0,0,0,0,0,0,0,0,0,0,0,0,0,0,0,0,0,0,0,0,0,0,0,0,0,0,0,0,0,0,0,0,0,0,0,0,0,0,0,0,0,0,0,0,0,0,0,0,0,0,0,0,0,0,0,0,0,0,0,0,0,0,0,0,0,0,0,0,0,0,0,0,0,0,0,0,0,0,0,0,0,0,0,0,0,0,0,0,0,0,0,0,0,0,0,0,0,0,0,0,0,0,0,0,0,0,0,0,0,0,0,0,0,0,0,0,0,0,0,0,0,0,0,0,0,0,0,0,0,0,0,0,0,0,0,0,0,0,0,0,0,0,0,0,0,0,0,0,0,0,0,0,0,0,0,0,0,0,0,0,0,0,0,0,0,0,0,0,0,0,0,0,0,0,0,0,0,0,0,0,0,0,0,0,0,0,0,0,0,0,0,0,0,0,0,0,0,0,0,0,0,0,0,0,0,0,0,0,0,0,0,0,0,0,0,0,0,0,0,0,0,0,0,0,0,0,0,0,0,0,0,0,0,0,0,0,0,0,0,0,0,0,0,0,0,0,0,0,0,0,0,0,0,0,0,0,0,0,0,0,0,0,0,0,0,0,0,0,0,0,0,0,0,0,0,0,0,0,0,0,0,0,0,0,0,0,0,0,0,0,0,0,0,0,0,0,0,0,0,0,0,0,0,0,0,0,0,0,0,0,0,0,0,0,0,0,0,0,0,0,0,0,0,0,0,0,0,0,0,0,0,0,0,0,0,0,0,0,0,0,0,0,0,0,0,0,0,0,0,0,0,0,0,0,0,0,0,0,0,0,0,0,0,0,0,0,0,0,0,0,0,0,0,0,0,0,0,0,0,0,0,0,0,0,0,0,0,0,0,0,0,0,0,0,0,0,0,0,0,0,0,0,0,0,0,0,0,0,0,0,0,0,0,0,0,0,0,0,0,0,0,0,0,0,0,0,0,0,0,0,0,0,0,0,0,0,0,0,0,0,0,0,0,0,0,0,0,0,0,0,0,0,0,0,0,0,0,0,0,0,0,0,0,0,0,0,0,0,0,0,0,0,0,0,0,0,0,0,0,0,0,0,0,0,0,0,0,0,0,0,0,0,0,0,0,0,0,0,0,0,0,0,0,0,0,0,0,0,0,0,0,0,0,0,0,0,0,0,0,0,0,0,0,0,0,0,0,0,0,0,0,0,0,0,0,0,0,0,0,0,0,0,0,0,0,0,0,0,0,0,0,0,0,0,0,0,0,0,0,0,0,0,0,0,0,0,0,0,0,0,0,0,0,0,0,0,0,0,0,0,0,0,0,0,0,0,0,0,0,0,0,0,0,0,0,0,0,0,0,0,0,0,0,0,0,0,0,0,0,0,0,0,0,0,0,0,0,0,0,0,0,0,0,0,0,0,0,0,0,0,0,0,0,0,0,0,0,0,0,0,0,0,0,0,0,0,0,0,0,0,0,0,0,0,0,0,0,0,0,0,0,0,0,0,0,0,0,0,0,0,0,0,0,0,0,0,0,0,0,0,0,0,0,0,0,0,0,0,0,0,0,0,0,0,0,0,0,0,0,0,0,0,0,0,0,0,0,0,0,0,0,0,0,0,0,0,0,0,0,0,0,0,0,0,0,0,0,0,0,0,0,0,0,0,0,0,0,0,0,0,0,0,0,0,0,0,0,0,0,0,0,0,0,0,0,0,0,0,0,0,0,0,0,0,0,0,0,0,0,0,0,0,0,0,0,0,0,0,0,0,0,0,0,0,0,0,0,0,0,0,0,0,0,0,0,0,0,0,0,0,0,0,0,0,0,0,0,0,0,0,0,0,0,0,0,0,0,0,0,0,0,0,0,0,0,0,0,0,0,0,0,0,0,0,0,0,0,0,0,0,0,0,0,0,0,0,0,0,0,0,0,0,0,0,0,0,0,0,0,0,0,0,0,0,0,0,0,0,0,0,0,0,0,0,0,0,0,0,0,0,0,0,0,0,0,0,0,0,0,0,0,0,0,0,0,0,0,0,0,0,0,0,0,0,0,0,0,0,0,0,0,0,0,0,0,0,0,0,0,0,0,0,0,0,0,0,0,0,0,0,0,0,0,0,0,0,0,0,0,0,0,0,0,0,0,0,0,0,0,0,0,0,0,0,0,0,0,0,0,0,0,0,0,0,0,0,0,0,0,0,0,0,0,0,0,0,0,0,0,0,0,0,0,0,0,0,0,0,0,0,0,0,0,0,0,0,0,0,0,0,0,0,0,0,0,0,0,0,0,0,0,0,0,0,0,0,0,0,0,0,0,0,0,0,0,0,0,0,0,0,0,0,0,0,0,0,0,0,0,0,0,0,0,0,0,0,0,0,0,0,0,0,0,0,0,0,0,0,0,0,0,0,0,0,0,0,0,0,0,0,0,0,0,0,0,0,0,0,0,0,0,0,0,0,0,0,0,0,0,0,0,0,0,0,0,0,0,0,0,0,0,0,0,0,0,0,0,0,0,0,0,0,0,0,0,0,0,0,0,0,0,0,0,0,0,0,0,0,0,0,0,0,0,0,0,0,0,0,0,0,0,0,0,0,0,0,0,0,0,0,0,0,0,0,0,0,0,0,0,0,0,0,0,0,0,0,0,0,0,0,0,0,0,0,0,0,0,0,0,0,0,0,0,0,0,0,0,0,0,0,0,0,0,0,0,0,0,0,0,0,0,0,0,0,0,0,0,0,0,0,0,0,0,0,0,0,0,0,0,0,0,0,0,0,0,0,0,0,0,0,0,0,0,0,0,0,0,0,0,0,0,0,0,0,0,0,0,0,0,0,0,0,0,0,0,0,0,0,0,0,0,0,0,0,0,0,0,0,0,0,0,0,0,0,0,0,0,0,0,0,0,0,0,0,0,0,0,0,0,0,0,0,0,0,0,0,0,0,0,0,0,0,0,0,0,0,0,0,0,0,0,0,0,0,0,0,0,0,0,0,0,0,0,0,0,0,0,0,0,0,0,0,0,0,0,0,0,0,0,0,0,0,0,0,0,0,0,0,0,0,0,0,0,0,0,0,0,0,0,0,0,0,0,0,0,0,0,0,0,0,0,0,0,0,0,0,0,0,0,0,0,0,0,0,0,0,0,0,0,0,0,0,0,0,0,0,0,0,0,0,0,0,0,0,0,0,0,0,0,0,0,0,0,0,0,0,0,0,0,0,0,0,0,0,0,0,0,0,0,0,0,0,0,0,0,0,0,0,0,0,0,0,0,0,0,0,0,0,0,0,0,0,0,0,0,0,0,0,0,0,0,0,0,0,0,0,0,0,0,0,0,0,0,0,0,0,0,0,0,0,0,0,0,0,0,0,0,0,0,0,0,0,0,0,0,0,0,0,0,0,0,0,0,0,0,0,0,0,0,0,0,0,0,0,0,0,0,0,0,0,0,0,0,0,0,0,0,0,0,0,0,0,0,0,0,0,0,0,0,0,0,0,0,0,0,0,0,0,0,0,0,0,0,0,0,0,0,0,0,0,0,0,0,0,0,0,0,0,0,0,0,0,0,0,0,0,0,0,0,0,0,0,0,0,0,0,0,0,0,0,0,0,0,0,0,0,0,0,0,0,0,0,0,0,0,0,0,0,0,0,0,0,0,0,0,0,0,0,0,0,0,0,0,0,0,0,0,0,0,0,0,0,0,0,0,0,0,0,0,0,0,0,0,0,0,0,0,0,0,0,0,0,0,0,0,0,0,0,0,0,0,0,0,0,0,0,0,0,0,0,0,0,0,0,0,0,0,0,0,0,0,0,0,0,0,0,0,0,0,0,0,0,0,0,0,0,0,0,0,0,0,0,0,0,0,0,0,0,0,0,0,0,0,0,0,0,0,0,0,0,0,0,0,0,0,0,0,0,0,0,0,0,0,0,0,0,0,0,0,0,0,0,0,0,0,0,0,0,0,0,0,0,0,0,0,0,0,0,0,0,0,0,0,0,0,0,0,0,0,0,0,0,0,0,0,0,0,0,0,0,0,0,0,0,0,0,0,0,0,0,0,0,0,0,0,0,0,0,0,0,0,0,0,0,0,0,0,0,0,0,0,0,0,0,0,0,0,0,0,0,0,0,0,0,0,0,0,0,0,0,0,0,0,0,0,0,0,0,0,0,0,0,0,0,0,0,0,0,0,0,0,0,0,0,0,0,0,0,0,0,0,0,0,0,0,0,0,0,0,0,0,0,0,0,0,0,0,0,0,0,0,0,0,0,0,0,0,0,0,0,0,0,0,0,0,0,0,0,0,0,0,0,0,0,0,0,0,0,0,0,0,0,0,0,0,0,0,0,0,0,0,0,0,0,0,0,0,0,0,0,0,0,0,0,0,0,0,0,0,0,0,0,0,0,0,0,0,0,0,0,0,0,0,0,0,0,0,0,0,0,0,0,0,0,0,0,0,0,0,0,0,0,0,0,0,0,0,0,0,0,0,0,0,0,0,0,0,0,0,0,0,0,0,0,0,0,0,0,0,0,0,0,0,0,0,0,0,0,0,0,0,0,0,0,0,0,0,0,0,0,0,0,0,0,0,0,0,0,0,0,0,0,0,0,0,0,0,0,0,0,0,0,0,0,0,0,0,0,0,0,0,0,0,0,0,0,0,0,0,0,0,0,0,0,0,0,0,0,0,0,0,0,0,0,0,0,0,0,0,0,0,0,0,0,0,0,0,0,0,0,0,0,0,0,0,0,0,0,0,0,0,0,0,0,0,0,0,0,0,0,0,0,0,0,0,0,0,0,0,0,0,0,0,0,0,0,0,0,0,0,0,0,0,0,0,0,0,0,0,0,0,0,0,0,0,0,0,0,0,0,0,0,0,0,0,0,0,0,0,0,0,0,0,0,0,0,0,0,0,0,0,0,0,0,0,0,0,0,0,0,0,0,0,0,0,0,0,0,0,0,0,0,0,0,0,0,0,0,0,0,0,0,0,0,0,0,0,0,0,0,0,0,0,0,0,0,0,0,0,0,0,0,0,0,0,0,0,0,0,0,0,0,0,0,0,0,0,0,0,0,0,0,0,0,0,0,0,0,0,0,0,0,0,0,0,0,0,0,0,0,0,0,0,0,0,0,0,0,0,0,0,0,0,0,0,0,0,0,0,0,0,0,0,0,0,0,0,0,0,0,0,0,0,0,0,0,0,0,0,0,0,0,0,0,0,0,0,0,0,0,0,0,0,0,0,0,0,0,0,0,0,0,0,0,0,0,0,0,0,0,0,0,0,0,0,0,0,0,0,0,0,0,0,0,0,0,0,0,0,0,0,0,0,0,0,0,0,0,0,0,0,0,0,0,0,0,0,0,0,0,0,0,0,0,0,0,0,0,0,0,0,0,0,0,0,0,0,0,0,0,0,0,0,0,0,0,0,0,0,0,0,0,0,0,0,0,0,0,0,0,0,0,0,0,0,0,0,0,0,0,0,0,0,0,0,0,0,0,0,0,0,0,0,0,0,0,0,0,0,0,0,0,0,0,0,0,0,0,0,0,0,0,0,0,0,0,0,0,0,0,0,0,0,0,0,0,0,0,0,0,0,0,0,0,0,0,0,0,0,0,0,0,0,0,0,0,0,0,0,0,0,0,0,0,0,0,0,0,0,0,0,0,0,0,0,0,0,0,0,0,0,0,0,0,0,0,0,0,0,0,0,0,0,0,0,0,0,0,0,0,0,0,0,0,0,0,0,0,0,0,0,0,0,0,0,0,0,0,0,0,0,0,0,0,0,0,0,0,0,0,0,0,0,0,0,0,0,0,0,0,0,0,0,0,0,0,0,0,0,0,0,0,0,0,0,0,0,0,0,0,0,0,0,0,0,0,0,0,0,0,0,0,0,0,0,0,0,0,0,0,0,0,0,0,0,0,0,0,0,0,0,0,0,0,0,0,0,0,0,0,0,0,0,0,0,0,0,0,0,0,0,0,0,0,0,0,0,0,0,0,0,0,0,0,0,0,0,0,0,0,0,0,0,0,0,0,0,0,0,0,0,0,0,0,0,0,0,0,0]}],"tilesets":[{"firstgid":1,"source":"../Metano_Spriter_Pro_8px.tsj"}]}