{
  "type": "map",
  "version": "1.10",
  "orientation": "orthogonal",
  "renderorder": "right-down",
  "infinite": false,
  "tilewidth": 32,
  "tileheight": 32,
  "width": 12,
  "height": 12,
  "nextlayerid": 14,
  "nextobjectid": 34,
  "layers": [
    {
      "id": 1,
      "name": "00_fond_immersion",
      "visible": true,
      "opacity": 1,
      "properties": [
        {
          "name": "role",
          "type": "string",
          "value": "Fond d’immersion"
        }
      ],
      "type": "tilelayer",
      "width": 12,
      "height": 12,
      "x": 0,
      "y": 0,
      "data": [
        1,
        1,
        1,
        1,
        1,
        0,
        0,
        0,
        1,
        1,
        1,
        1,
        1,
        1,
        1,
        1,
        1,
        0,
        0,
        0,
        1,
        1,
        1,
        1,
        1,
        1,
        1,
        1,
        1,
        0,
        0,
        0,
        1,
        1,
        1,
        1,
        1,
        1,
        1,
        1,
        1,
        0,
        0,
        0,
        1,
        1,
        1,
        1,
        1,
        1,
        1,
        1,
        1,
        0,
        0,
        0,
        1,
        1,
        1,
        1,
        1,
        1,
        1,
        1,
        6,
        0,
        0,
        0,
        3,
        1,
        1,
        1,
        1,
        1,
        1,
        1,
        7,
        0,
        0,
        0,
        0,
        0,
        0,
        0,
        1,
        1,
        1,
        1,
        0,
        0,
        0,
        0,
        0,
        0,
        0,
        0,
        1,
        1,
        1,
        1,
        0,
        0,
        0,
        0,
        0,
        0,
        0,
        0,
        1,
        1,
        1,
        1,
        4,
        0,
        0,
        5,
        1,
        1,
        1,
        1,
        1,
        1,
        1,
        1,
        1,
        1,
        1,
        1,
        1,
        1,
        1,
        1,
        1,
        1,
        1,
        1,
        1,
        1,
        1,
        1,
        1,
        1,
        1,
        1
      ]
    },
    {
      "id": 2,
      "name": "01_soubassement",
      "visible": true,
      "opacity": 1,
      "properties": [
        {
          "name": "role",
          "type": "string",
          "value": "Soubassement d’écorce"
        }
      ],
      "type": "tilelayer",
      "width": 12,
      "height": 12,
      "x": 0,
      "y": 0,
      "data": [
        0,
        0,
        0,
        0,
        97,
        0,
        0,
        0,
        98,
        0,
        0,
        0,
        0,
        0,
        0,
        0,
        99,
        0,
        0,
        0,
        100,
        0,
        0,
        0,
        0,
        0,
        0,
        0,
        101,
        0,
        0,
        0,
        102,
        0,
        0,
        0,
        0,
        0,
        0,
        0,
        103,
        0,
        0,
        0,
        104,
        0,
        0,
        0,
        0,
        0,
        0,
        0,
        105,
        0,
        0,
        0,
        106,
        0,
        0,
        0,
        0,
        0,
        0,
        107,
        108,
        0,
        0,
        0,
        109,
        110,
        111,
        112,
        0,
        0,
        0,
        113,
        114,
        0,
        0,
        0,
        0,
        0,
        0,
        0,
        0,
        0,
        0,
        115,
        0,
        0,
        0,
        0,
        0,
        0,
        0,
        0,
        0,
        0,
        0,
        116,
        0,
        0,
        0,
        0,
        0,
        0,
        0,
        0,
        0,
        0,
        0,
        117,
        118,
        0,
        0,
        119,
        120,
        121,
        122,
        123,
        0,
        0,
        0,
        0,
        124,
        125,
        126,
        127,
        0,
        0,
        0,
        0,
        0,
        0,
        0,
        0,
        0,
        0,
        0,
        0,
        0,
        0,
        0,
        0
      ]
    },
    {
      "id": 3,
      "name": "02_feuillage_arriere",
      "visible": true,
      "opacity": 1,
      "properties": [
        {
          "name": "role",
          "type": "string",
          "value": "Feuillage arrière"
        }
      ],
      "type": "objectgroup",
      "draworder": "index",
      "objects": [
        {
          "id": 1,
          "name": "canopée_2",
          "gid": 370,
          "x": 245,
          "y": 106,
          "width": 58,
          "height": 43,
          "rotation": 0,
          "visible": true
        },
        {
          "id": 2,
          "name": "canopée_1",
          "gid": 369,
          "x": 248,
          "y": 125,
          "width": 64,
          "height": 36,
          "rotation": 0,
          "visible": true
        },
        {
          "id": 3,
          "name": "canopée_2",
          "gid": 370,
          "x": 283,
          "y": 141,
          "width": 58,
          "height": 43,
          "rotation": 0,
          "visible": true
        },
        {
          "id": 4,
          "name": "canopée_3",
          "gid": 371,
          "x": 81,
          "y": 241,
          "width": 58,
          "height": 43,
          "rotation": 0,
          "visible": true
        },
        {
          "id": 5,
          "name": "canopée_0",
          "gid": 374,
          "x": 78,
          "y": 201,
          "width": 64,
          "height": 36,
          "rotation": 0,
          "visible": true
        },
        {
          "id": 6,
          "name": "canopée_0",
          "gid": 374,
          "x": 104,
          "y": 141,
          "width": 64,
          "height": 36,
          "rotation": 0,
          "visible": true
        },
        {
          "id": 7,
          "name": "canopée_1",
          "gid": 369,
          "x": 110,
          "y": 120,
          "width": 64,
          "height": 36,
          "rotation": 0,
          "visible": true
        }
      ]
    },
    {
      "id": 4,
      "name": "03_parquet",
      "visible": true,
      "opacity": 1,
      "properties": [
        {
          "name": "role",
          "type": "string",
          "value": "Parquet"
        }
      ],
      "type": "tilelayer",
      "width": 12,
      "height": 12,
      "x": 0,
      "y": 0,
      "data": [
        0,
        0,
        0,
        0,
        0,
        389,
        390,
        391,
        0,
        0,
        0,
        0,
        0,
        0,
        0,
        0,
        0,
        386,
        387,
        388,
        0,
        0,
        0,
        0,
        0,
        0,
        0,
        0,
        0,
        395,
        396,
        385,
        0,
        0,
        0,
        0,
        0,
        0,
        0,
        0,
        0,
        383,
        393,
        394,
        0,
        0,
        0,
        0,
        0,
        0,
        0,
        0,
        0,
        380,
        381,
        382,
        0,
        0,
        0,
        0,
        0,
        0,
        0,
        0,
        403,
        390,
        391,
        392,
        404,
        0,
        0,
        0,
        0,
        0,
        0,
        0,
        405,
        387,
        388,
        389,
        390,
        391,
        392,
        380,
        0,
        0,
        0,
        0,
        395,
        396,
        385,
        386,
        387,
        388,
        389,
        390,
        0,
        0,
        0,
        0,
        383,
        393,
        394,
        395,
        396,
        385,
        386,
        387,
        0,
        0,
        0,
        0,
        406,
        381,
        382,
        402,
        0,
        0,
        0,
        0,
        0,
        0,
        0,
        0,
        0,
        0,
        0,
        0,
        0,
        0,
        0,
        0,
        0,
        0,
        0,
        0,
        0,
        0,
        0,
        0,
        0,
        0,
        0,
        0
      ]
    },
    {
      "id": 5,
      "name": "04_murs_fond",
      "visible": true,
      "opacity": 1,
      "properties": [
        {
          "name": "role",
          "type": "string",
          "value": "Panneaux du fond"
        }
      ],
      "type": "objectgroup",
      "draworder": "index",
      "objects": [
        {
          "id": 8,
          "name": "murs_fond_48_0",
          "gid": 476,
          "x": 285,
          "y": 197,
          "width": 56,
          "height": 72,
          "rotation": 0,
          "visible": true
        },
        {
          "id": 9,
          "name": "murs_fond_48_0",
          "gid": 476,
          "x": 333,
          "y": 197,
          "width": 56,
          "height": 72,
          "rotation": 0,
          "visible": true
        }
      ]
    },
    {
      "id": 6,
      "name": "05_murs_retours",
      "visible": true,
      "opacity": 1,
      "properties": [
        {
          "name": "role",
          "type": "string",
          "value": "Murs de retour"
        }
      ],
      "type": "objectgroup",
      "draworder": "index",
      "objects": [
        {
          "id": 10,
          "name": "murs_retours_0_53",
          "gid": 494,
          "x": 253,
          "y": 61,
          "width": 32,
          "height": 104,
          "rotation": 0,
          "visible": true
        },
        {
          "id": 11,
          "name": "murs_retours_0_53",
          "gid": 494,
          "x": 253,
          "y": 114,
          "width": 32,
          "height": 104,
          "rotation": 0,
          "visible": true
        },
        {
          "id": 12,
          "name": "murs_retours_0_53",
          "gid": 494,
          "x": 253,
          "y": 168,
          "width": 32,
          "height": 104,
          "rotation": 0,
          "visible": true
        },
        {
          "id": 13,
          "name": "murs_fond_32_32",
          "gid": 481,
          "x": 253,
          "y": 197,
          "width": 48,
          "height": 104,
          "rotation": 0,
          "visible": true
        },
        {
          "id": 14,
          "name": "murs_retours_0_-40",
          "gid": 495,
          "x": 107,
          "y": 293,
          "width": 32,
          "height": 88,
          "rotation": 0,
          "visible": true
        },
        {
          "id": 15,
          "name": "murs_retours_0_-40",
          "gid": 495,
          "x": 107,
          "y": 253,
          "width": 32,
          "height": 88,
          "rotation": 0,
          "visible": true
        },
        {
          "id": 16,
          "name": "murs_fond_32_-32",
          "gid": 480,
          "x": 117,
          "y": 213,
          "width": 48,
          "height": 104,
          "rotation": 0,
          "visible": true
        },
        {
          "id": 17,
          "name": "murs_retours_0_-59",
          "gid": 496,
          "x": 139,
          "y": 186,
          "width": 32,
          "height": 112,
          "rotation": 0,
          "visible": true
        },
        {
          "id": 18,
          "name": "murs_retours_0_-59",
          "gid": 496,
          "x": 139,
          "y": 127,
          "width": 32,
          "height": 112,
          "rotation": 0,
          "visible": true
        },
        {
          "id": 19,
          "name": "murs_retours_0_-59",
          "gid": 496,
          "x": 139,
          "y": 69,
          "width": 32,
          "height": 112,
          "rotation": 0,
          "visible": true
        },
        {
          "id": 20,
          "name": "joint_de_panneaux",
          "gid": 490,
          "x": 254,
          "y": 166,
          "width": 24,
          "height": 72,
          "rotation": 0,
          "visible": true
        },
        {
          "id": 21,
          "name": "joint_de_panneaux",
          "gid": 485,
          "x": 286,
          "y": 198,
          "width": 16,
          "height": 72,
          "rotation": 0,
          "visible": true
        },
        {
          "id": 22,
          "name": "joint_de_panneaux",
          "gid": 492,
          "x": 108,
          "y": 214,
          "width": 24,
          "height": 72,
          "rotation": 0,
          "visible": true
        },
        {
          "id": 23,
          "name": "joint_de_panneaux",
          "gid": 493,
          "x": 140,
          "y": 182,
          "width": 24,
          "height": 72,
          "rotation": 0,
          "visible": true
        }
      ]
    },
    {
      "id": 7,
      "name": "06_ombres_contact",
      "visible": true,
      "opacity": 1,
      "properties": [
        {
          "name": "role",
          "type": "string",
          "value": "Ombres de contact"
        }
      ],
      "type": "tilelayer",
      "width": 12,
      "height": 12,
      "x": 0,
      "y": 0,
      "data": [
        0,
        0,
        0,
        0,
        0,
        527,
        0,
        528,
        0,
        0,
        0,
        0,
        0,
        0,
        0,
        0,
        0,
        527,
        0,
        528,
        0,
        0,
        0,
        0,
        0,
        0,
        0,
        0,
        0,
        527,
        0,
        528,
        0,
        0,
        0,
        0,
        0,
        0,
        0,
        0,
        0,
        527,
        0,
        528,
        0,
        0,
        0,
        0,
        0,
        0,
        0,
        0,
        0,
        527,
        0,
        530,
        0,
        0,
        0,
        0,
        0,
        0,
        0,
        0,
        539,
        540,
        0,
        532,
        517,
        0,
        0,
        0,
        0,
        0,
        0,
        0,
        541,
        542,
        0,
        0,
        519,
        515,
        515,
        515,
        0,
        0,
        0,
        0,
        527,
        0,
        0,
        0,
        0,
        0,
        0,
        0,
        0,
        0,
        0,
        0,
        527,
        0,
        0,
        522,
        520,
        520,
        520,
        520,
        0,
        0,
        0,
        0,
        543,
        524,
        525,
        526,
        0,
        0,
        0,
        0,
        0,
        0,
        0,
        0,
        0,
        0,
        0,
        0,
        0,
        0,
        0,
        0,
        0,
        0,
        0,
        0,
        0,
        0,
        0,
        0,
        0,
        0,
        0,
        0
      ]
    },
    {
      "id": 8,
      "name": "07_reflets_seuils",
      "visible": true,
      "opacity": 1,
      "properties": [
        {
          "name": "role",
          "type": "string",
          "value": "Reflets des seuils"
        }
      ],
      "type": "tilelayer",
      "width": 12,
      "height": 12,
      "x": 0,
      "y": 0,
      "data": [
        0,
        0,
        0,
        0,
        0,
        597,
        0,
        598,
        0,
        0,
        0,
        0,
        0,
        0,
        0,
        0,
        0,
        0,
        0,
        0,
        0,
        0,
        0,
        0,
        0,
        0,
        0,
        0,
        0,
        0,
        0,
        0,
        0,
        0,
        0,
        0,
        0,
        0,
        0,
        0,
        0,
        0,
        0,
        0,
        0,
        0,
        0,
        0,
        0,
        0,
        0,
        0,
        0,
        0,
        0,
        0,
        0,
        0,
        0,
        0,
        0,
        0,
        0,
        0,
        0,
        0,
        0,
        0,
        0,
        0,
        0,
        0,
        0,
        0,
        0,
        0,
        0,
        0,
        0,
        0,
        0,
        0,
        0,
        594,
        0,
        0,
        0,
        0,
        0,
        0,
        0,
        0,
        0,
        0,
        0,
        0,
        0,
        0,
        0,
        0,
        0,
        0,
        0,
        0,
        0,
        0,
        0,
        596,
        0,
        0,
        0,
        0,
        0,
        0,
        0,
        0,
        0,
        0,
        0,
        0,
        0,
        0,
        0,
        0,
        0,
        0,
        0,
        0,
        0,
        0,
        0,
        0,
        0,
        0,
        0,
        0,
        0,
        0,
        0,
        0,
        0,
        0,
        0,
        0
      ]
    },
    {
      "id": 9,
      "name": "08_spirales",
      "visible": true,
      "opacity": 1,
      "properties": [
        {
          "name": "role",
          "type": "string",
          "value": "Traces spiralées"
        }
      ],
      "type": "objectgroup",
      "draworder": "index",
      "objects": []
    },
    {
      "id": 10,
      "name": "09_ombres_objets",
      "visible": true,
      "opacity": 1,
      "properties": [
        {
          "name": "role",
          "type": "string",
          "value": "Ombres des objets"
        }
      ],
      "type": "objectgroup",
      "draworder": "index",
      "objects": []
    },
    {
      "id": 11,
      "name": "10_objets",
      "visible": true,
      "opacity": 1,
      "properties": [
        {
          "name": "role",
          "type": "string",
          "value": "Objets et tentures"
        }
      ],
      "type": "objectgroup",
      "draworder": "index",
      "objects": []
    },
    {
      "id": 12,
      "name": "11_ecorce_racines_avant",
      "visible": true,
      "opacity": 1,
      "properties": [
        {
          "name": "role",
          "type": "string",
          "value": "Écorce et racines avant"
        }
      ],
      "type": "tilelayer",
      "width": 12,
      "height": 12,
      "x": 0,
      "y": 0,
      "data": [
        0,
        0,
        0,
        658,
        659,
        0,
        0,
        0,
        660,
        623,
        0,
        0,
        0,
        0,
        0,
        0,
        661,
        0,
        0,
        0,
        662,
        0,
        0,
        0,
        0,
        0,
        0,
        663,
        664,
        0,
        0,
        0,
        665,
        629,
        0,
        0,
        0,
        0,
        0,
        0,
        666,
        0,
        0,
        0,
        667,
        633,
        0,
        0,
        0,
        0,
        0,
        658,
        668,
        0,
        0,
        0,
        669,
        623,
        0,
        0,
        0,
        0,
        0,
        0,
        670,
        0,
        0,
        0,
        671,
        0,
        0,
        0,
        0,
        0,
        0,
        672,
        0,
        0,
        0,
        0,
        0,
        0,
        0,
        0,
        0,
        0,
        0,
        673,
        0,
        0,
        0,
        0,
        0,
        0,
        0,
        0,
        0,
        0,
        630,
        674,
        0,
        0,
        0,
        0,
        0,
        0,
        0,
        0,
        0,
        0,
        0,
        675,
        676,
        0,
        0,
        646,
        677,
        678,
        679,
        680,
        0,
        0,
        0,
        648,
        681,
        682,
        683,
        684,
        619,
        611,
        0,
        620,
        0,
        0,
        0,
        0,
        0,
        0,
        620,
        0,
        0,
        0,
        0,
        0
      ]
    },
    {
      "id": 13,
      "name": "12_feuillage_avant",
      "visible": true,
      "opacity": 1,
      "properties": [
        {
          "name": "role",
          "type": "string",
          "value": "Feuillage de premier plan"
        }
      ],
      "type": "objectgroup",
      "draworder": "index",
      "objects": [
        {
          "id": 24,
          "name": "bordure_végétale_1",
          "gid": 369,
          "x": 246,
          "y": 102,
          "width": 64,
          "height": 36,
          "rotation": 0,
          "visible": true
        },
        {
          "id": 25,
          "name": "bordure_végétale_2",
          "gid": 370,
          "x": 241,
          "y": 163,
          "width": 58,
          "height": 43,
          "rotation": 0,
          "visible": true
        },
        {
          "id": 26,
          "name": "bordure_végétale_2",
          "gid": 370,
          "x": 271,
          "y": 323,
          "width": 58,
          "height": 43,
          "rotation": 0,
          "visible": true
        },
        {
          "id": 27,
          "name": "bordure_végétale_4",
          "gid": 378,
          "x": 225,
          "y": 343,
          "width": 45,
          "height": 54,
          "rotation": 0,
          "visible": true
        },
        {
          "id": 28,
          "name": "bordure_végétale_7",
          "gid": 377,
          "x": 178,
          "y": 361,
          "width": 39,
          "height": 54,
          "rotation": 0,
          "visible": true
        },
        {
          "id": 29,
          "name": "bordure_végétale_2",
          "gid": 370,
          "x": 103,
          "y": 333,
          "width": 58,
          "height": 43,
          "rotation": 0,
          "visible": true
        },
        {
          "id": 30,
          "name": "bordure_végétale_5",
          "gid": 375,
          "x": 92,
          "y": 289,
          "width": 45,
          "height": 54,
          "rotation": 0,
          "visible": true
        },
        {
          "id": 31,
          "name": "retombée_1",
          "gid": 378,
          "x": 120,
          "y": 155,
          "width": 45,
          "height": 54,
          "rotation": 0,
          "visible": true
        },
        {
          "id": 32,
          "name": "bordure_végétale_3",
          "gid": 371,
          "x": 117,
          "y": 171,
          "width": 58,
          "height": 43,
          "rotation": 0,
          "visible": true
        },
        {
          "id": 33,
          "name": "bordure_végétale_4",
          "gid": 378,
          "x": 124,
          "y": 119,
          "width": 45,
          "height": 54,
          "rotation": 0,
          "visible": true
        }
      ]
    }
  ],
  "tilesets": [
    {
      "firstgid": 1,
      "source": "../../tiled/hallways_fond_nuit.tsj"
    },
    {
      "firstgid": 33,
      "source": "../../tiled/hallways_soubassement_nuit.tsj"
    },
    {
      "firstgid": 369,
      "source": "../../tiled/hallways_vegetation_nuit.tsj"
    },
    {
      "firstgid": 379,
      "source": "../../tiled/hallways_sol_decoupe_nuit.tsj"
    },
    {
      "firstgid": 475,
      "source": "../../tiled/hallways_murs_fond_nuit.tsj"
    },
    {
      "firstgid": 480,
      "source": "../../tiled/hallways_murs_retours_nuit.tsj"
    },
    {
      "firstgid": 513,
      "source": "../../tiled/hallways_contacts_nuit.tsj"
    },
    {
      "firstgid": 593,
      "source": "../../tiled/hallways_reflets_nuit.tsj"
    },
    {
      "firstgid": 601,
      "source": "../../tiled/hallways_ecorce_avant_nuit.tsj"
    },
    {
      "firstgid": 873,
      "source": "../../tiled/hallways_motifs_nuit.tsj"
    },
    {
      "firstgid": 889,
      "source": "../../tiled/hallways_ombres_objets_nuit.tsj"
    },
    {
      "firstgid": 909,
      "source": "../../tiled/hallways_objets_nuit.tsj"
    }
  ],
  "properties": [
    {
      "name": "architecture",
      "type": "string",
      "value": "panneaux verticaux + bordures d’immersion"
    }
  ]
}
