{
  "type": "map",
  "version": "1.10",
  "orientation": "orthogonal",
  "renderorder": "right-down",
  "infinite": false,
  "tilewidth": 32,
  "tileheight": 32,
  "width": 13,
  "height": 16,
  "nextlayerid": 14,
  "nextobjectid": 65,
  "layers": [
    {
      "id": 1,
      "name": "00_fond_immersion",
      "visible": true,
      "opacity": 1,
      "properties": [
        {
          "name": "role",
          "type": "string",
          "value": "Fond d’immersion"
        }
      ],
      "type": "tilelayer",
      "width": 13,
      "height": 16,
      "x": 0,
      "y": 0,
      "data": [
        1,
        1,
        1,
        1,
        1,
        0,
        0,
        0,
        1,
        1,
        1,
        1,
        1,
        1,
        1,
        1,
        1,
        1,
        0,
        0,
        0,
        1,
        1,
        1,
        1,
        1,
        1,
        1,
        1,
        1,
        1,
        0,
        0,
        0,
        1,
        1,
        1,
        1,
        1,
        1,
        1,
        1,
        1,
        6,
        0,
        0,
        0,
        12,
        1,
        1,
        1,
        1,
        1,
        1,
        1,
        6,
        7,
        0,
        0,
        0,
        13,
        12,
        1,
        1,
        1,
        1,
        1,
        6,
        7,
        0,
        0,
        0,
        0,
        0,
        13,
        12,
        1,
        1,
        1,
        1,
        14,
        0,
        0,
        0,
        0,
        0,
        0,
        0,
        15,
        1,
        1,
        1,
        1,
        14,
        0,
        0,
        0,
        0,
        0,
        0,
        0,
        15,
        1,
        1,
        1,
        1,
        14,
        0,
        0,
        0,
        0,
        0,
        0,
        0,
        15,
        1,
        1,
        1,
        1,
        14,
        0,
        0,
        0,
        0,
        0,
        0,
        0,
        15,
        1,
        1,
        1,
        1,
        14,
        0,
        0,
        0,
        0,
        0,
        0,
        0,
        15,
        1,
        1,
        1,
        1,
        16,
        0,
        0,
        0,
        0,
        0,
        0,
        0,
        17,
        1,
        1,
        1,
        1,
        1,
        4,
        0,
        0,
        0,
        0,
        0,
        5,
        1,
        1,
        1,
        1,
        1,
        1,
        1,
        1,
        0,
        0,
        0,
        1,
        1,
        1,
        1,
        1,
        1,
        1,
        1,
        1,
        1,
        0,
        0,
        0,
        1,
        1,
        1,
        1,
        1,
        1,
        1,
        1,
        1,
        1,
        0,
        0,
        0,
        1,
        1,
        1,
        1,
        1
      ]
    },
    {
      "id": 2,
      "name": "01_soubassement",
      "visible": true,
      "opacity": 1,
      "properties": [
        {
          "name": "role",
          "type": "string",
          "value": "Soubassement d’écorce"
        }
      ],
      "type": "tilelayer",
      "width": 13,
      "height": 16,
      "x": 0,
      "y": 0,
      "data": [
        0,
        0,
        0,
        0,
        97,
        0,
        0,
        0,
        98,
        0,
        0,
        0,
        0,
        0,
        0,
        0,
        0,
        99,
        0,
        0,
        0,
        100,
        0,
        0,
        0,
        0,
        0,
        0,
        0,
        0,
        101,
        0,
        0,
        0,
        102,
        0,
        0,
        0,
        0,
        0,
        0,
        0,
        241,
        269,
        0,
        0,
        0,
        270,
        271,
        0,
        0,
        0,
        0,
        0,
        247,
        248,
        114,
        0,
        0,
        0,
        272,
        273,
        210,
        0,
        0,
        0,
        274,
        275,
        253,
        0,
        0,
        0,
        0,
        0,
        217,
        276,
        277,
        0,
        0,
        278,
        279,
        0,
        0,
        0,
        0,
        0,
        0,
        0,
        280,
        281,
        0,
        0,
        282,
        283,
        0,
        0,
        0,
        0,
        0,
        0,
        0,
        284,
        285,
        0,
        0,
        286,
        287,
        0,
        0,
        0,
        0,
        0,
        0,
        0,
        288,
        289,
        0,
        0,
        290,
        291,
        0,
        0,
        0,
        0,
        0,
        0,
        0,
        292,
        293,
        0,
        0,
        294,
        295,
        0,
        0,
        0,
        0,
        0,
        0,
        0,
        296,
        297,
        0,
        0,
        298,
        299,
        0,
        0,
        0,
        0,
        0,
        0,
        0,
        300,
        301,
        0,
        0,
        0,
        302,
        303,
        0,
        0,
        0,
        0,
        0,
        304,
        305,
        0,
        0,
        0,
        0,
        0,
        306,
        307,
        0,
        0,
        0,
        308,
        309,
        0,
        0,
        0,
        0,
        0,
        0,
        0,
        310,
        0,
        0,
        0,
        311,
        0,
        0,
        0,
        0,
        0,
        0,
        0,
        0,
        312,
        0,
        0,
        0,
        313,
        0,
        0,
        0,
        0
      ]
    },
    {
      "id": 3,
      "name": "02_feuillage_arriere",
      "visible": true,
      "opacity": 1,
      "properties": [
        {
          "name": "role",
          "type": "string",
          "value": "Feuillage arrière"
        }
      ],
      "type": "objectgroup",
      "draworder": "index",
      "objects": [
        {
          "id": 1,
          "name": "canopée_0",
          "gid": 374,
          "x": 242,
          "y": 1,
          "width": 64,
          "height": 36,
          "rotation": 0,
          "visible": true
        },
        {
          "id": 2,
          "name": "canopée_1",
          "gid": 369,
          "x": 248,
          "y": 77,
          "width": 64,
          "height": 36,
          "rotation": 0,
          "visible": true
        },
        {
          "id": 3,
          "name": "canopée_2",
          "gid": 370,
          "x": 291,
          "y": 117,
          "width": 58,
          "height": 43,
          "rotation": 0,
          "visible": true
        },
        {
          "id": 4,
          "name": "canopée_3",
          "gid": 371,
          "x": 325,
          "y": 194,
          "width": 58,
          "height": 43,
          "rotation": 0,
          "visible": true
        },
        {
          "id": 5,
          "name": "canopée_0",
          "gid": 374,
          "x": 322,
          "y": 253,
          "width": 64,
          "height": 36,
          "rotation": 0,
          "visible": true
        },
        {
          "id": 6,
          "name": "canopée_1",
          "gid": 369,
          "x": 322,
          "y": 312,
          "width": 64,
          "height": 36,
          "rotation": 0,
          "visible": true
        },
        {
          "id": 7,
          "name": "canopée_2",
          "gid": 370,
          "x": 245,
          "y": 413,
          "width": 58,
          "height": 43,
          "rotation": 0,
          "visible": true
        },
        {
          "id": 8,
          "name": "canopée_3",
          "gid": 371,
          "x": 245,
          "y": 461,
          "width": 58,
          "height": 43,
          "rotation": 0,
          "visible": true
        },
        {
          "id": 9,
          "name": "canopée_3",
          "gid": 371,
          "x": 113,
          "y": 461,
          "width": 58,
          "height": 43,
          "rotation": 0,
          "visible": true
        },
        {
          "id": 10,
          "name": "canopée_0",
          "gid": 374,
          "x": 110,
          "y": 413,
          "width": 64,
          "height": 36,
          "rotation": 0,
          "visible": true
        },
        {
          "id": 11,
          "name": "canopée_2",
          "gid": 370,
          "x": 33,
          "y": 312,
          "width": 58,
          "height": 43,
          "rotation": 0,
          "visible": true
        },
        {
          "id": 12,
          "name": "canopée_3",
          "gid": 371,
          "x": 33,
          "y": 253,
          "width": 58,
          "height": 43,
          "rotation": 0,
          "visible": true
        },
        {
          "id": 13,
          "name": "canopée_0",
          "gid": 374,
          "x": 30,
          "y": 194,
          "width": 64,
          "height": 36,
          "rotation": 0,
          "visible": true
        },
        {
          "id": 14,
          "name": "canopée_3",
          "gid": 371,
          "x": 67,
          "y": 117,
          "width": 58,
          "height": 43,
          "rotation": 0,
          "visible": true
        },
        {
          "id": 15,
          "name": "canopée_0",
          "gid": 374,
          "x": 104,
          "y": 77,
          "width": 64,
          "height": 36,
          "rotation": 0,
          "visible": true
        },
        {
          "id": 16,
          "name": "canopée_2",
          "gid": 370,
          "x": 113,
          "y": 1,
          "width": 58,
          "height": 43,
          "rotation": 0,
          "visible": true
        }
      ]
    },
    {
      "id": 4,
      "name": "03_parquet",
      "visible": true,
      "opacity": 1,
      "properties": [
        {
          "name": "role",
          "type": "string",
          "value": "Parquet"
        }
      ],
      "type": "tilelayer",
      "width": 13,
      "height": 16,
      "x": 0,
      "y": 0,
      "data": [
        0,
        0,
        0,
        0,
        0,
        389,
        390,
        391,
        0,
        0,
        0,
        0,
        0,
        0,
        0,
        0,
        0,
        0,
        386,
        387,
        388,
        0,
        0,
        0,
        0,
        0,
        0,
        0,
        0,
        0,
        0,
        395,
        396,
        385,
        0,
        0,
        0,
        0,
        0,
        0,
        0,
        0,
        0,
        435,
        383,
        393,
        394,
        436,
        0,
        0,
        0,
        0,
        0,
        0,
        0,
        427,
        428,
        380,
        381,
        382,
        437,
        418,
        0,
        0,
        0,
        0,
        0,
        438,
        431,
        389,
        390,
        391,
        392,
        380,
        420,
        421,
        0,
        0,
        0,
        0,
        439,
        385,
        386,
        387,
        388,
        389,
        390,
        391,
        440,
        0,
        0,
        0,
        0,
        441,
        394,
        395,
        396,
        385,
        386,
        387,
        388,
        442,
        0,
        0,
        0,
        0,
        443,
        382,
        383,
        393,
        394,
        395,
        396,
        385,
        444,
        0,
        0,
        0,
        0,
        445,
        392,
        380,
        381,
        382,
        383,
        393,
        394,
        446,
        0,
        0,
        0,
        0,
        447,
        389,
        390,
        391,
        392,
        380,
        381,
        382,
        448,
        0,
        0,
        0,
        0,
        449,
        386,
        387,
        388,
        389,
        390,
        391,
        392,
        450,
        0,
        0,
        0,
        0,
        0,
        451,
        396,
        385,
        386,
        387,
        388,
        452,
        0,
        0,
        0,
        0,
        0,
        0,
        0,
        0,
        394,
        395,
        396,
        0,
        0,
        0,
        0,
        0,
        0,
        0,
        0,
        0,
        0,
        382,
        383,
        393,
        0,
        0,
        0,
        0,
        0,
        0,
        0,
        0,
        0,
        0,
        392,
        380,
        381,
        0,
        0,
        0,
        0,
        0
      ]
    },
    {
      "id": 5,
      "name": "04_murs_fond",
      "visible": true,
      "opacity": 1,
      "properties": [
        {
          "name": "role",
          "type": "string",
          "value": "Panneaux du fond"
        }
      ],
      "type": "objectgroup",
      "draworder": "index",
      "objects": []
    },
    {
      "id": 6,
      "name": "05_murs_retours",
      "visible": true,
      "opacity": 1,
      "properties": [
        {
          "name": "role",
          "type": "string",
          "value": "Murs de retour"
        }
      ],
      "type": "objectgroup",
      "draworder": "index",
      "objects": [
        {
          "id": 17,
          "name": "murs_retours_0_56",
          "gid": 503,
          "x": 253,
          "y": 61,
          "width": 32,
          "height": 104,
          "rotation": 0,
          "visible": true
        },
        {
          "id": 18,
          "name": "murs_retours_0_56",
          "gid": 503,
          "x": 253,
          "y": 117,
          "width": 32,
          "height": 104,
          "rotation": 0,
          "visible": true
        },
        {
          "id": 19,
          "name": "murs_fond_32_32",
          "gid": 481,
          "x": 253,
          "y": 149,
          "width": 48,
          "height": 104,
          "rotation": 0,
          "visible": true
        },
        {
          "id": 20,
          "name": "murs_fond_48_48",
          "gid": 501,
          "x": 285,
          "y": 197,
          "width": 64,
          "height": 120,
          "rotation": 0,
          "visible": true
        },
        {
          "id": 21,
          "name": "murs_retours_0_59",
          "gid": 510,
          "x": 333,
          "y": 261,
          "width": 32,
          "height": 112,
          "rotation": 0,
          "visible": true
        },
        {
          "id": 22,
          "name": "murs_retours_0_59",
          "gid": 510,
          "x": 333,
          "y": 320,
          "width": 32,
          "height": 112,
          "rotation": 0,
          "visible": true
        },
        {
          "id": 23,
          "name": "murs_retours_0_59",
          "gid": 510,
          "x": 333,
          "y": 378,
          "width": 32,
          "height": 112,
          "rotation": 0,
          "visible": true
        },
        {
          "id": 24,
          "name": "murs_retours_0_48",
          "gid": 511,
          "x": 253,
          "y": 469,
          "width": 32,
          "height": 96,
          "rotation": 0,
          "visible": true
        },
        {
          "id": 25,
          "name": "murs_retours_0_48",
          "gid": 499,
          "x": 253,
          "y": 517,
          "width": 32,
          "height": 96,
          "rotation": 0,
          "visible": true
        },
        {
          "id": 26,
          "name": "murs_retours_0_-48",
          "gid": 507,
          "x": 139,
          "y": 517,
          "width": 32,
          "height": 96,
          "rotation": 0,
          "visible": true
        },
        {
          "id": 27,
          "name": "murs_retours_0_-48",
          "gid": 512,
          "x": 139,
          "y": 469,
          "width": 32,
          "height": 96,
          "rotation": 0,
          "visible": true
        },
        {
          "id": 28,
          "name": "murs_retours_0_-59",
          "gid": 496,
          "x": 59,
          "y": 378,
          "width": 32,
          "height": 112,
          "rotation": 0,
          "visible": true
        },
        {
          "id": 29,
          "name": "murs_retours_0_-59",
          "gid": 496,
          "x": 59,
          "y": 319,
          "width": 32,
          "height": 112,
          "rotation": 0,
          "visible": true
        },
        {
          "id": 30,
          "name": "murs_retours_0_-59",
          "gid": 496,
          "x": 59,
          "y": 261,
          "width": 32,
          "height": 112,
          "rotation": 0,
          "visible": true
        },
        {
          "id": 31,
          "name": "murs_fond_48_-48",
          "gid": 506,
          "x": 69,
          "y": 197,
          "width": 64,
          "height": 120,
          "rotation": 0,
          "visible": true
        },
        {
          "id": 32,
          "name": "murs_fond_32_-32",
          "gid": 480,
          "x": 117,
          "y": 149,
          "width": 48,
          "height": 104,
          "rotation": 0,
          "visible": true
        },
        {
          "id": 33,
          "name": "murs_retours_0_-56",
          "gid": 504,
          "x": 139,
          "y": 117,
          "width": 32,
          "height": 104,
          "rotation": 0,
          "visible": true
        },
        {
          "id": 34,
          "name": "murs_retours_0_-56",
          "gid": 504,
          "x": 139,
          "y": 61,
          "width": 32,
          "height": 104,
          "rotation": 0,
          "visible": true
        },
        {
          "id": 35,
          "name": "joint_de_panneaux",
          "gid": 490,
          "x": 254,
          "y": 118,
          "width": 24,
          "height": 72,
          "rotation": 0,
          "visible": true
        },
        {
          "id": 36,
          "name": "joint_de_panneaux",
          "gid": 491,
          "x": 334,
          "y": 198,
          "width": 24,
          "height": 72,
          "rotation": 0,
          "visible": true
        },
        {
          "id": 37,
          "name": "joint_de_panneaux",
          "gid": 492,
          "x": 60,
          "y": 198,
          "width": 24,
          "height": 72,
          "rotation": 0,
          "visible": true
        },
        {
          "id": 38,
          "name": "joint_de_panneaux",
          "gid": 493,
          "x": 140,
          "y": 118,
          "width": 24,
          "height": 72,
          "rotation": 0,
          "visible": true
        }
      ]
    },
    {
      "id": 7,
      "name": "06_ombres_contact",
      "visible": true,
      "opacity": 1,
      "properties": [
        {
          "name": "role",
          "type": "string",
          "value": "Ombres de contact"
        }
      ],
      "type": "tilelayer",
      "width": 13,
      "height": 16,
      "x": 0,
      "y": 0,
      "data": [
        0,
        0,
        0,
        0,
        0,
        527,
        0,
        528,
        0,
        0,
        0,
        0,
        0,
        0,
        0,
        0,
        0,
        0,
        527,
        0,
        528,
        0,
        0,
        0,
        0,
        0,
        0,
        0,
        0,
        0,
        0,
        527,
        0,
        528,
        0,
        0,
        0,
        0,
        0,
        0,
        0,
        0,
        0,
        539,
        540,
        0,
        556,
        557,
        0,
        0,
        0,
        0,
        0,
        0,
        0,
        539,
        558,
        542,
        0,
        559,
        560,
        557,
        0,
        0,
        0,
        0,
        0,
        539,
        558,
        542,
        0,
        0,
        0,
        559,
        560,
        557,
        0,
        0,
        0,
        0,
        572,
        542,
        0,
        0,
        0,
        0,
        0,
        559,
        573,
        0,
        0,
        0,
        0,
        574,
        0,
        0,
        0,
        0,
        0,
        0,
        0,
        575,
        0,
        0,
        0,
        0,
        574,
        0,
        0,
        0,
        0,
        0,
        0,
        0,
        575,
        0,
        0,
        0,
        0,
        574,
        0,
        0,
        0,
        0,
        0,
        0,
        0,
        575,
        0,
        0,
        0,
        0,
        574,
        0,
        0,
        0,
        0,
        0,
        0,
        0,
        575,
        0,
        0,
        0,
        0,
        576,
        577,
        0,
        0,
        0,
        0,
        0,
        578,
        579,
        0,
        0,
        0,
        0,
        0,
        523,
        580,
        536,
        0,
        537,
        581,
        526,
        0,
        0,
        0,
        0,
        0,
        0,
        0,
        0,
        527,
        0,
        528,
        0,
        0,
        0,
        0,
        0,
        0,
        0,
        0,
        0,
        0,
        527,
        0,
        528,
        0,
        0,
        0,
        0,
        0,
        0,
        0,
        0,
        0,
        0,
        527,
        0,
        528,
        0,
        0,
        0,
        0,
        0
      ]
    },
    {
      "id": 8,
      "name": "07_reflets_seuils",
      "visible": true,
      "opacity": 1,
      "properties": [
        {
          "name": "role",
          "type": "string",
          "value": "Reflets des seuils"
        }
      ],
      "type": "tilelayer",
      "width": 13,
      "height": 16,
      "x": 0,
      "y": 0,
      "data": [
        0,
        0,
        0,
        0,
        0,
        597,
        0,
        598,
        0,
        0,
        0,
        0,
        0,
        0,
        0,
        0,
        0,
        0,
        0,
        0,
        0,
        0,
        0,
        0,
        0,
        0,
        0,
        0,
        0,
        0,
        0,
        0,
        0,
        0,
        0,
        0,
        0,
        0,
        0,
        0,
        0,
        0,
        0,
        0,
        0,
        0,
        0,
        0,
        0,
        0,
        0,
        0,
        0,
        0,
        0,
        0,
        0,
        0,
        0,
        0,
        0,
        0,
        0,
        0,
        0,
        0,
        0,
        0,
        0,
        0,
        0,
        0,
        0,
        0,
        0,
        0,
        0,
        0,
        0,
        0,
        0,
        0,
        0,
        0,
        0,
        0,
        0,
        0,
        0,
        0,
        0,
        0,
        0,
        0,
        0,
        0,
        0,
        0,
        0,
        0,
        0,
        0,
        0,
        0,
        0,
        0,
        0,
        0,
        0,
        0,
        0,
        0,
        0,
        0,
        0,
        0,
        0,
        0,
        0,
        0,
        0,
        0,
        0,
        0,
        0,
        0,
        0,
        0,
        0,
        0,
        0,
        0,
        0,
        0,
        0,
        0,
        0,
        0,
        0,
        0,
        0,
        0,
        0,
        0,
        0,
        0,
        0,
        0,
        0,
        0,
        0,
        0,
        0,
        0,
        0,
        0,
        0,
        0,
        0,
        0,
        0,
        0,
        0,
        0,
        0,
        0,
        0,
        0,
        0,
        0,
        0,
        0,
        0,
        0,
        0,
        0,
        0,
        0,
        0,
        0,
        0,
        0,
        0,
        0,
        0,
        0,
        0,
        0,
        0,
        0,
        0,
        0,
        0,
        0,
        0,
        0,
        0,
        0,
        0,
        0,
        599,
        0,
        600,
        0,
        0,
        0,
        0,
        0
      ]
    },
    {
      "id": 9,
      "name": "08_spirales",
      "visible": true,
      "opacity": 1,
      "properties": [
        {
          "name": "role",
          "type": "string",
          "value": "Traces spiralées"
        }
      ],
      "type": "objectgroup",
      "draworder": "index",
      "objects": [
        {
          "id": 39,
          "name": "spirale_09",
          "gid": 881,
          "x": 176,
          "y": 272,
          "width": 64,
          "height": 64,
          "rotation": 0,
          "visible": true
        }
      ]
    },
    {
      "id": 10,
      "name": "09_ombres_objets",
      "visible": true,
      "opacity": 1,
      "properties": [
        {
          "name": "role",
          "type": "string",
          "value": "Ombres des objets"
        }
      ],
      "type": "objectgroup",
      "draworder": "index",
      "objects": [
        {
          "id": 40,
          "name": "tapis_mauve",
          "gid": 896,
          "x": 172,
          "y": 326,
          "width": 72,
          "height": 64,
          "rotation": 0,
          "visible": true
        },
        {
          "id": 41,
          "name": "nid_paille",
          "gid": 893,
          "x": 99,
          "y": 258,
          "width": 56,
          "height": 40,
          "rotation": 0,
          "visible": true
        },
        {
          "id": 42,
          "name": "nid_mousse",
          "gid": 894,
          "x": 259,
          "y": 366,
          "width": 56,
          "height": 40,
          "rotation": 0,
          "visible": true
        },
        {
          "id": 43,
          "name": "sac_explorateur",
          "gid": 901,
          "x": 277,
          "y": 228,
          "width": 40,
          "height": 32,
          "rotation": 0,
          "visible": true
        }
      ]
    },
    {
      "id": 11,
      "name": "10_objets",
      "visible": true,
      "opacity": 1,
      "properties": [
        {
          "name": "role",
          "type": "string",
          "value": "Objets et tentures"
        }
      ],
      "type": "objectgroup",
      "draworder": "index",
      "objects": [
        {
          "id": 44,
          "name": "tapis_mauve",
          "gid": 916,
          "x": 172,
          "y": 326,
          "width": 72,
          "height": 64,
          "rotation": 0,
          "visible": true
        },
        {
          "id": 45,
          "name": "nid_paille",
          "gid": 913,
          "x": 99,
          "y": 258,
          "width": 56,
          "height": 40,
          "rotation": 0,
          "visible": true
        },
        {
          "id": 46,
          "name": "nid_mousse",
          "gid": 914,
          "x": 259,
          "y": 366,
          "width": 56,
          "height": 40,
          "rotation": 0,
          "visible": true
        },
        {
          "id": 47,
          "name": "sac_explorateur",
          "gid": 921,
          "x": 277,
          "y": 228,
          "width": 40,
          "height": 32,
          "rotation": 0,
          "visible": true
        }
      ]
    },
    {
      "id": 12,
      "name": "11_ecorce_racines_avant",
      "visible": true,
      "opacity": 1,
      "properties": [
        {
          "name": "role",
          "type": "string",
          "value": "Écorce et racines avant"
        }
      ],
      "type": "tilelayer",
      "width": 13,
      "height": 16,
      "x": 0,
      "y": 0,
      "data": [
        0,
        0,
        0,
        663,
        790,
        0,
        0,
        0,
        660,
        623,
        0,
        0,
        0,
        0,
        0,
        0,
        0,
        661,
        0,
        0,
        0,
        662,
        0,
        0,
        0,
        0,
        0,
        0,
        0,
        658,
        791,
        0,
        0,
        0,
        665,
        629,
        0,
        0,
        0,
        0,
        0,
        0,
        0,
        792,
        0,
        0,
        0,
        793,
        633,
        0,
        0,
        0,
        0,
        0,
        0,
        0,
        0,
        0,
        0,
        0,
        0,
        0,
        0,
        0,
        0,
        0,
        794,
        795,
        0,
        0,
        0,
        0,
        0,
        0,
        0,
        796,
        797,
        0,
        0,
        798,
        799,
        0,
        0,
        0,
        0,
        0,
        0,
        0,
        800,
        801,
        0,
        0,
        802,
        803,
        0,
        0,
        0,
        0,
        0,
        0,
        0,
        804,
        805,
        0,
        0,
        806,
        807,
        0,
        0,
        0,
        0,
        0,
        0,
        0,
        808,
        809,
        0,
        0,
        810,
        811,
        0,
        0,
        0,
        0,
        0,
        0,
        0,
        812,
        813,
        0,
        0,
        814,
        815,
        0,
        0,
        0,
        0,
        0,
        0,
        0,
        816,
        817,
        0,
        0,
        818,
        819,
        0,
        0,
        0,
        0,
        0,
        0,
        0,
        820,
        821,
        0,
        0,
        0,
        822,
        823,
        824,
        0,
        0,
        0,
        0,
        825,
        826,
        0,
        0,
        0,
        0,
        648,
        827,
        828,
        0,
        0,
        829,
        830,
        831,
        0,
        0,
        0,
        0,
        0,
        0,
        0,
        832,
        0,
        0,
        0,
        833,
        0,
        0,
        0,
        0,
        0,
        0,
        0,
        630,
        834,
        0,
        0,
        0,
        835,
        629,
        0,
        0,
        0
      ]
    },
    {
      "id": 13,
      "name": "12_feuillage_avant",
      "visible": true,
      "opacity": 1,
      "properties": [
        {
          "name": "role",
          "type": "string",
          "value": "Feuillage de premier plan"
        }
      ],
      "type": "objectgroup",
      "draworder": "index",
      "objects": [
        {
          "id": 48,
          "name": "bordure_végétale_1",
          "gid": 369,
          "x": 246,
          "y": 102,
          "width": 64,
          "height": 36,
          "rotation": 0,
          "visible": true
        },
        {
          "id": 49,
          "name": "retombée_1",
          "gid": 376,
          "x": 334,
          "y": 229,
          "width": 39,
          "height": 54,
          "rotation": 0,
          "visible": true
        },
        {
          "id": 50,
          "name": "bordure_végétale_1",
          "gid": 369,
          "x": 326,
          "y": 236,
          "width": 64,
          "height": 36,
          "rotation": 0,
          "visible": true
        },
        {
          "id": 51,
          "name": "bordure_végétale_2",
          "gid": 370,
          "x": 321,
          "y": 297,
          "width": 58,
          "height": 43,
          "rotation": 0,
          "visible": true
        },
        {
          "id": 52,
          "name": "bordure_végétale_3",
          "gid": 371,
          "x": 321,
          "y": 355,
          "width": 58,
          "height": 43,
          "rotation": 0,
          "visible": true
        },
        {
          "id": 53,
          "name": "bordure_végétale_4",
          "gid": 378,
          "x": 305,
          "y": 423,
          "width": 45,
          "height": 54,
          "rotation": 0,
          "visible": true
        },
        {
          "id": 54,
          "name": "bordure_végétale_7",
          "gid": 377,
          "x": 242,
          "y": 457,
          "width": 39,
          "height": 54,
          "rotation": 0,
          "visible": true
        },
        {
          "id": 55,
          "name": "bordure_végétale_2",
          "gid": 370,
          "x": 241,
          "y": 463,
          "width": 58,
          "height": 43,
          "rotation": 0,
          "visible": true
        },
        {
          "id": 56,
          "name": "bordure_végétale_6",
          "gid": 376,
          "x": 126,
          "y": 455,
          "width": 39,
          "height": 54,
          "rotation": 0,
          "visible": true
        },
        {
          "id": 57,
          "name": "bordure_végétale_0",
          "gid": 374,
          "x": 102,
          "y": 448,
          "width": 64,
          "height": 36,
          "rotation": 0,
          "visible": true
        },
        {
          "id": 58,
          "name": "bordure_végétale_3",
          "gid": 371,
          "x": 71,
          "y": 429,
          "width": 58,
          "height": 43,
          "rotation": 0,
          "visible": true
        },
        {
          "id": 59,
          "name": "retombée_0",
          "gid": 375,
          "x": 40,
          "y": 229,
          "width": 45,
          "height": 54,
          "rotation": 0,
          "visible": true
        },
        {
          "id": 60,
          "name": "bordure_végétale_6",
          "gid": 376,
          "x": 46,
          "y": 369,
          "width": 39,
          "height": 54,
          "rotation": 0,
          "visible": true
        },
        {
          "id": 61,
          "name": "bordure_végétale_7",
          "gid": 377,
          "x": 46,
          "y": 311,
          "width": 39,
          "height": 54,
          "rotation": 0,
          "visible": true
        },
        {
          "id": 62,
          "name": "bordure_végétale_0",
          "gid": 374,
          "x": 26,
          "y": 244,
          "width": 64,
          "height": 36,
          "rotation": 0,
          "visible": true
        },
        {
          "id": 63,
          "name": "retombée_0",
          "gid": 372,
          "x": 120,
          "y": 104,
          "width": 32,
          "height": 46,
          "rotation": 0,
          "visible": true
        },
        {
          "id": 64,
          "name": "bordure_végétale_7",
          "gid": 377,
          "x": 126,
          "y": 113,
          "width": 39,
          "height": 54,
          "rotation": 0,
          "visible": true
        }
      ]
    }
  ],
  "tilesets": [
    {
      "firstgid": 1,
      "source": "../../tiled/hallways_fond_nuit.tsj"
    },
    {
      "firstgid": 33,
      "source": "../../tiled/hallways_soubassement_nuit.tsj"
    },
    {
      "firstgid": 369,
      "source": "../../tiled/hallways_vegetation_nuit.tsj"
    },
    {
      "firstgid": 379,
      "source": "../../tiled/hallways_sol_decoupe_nuit.tsj"
    },
    {
      "firstgid": 475,
      "source": "../../tiled/hallways_murs_fond_nuit.tsj"
    },
    {
      "firstgid": 480,
      "source": "../../tiled/hallways_murs_retours_nuit.tsj"
    },
    {
      "firstgid": 513,
      "source": "../../tiled/hallways_contacts_nuit.tsj"
    },
    {
      "firstgid": 593,
      "source": "../../tiled/hallways_reflets_nuit.tsj"
    },
    {
      "firstgid": 601,
      "source": "../../tiled/hallways_ecorce_avant_nuit.tsj"
    },
    {
      "firstgid": 873,
      "source": "../../tiled/hallways_motifs_nuit.tsj"
    },
    {
      "firstgid": 889,
      "source": "../../tiled/hallways_ombres_objets_nuit.tsj"
    },
    {
      "firstgid": 909,
      "source": "../../tiled/hallways_objets_nuit.tsj"
    }
  ],
  "properties": [
    {
      "name": "architecture",
      "type": "string",
      "value": "panneaux verticaux + bordures d’immersion"
    }
  ]
}
