{"type":"map","version":"1.10","tiledversion":"1.11.0","orientation":"orthogonal","renderorder":"right-down","tilewidth":8,"tileheight":8,"width":57,"height":78,"infinite":false,"nextlayerid":8,"nextobjectid":2,"layers":[{"id":1,"name":"Ciel et arrière-plan","visible":true,"opacity":1,"x":0,"y":0,"type":"imagelayer","image":"../calques/jour/00_fond.png"},{"id":2,"name":"Lune fixe et étoiles nocturnes","visible":true,"opacity":1,"x":0,"y":0,"type":"imagelayer","image":"../calques/jour/01_astres.png"},{"id":3,"name":"Eau — fond","visible":true,"opacity":1,"x":0,"y":0,"type":"imagelayer","image":"../calques/jour/02_eau.png"},{"id":4,"name":"Reflets et cascades — overlay","visible":true,"opacity":1,"x":0,"y":0,"type":"objectgroup","draworder":"index","objects":[{"id":1,"name":"Reflets et cascades — overlay","type":"","gid":1,"x":0,"y":310,"width":456,"height":310,"rotation":0,"visible":true}]},{"id":5,"name":"Terrain et végétation naturels","visible":true,"opacity":1,"x":0,"y":0,"type":"imagelayer","image":"../calques/jour/04_terrain.png"},{"id":6,"name":"Structures — calque vide","visible":true,"opacity":1,"x":0,"y":0,"type":"imagelayer","image":"../calques/jour/05_decor.png"},{"id":7,"name":"Repères — pas des collisions intégrées","type":"objectgroup","visible":false,"opacity":1,"x":0,"y":0,"draworder":"index","objects":[]}],"tilesets":[{"firstgid":1,"name":"cascades_jour","tilewidth":456,"tileheight":310,"tilecount":3,"columns":3,"margin":0,"spacing":0,"objectalignment":"bottomleft","image":"../animations/cascades_jour.png","imagewidth":1368,"imageheight":310,"tiles":[{"id":0,"animation":[{"tileid":0,"duration":250},{"tileid":1,"duration":250},{"tileid":2,"duration":250}]}]}]}