{"type":"map","version":"1.10","tiledversion":"1.11.0","orientation":"orthogonal","renderorder":"right-down","tilewidth":8,"tileheight":8,"width":63,"height":63,"infinite":false,"nextlayerid":8,"nextobjectid":1,"layers":[{"id":1,"name":"Ciel et arrière-plan","visible":true,"opacity":1,"x":0,"y":0,"type":"imagelayer","image":"../calques/jour/00_fond.png"},{"id":2,"name":"Lune fixe et étoiles nocturnes","visible":true,"opacity":1,"x":0,"y":0,"type":"imagelayer","image":"../calques/jour/01_astres.png"},{"id":3,"name":"Eau — fond","visible":true,"opacity":1,"x":0,"y":0,"type":"imagelayer","image":"../calques/jour/02_eau.png"},{"id":4,"name":"Reflets et cascades — overlay","visible":true,"opacity":1,"x":0,"y":0,"type":"imagelayer","image":"../calques/jour/03_effets.png"},{"id":5,"name":"Terrain et végétation naturels","visible":true,"opacity":1,"x":0,"y":0,"type":"imagelayer","image":"../calques/jour/04_terrain.png"},{"id":6,"name":"Structures — calque vide","visible":true,"opacity":1,"x":0,"y":0,"type":"imagelayer","image":"../calques/jour/05_decor.png"},{"id":7,"name":"Repères — pas des collisions intégrées","type":"objectgroup","visible":false,"opacity":1,"x":0,"y":0,"draworder":"index","objects":[]}],"tilesets":[]}